(Design File: .Users.carlboudreau.Documents.GitHub.X-Carve.Barrelheads File Sets.PocketAppleSpiceTitle.c2d)
(stockMin:-12.000in, -12.000in, -1.000in)
(stockMax:12.000in, 12.000in, 0.000in)
(STOCK/BLOCK,24.000, 24.000, 1.000,12.000, 12.000, 1.000)
G90
G20
(Move to safe Z to avoid workholding)
G53G0Z-0.197
(Toolpath: WholeBarrelTopPlaner)
(Toolpath: Contour Barrelhead Outter)
(Toolpath: Contour Innerborder)
(Toolpath: Drilling ValveCenter)
(Toolpath: Contour Apples UL)
(Toolpath: Contour Apple LR)
(Toolpath: VCarve Banner v2)
(Toolpath: Advanced VCarve txtThe)
(Toolpath: Advanced VCarve txtVineyard)
(Toolpath: Advanced VCarve txtEst)
(Toolpath: Advanced VCarve txt2018)
(Toolpath: Advanced VCarve txtWineTitle)
(Toolpath: Advanced VCarve txtBy)
(Toolpath: Advanced VCarve txtBoudreau)
(Advanced VCarve txtBoudreau - Pocket)
M05
(TOOL/MILL,0.125, 0.000, 0.000, 0.00)
M6T102
M03S10000
(PREPOSITION BEFORE RAPID PLUNGE)
G0X0.7832Y-3.2414
Z0.5000
G1Z-0.0500F8.0
X0.7779Y-3.2313F10.0
X0.8389Y-3.2483
X0.8444Y-3.2796
X0.8523Y-3.3129
X0.8636Y-3.3499
X0.8760Y-3.3834
X0.8914Y-3.4187
X0.9102Y-3.4561
X0.9294Y-3.4894
X0.9509Y-3.5222
X0.9718Y-3.5499
X0.9950Y-3.5760
X1.0151Y-3.5952
X1.0156Y-3.5998
X1.0015Y-3.5911
X0.9872Y-3.5840
X0.9607Y-3.5751
X0.9401Y-3.5715
X0.7832Y-3.2414
Z0.5000
G0Z-0.0250
G1Z-0.1000F8.0
X0.7779Y-3.2313F10.0
X0.8389Y-3.2483
X0.8444Y-3.2796
X0.8523Y-3.3129
X0.8636Y-3.3499
X0.8760Y-3.3834
X0.8914Y-3.4187
X0.9102Y-3.4561
X0.9294Y-3.4894
X0.9509Y-3.5222
X0.9718Y-3.5499
X0.9950Y-3.5760
X1.0151Y-3.5952
X1.0156Y-3.5998
X1.0015Y-3.5911
X0.9872Y-3.5840
X0.9607Y-3.5751
X0.9401Y-3.5715
X0.7832Y-3.2414
Z0.5000
G0Z-0.0750
G1Z-0.1500F8.0
X0.7779Y-3.2313F10.0
X0.8389Y-3.2483
X0.8444Y-3.2796
X0.8523Y-3.3129
X0.8636Y-3.3499
X0.8760Y-3.3834
X0.8914Y-3.4187
X0.9102Y-3.4561
X0.9294Y-3.4894
X0.9509Y-3.5222
X0.9718Y-3.5499
X0.9950Y-3.5760
X1.0151Y-3.5952
X1.0156Y-3.5998
X1.0015Y-3.5911
X0.9872Y-3.5840
X0.9607Y-3.5751
X0.9401Y-3.5715
X0.7832Y-3.2414
Z0.5000
G0Z-0.0900
G1Z-0.1650F8.0
X0.7779Y-3.2313F10.0
X0.8389Y-3.2483
X0.8444Y-3.2796
X0.8523Y-3.3129
X0.8636Y-3.3499
X0.8760Y-3.3834
X0.8914Y-3.4187
X0.9102Y-3.4561
X0.9294Y-3.4894
X0.9509Y-3.5222
X0.9718Y-3.5499
X0.9950Y-3.5760
X1.0151Y-3.5952
X1.0156Y-3.5998
X1.0015Y-3.5911
X0.9872Y-3.5840
X0.9607Y-3.5751
X0.9401Y-3.5715
X0.7832Y-3.2414
Z0.5000
G0X0.2892Y-3.4899
G1Z-0.0500F8.0
X0.3101Y-3.4439F10.0
X0.3206Y-3.4730
X0.3282Y-3.4913
X0.3428Y-3.5218
X0.3605Y-3.5531
X0.3793Y-3.5807
X0.3998Y-3.6056
X0.4113Y-3.6173
X0.4021Y-3.6285
X0.3906Y-3.6467
X0.3854Y-3.6569
X0.3674Y-3.6222
X0.3561Y-3.6036
X0.3366Y-3.5751
X0.3147Y-3.5462
X0.2912Y-3.5183
X0.2816Y-3.5080
X0.2892Y-3.4899
Z0.5000
G0Z-0.0250
G1Z-0.1000F8.0
X0.3101Y-3.4439F10.0
X0.3206Y-3.4730
X0.3282Y-3.4913
X0.3428Y-3.5218
X0.3605Y-3.5531
X0.3793Y-3.5807
X0.3998Y-3.6056
X0.4113Y-3.6173
X0.4021Y-3.6285
X0.3906Y-3.6467
X0.3854Y-3.6569
X0.3674Y-3.6222
X0.3561Y-3.6036
X0.3366Y-3.5751
X0.3147Y-3.5462
X0.2912Y-3.5183
X0.2816Y-3.5080
X0.2892Y-3.4899
Z0.5000
G0Z-0.0750
G1Z-0.1500F8.0
X0.3101Y-3.4439F10.0
X0.3206Y-3.4730
X0.3282Y-3.4913
X0.3428Y-3.5218
X0.3605Y-3.5531
X0.3793Y-3.5807
X0.3998Y-3.6056
X0.4113Y-3.6173
X0.4021Y-3.6285
X0.3906Y-3.6467
X0.3854Y-3.6569
X0.3674Y-3.6222
X0.3561Y-3.6036
X0.3366Y-3.5751
X0.3147Y-3.5462
X0.2912Y-3.5183
X0.2816Y-3.5080
X0.2892Y-3.4899
Z0.5000
G0Z-0.0900
G1Z-0.1650F8.0
X0.3101Y-3.4439F10.0
X0.3206Y-3.4730
X0.3282Y-3.4913
X0.3428Y-3.5218
X0.3605Y-3.5531
X0.3793Y-3.5807
X0.3998Y-3.6056
X0.4113Y-3.6173
X0.4021Y-3.6285
X0.3906Y-3.6467
X0.3854Y-3.6569
X0.3674Y-3.6222
X0.3561Y-3.6036
X0.3366Y-3.5751
X0.3147Y-3.5462
X0.2912Y-3.5183
X0.2816Y-3.5080
X0.2892Y-3.4899
Z0.5000
G0X0.0263Y-3.8834
G1Z-0.0500F8.0
X0.0617Y-3.8606F10.0
X0.1697Y-4.0543
X0.1550Y-4.0453
X0.1420Y-4.0387
X0.1226Y-4.0314
X0.1100Y-4.0280
X0.0945Y-4.0252
X0.0181Y-3.8881
X0.0263Y-3.8834
Z0.5000
G0Z-0.0250
G1Z-0.1000F8.0
X0.0617Y-3.8606F10.0
X0.1697Y-4.0543
X0.1550Y-4.0453
X0.1420Y-4.0387
X0.1226Y-4.0314
X0.1100Y-4.0280
X0.0945Y-4.0252
X0.0181Y-3.8881
X0.0263Y-3.8834
Z0.5000
G0Z-0.0750
G1Z-0.1500F8.0
X0.0617Y-3.8606F10.0
X0.1697Y-4.0543
X0.1550Y-4.0453
X0.1420Y-4.0387
X0.1226Y-4.0314
X0.1100Y-4.0280
X0.0945Y-4.0252
X0.0181Y-3.8881
X0.0263Y-3.8834
Z0.5000
G0Z-0.0900
G1Z-0.1650F8.0
X0.0617Y-3.8606F10.0
X0.1697Y-4.0543
X0.1550Y-4.0453
X0.1420Y-4.0387
X0.1226Y-4.0314
X0.1100Y-4.0280
X0.0945Y-4.0252
X0.0181Y-3.8881
X0.0263Y-3.8834
Z0.5000
G0X-0.2789Y-3.5214
G1Z-0.0500F8.0
X-0.2562Y-3.5600F10.0
X-0.2381Y-3.5874
X-0.2182Y-3.6138
X-0.2571Y-3.6742
X-0.2617Y-3.6637
X-0.5634Y-3.1227
X-0.5106Y-3.1160
X-0.4933Y-3.1130
X-0.4901Y-3.1245
X-0.4761Y-3.1631
X-0.4633Y-3.1903
X-0.2789Y-3.5214
Z0.5000
G0Z-0.0250
G1Z-0.1000F8.0
X-0.2562Y-3.5600F10.0
X-0.2381Y-3.5874
X-0.2182Y-3.6138
X-0.2571Y-3.6742
X-0.2617Y-3.6637
X-0.5634Y-3.1227
X-0.5106Y-3.1160
X-0.4933Y-3.1130
X-0.4901Y-3.1245
X-0.4761Y-3.1631
X-0.4633Y-3.1903
X-0.2789Y-3.5214
Z0.5000
G0Z-0.0750
G1Z-0.1500F8.0
X-0.2562Y-3.5600F10.0
X-0.2381Y-3.5874
X-0.2182Y-3.6138
X-0.2571Y-3.6742
X-0.2617Y-3.6637
X-0.5634Y-3.1227
X-0.5106Y-3.1160
X-0.4933Y-3.1130
X-0.4901Y-3.1245
X-0.4761Y-3.1631
X-0.4633Y-3.1903
X-0.2789Y-3.5214
Z0.5000
G0Z-0.0900
G1Z-0.1650F8.0
X-0.2562Y-3.5600F10.0
X-0.2381Y-3.5874
X-0.2182Y-3.6138
X-0.2571Y-3.6742
X-0.2617Y-3.6637
X-0.5634Y-3.1227
X-0.5106Y-3.1160
X-0.4933Y-3.1130
X-0.4901Y-3.1245
X-0.4761Y-3.1631
X-0.4633Y-3.1903
X-0.2789Y-3.5214
Z0.5000
G0X-0.8743Y-3.9073
G1Z-0.0500F8.0
X-0.8632Y-3.9075F10.0
X-0.8489Y-3.9063
X-0.8458Y-3.9392
X-0.8430Y-3.9545
X-0.8344Y-3.9844
X-0.8363Y-3.9881
X-0.8816Y-3.9068
X-0.8743Y-3.9073
X-0.8700Y-3.8450
X-0.8546Y-3.8440
X-0.8390Y-3.8407
X-0.8197Y-3.8331
X-0.8095Y-3.8271
X-0.7995Y-3.8196
X-0.7911Y-3.8115
X-0.7839Y-3.8030
X-0.7769Y-3.7926
X-0.7697Y-3.7783
X-0.7613Y-3.7540
X-0.7514Y-3.7357
X-0.7387Y-3.7206
X-0.7310Y-3.7139
X-0.7163Y-3.7041
X-0.7063Y-3.6991
X-0.6864Y-3.6922
X-0.6728Y-3.6897
X-0.6622Y-3.6891
X-0.6502Y-3.6897
X-0.6325Y-3.6938
X-0.6228Y-3.6981
X-0.6100Y-3.7067
X-0.6204Y-3.7076
X-0.6421Y-3.7116
X-0.6627Y-3.7181
X-0.6834Y-3.7276
X-0.6991Y-3.7371
X-0.7210Y-3.7543
X-0.7313Y-3.7639
X-0.7533Y-3.7908
X-0.7670Y-3.8144
X-0.7772Y-3.8395
X-0.7816Y-3.8554
X-0.7859Y-3.8817
X-0.7864Y-3.9093
X-0.7837Y-3.9319
X-0.7816Y-3.9427
X-0.7747Y-3.9661
X-0.7633Y-3.9921
X-0.7702Y-4.0002
X-0.7797Y-4.0146
X-0.7873Y-4.0319
X-0.7902Y-4.0425
X-0.7927Y-4.0604
X-0.7928Y-4.0703
X-0.7907Y-4.0874
X-0.7885Y-4.0962
X-0.7815Y-4.1138
X-0.6804Y-4.2956
X-0.6737Y-4.3058
X-0.6654Y-4.3158
X-0.6558Y-4.3248
X-0.6457Y-4.3322
X-0.6284Y-4.3414
X-0.6294Y-4.3504
X-0.6297Y-4.3628
X-0.6289Y-4.3722
X-0.6244Y-4.3919
X-0.6187Y-4.4058
X-0.4802Y-4.6546
X-0.4685Y-4.6702
X-0.4561Y-4.6819
X-0.4489Y-4.6872
X-0.4337Y-4.6958
X-0.4230Y-4.6999
X-0.4125Y-4.7029
X-0.4024Y-4.7046
X-0.3889Y-4.7055
X-0.3693Y-4.7035
X-0.3567Y-4.7004
X-0.3430Y-4.6950
X-0.3324Y-4.6893
X-0.3144Y-4.6778
X-0.2912Y-4.6582
X-0.2803Y-4.6467
X-0.2693Y-4.6330
X-0.2579Y-4.6159
X-0.2488Y-4.5991
X-0.2400Y-4.5781
X-0.2343Y-4.5597
X-0.2297Y-4.5376
X-0.2273Y-4.5077
X-0.2285Y-4.4828
X-0.2326Y-4.4585
X-0.2398Y-4.4337
X-0.2483Y-4.4139
X-0.2391Y-4.4236
X-0.2248Y-4.4424
X-0.2130Y-4.4615
X-0.1993Y-4.4898
X-0.1915Y-4.5104
X-0.1832Y-4.5401
X-0.1796Y-4.5610
X-0.1775Y-4.5896
X-0.1783Y-4.6088
X-0.1806Y-4.6259
X-0.1869Y-4.6499
X-0.1945Y-4.6675
X-0.2050Y-4.6842
X-0.2146Y-4.6956
X-0.2267Y-4.7067
X-0.2407Y-4.7169
X-0.2580Y-4.7265
X-0.2745Y-4.7333
X-0.2961Y-4.7404
X-0.3088Y-4.7466
X-0.3242Y-4.7574
X-0.3330Y-4.7657
X-0.3414Y-4.7759
X-0.3490Y-4.7878
X-0.3553Y-4.8015
X-0.3592Y-4.8144
X-0.3614Y-4.8272
X-0.3620Y-4.8433
X-0.3610Y-4.8542
X-0.3574Y-4.8700
X-0.3499Y-4.8885
X-0.1347Y-5.2749
X-0.1480Y-5.2791
X-0.1730Y-5.2856
X-0.1883Y-5.2886
X-0.1926Y-5.2743
X-0.1973Y-5.2636
X-0.6632Y-4.4270
X-0.6683Y-4.4191
X-0.6816Y-4.4033
X-0.6889Y-4.3969
X-0.6998Y-4.3891
X-0.7109Y-4.3832
X-0.7102Y-4.3661
X-0.7124Y-4.3489
X-0.7152Y-4.3381
X-0.7224Y-4.3210
X-1.1033Y-3.6374
X-1.1110Y-3.6267
X-1.1223Y-3.6146
X-1.1155Y-3.5983
X-1.1018Y-3.5565
X-1.0988Y-3.5446
X-0.9618Y-3.7904
X-0.9565Y-3.7988
X-0.9491Y-3.8084
X-0.9389Y-3.8187
X-0.9298Y-3.8257
X-0.9176Y-3.8331
X-0.9088Y-3.8372
X-0.8920Y-3.8424
X-0.8829Y-3.8441
X-0.8700Y-3.8450
Z0.5000
G0X-0.8743Y-3.9073
Z-0.0250
G1Z-0.1000F8.0
X-0.8632Y-3.9075F10.0
X-0.8489Y-3.9063
X-0.8458Y-3.9392
X-0.8430Y-3.9545
X-0.8344Y-3.9844
X-0.8363Y-3.9881
X-0.8816Y-3.9068
X-0.8743Y-3.9073
X-0.8700Y-3.8450
X-0.8546Y-3.8440
X-0.8390Y-3.8407
X-0.8197Y-3.8331
X-0.8095Y-3.8271
X-0.7995Y-3.8196
X-0.7911Y-3.8115
X-0.7839Y-3.8030
X-0.7769Y-3.7926
X-0.7697Y-3.7783
X-0.7613Y-3.7540
X-0.7514Y-3.7357
X-0.7387Y-3.7206
X-0.7310Y-3.7139
X-0.7163Y-3.7041
X-0.7063Y-3.6991
X-0.6864Y-3.6922
X-0.6728Y-3.6897
X-0.6622Y-3.6891
X-0.6502Y-3.6897
X-0.6325Y-3.6938
X-0.6228Y-3.6981
X-0.6100Y-3.7067
X-0.6204Y-3.7076
X-0.6421Y-3.7116
X-0.6627Y-3.7181
X-0.6834Y-3.7276
X-0.6991Y-3.7371
X-0.7210Y-3.7543
X-0.7313Y-3.7639
X-0.7533Y-3.7908
X-0.7670Y-3.8144
X-0.7772Y-3.8395
X-0.7816Y-3.8554
X-0.7859Y-3.8817
X-0.7864Y-3.9093
X-0.7837Y-3.9319
X-0.7816Y-3.9427
X-0.7747Y-3.9661
X-0.7633Y-3.9921
X-0.7702Y-4.0002
X-0.7797Y-4.0146
X-0.7873Y-4.0319
X-0.7902Y-4.0425
X-0.7927Y-4.0604
X-0.7928Y-4.0703
X-0.7907Y-4.0874
X-0.7885Y-4.0962
X-0.7815Y-4.1138
X-0.6804Y-4.2956
X-0.6737Y-4.3058
X-0.6654Y-4.3158
X-0.6558Y-4.3248
X-0.6457Y-4.3322
X-0.6284Y-4.3414
X-0.6294Y-4.3504
X-0.6297Y-4.3628
X-0.6289Y-4.3722
X-0.6244Y-4.3919
X-0.6187Y-4.4058
X-0.4802Y-4.6546
X-0.4685Y-4.6702
X-0.4561Y-4.6819
X-0.4489Y-4.6872
X-0.4337Y-4.6958
X-0.4230Y-4.6999
X-0.4125Y-4.7029
X-0.4024Y-4.7046
X-0.3889Y-4.7055
X-0.3693Y-4.7035
X-0.3567Y-4.7004
X-0.3430Y-4.6950
X-0.3324Y-4.6893
X-0.3144Y-4.6778
X-0.2912Y-4.6582
X-0.2803Y-4.6467
X-0.2693Y-4.6330
X-0.2579Y-4.6159
X-0.2488Y-4.5991
X-0.2400Y-4.5781
X-0.2343Y-4.5597
X-0.2297Y-4.5376
X-0.2273Y-4.5077
X-0.2285Y-4.4828
X-0.2326Y-4.4585
X-0.2398Y-4.4337
X-0.2483Y-4.4139
X-0.2391Y-4.4236
X-0.2248Y-4.4424
X-0.2130Y-4.4615
X-0.1993Y-4.4898
X-0.1915Y-4.5104
X-0.1832Y-4.5401
X-0.1796Y-4.5610
X-0.1775Y-4.5896
X-0.1783Y-4.6088
X-0.1806Y-4.6259
X-0.1869Y-4.6499
X-0.1945Y-4.6675
X-0.2050Y-4.6842
X-0.2146Y-4.6956
X-0.2267Y-4.7067
X-0.2407Y-4.7169
X-0.2580Y-4.7265
X-0.2745Y-4.7333
X-0.2961Y-4.7404
X-0.3088Y-4.7466
X-0.3242Y-4.7574
X-0.3330Y-4.7657
X-0.3414Y-4.7759
X-0.3490Y-4.7878
X-0.3553Y-4.8015
X-0.3592Y-4.8144
X-0.3614Y-4.8272
X-0.3620Y-4.8433
X-0.3610Y-4.8542
X-0.3574Y-4.8700
X-0.3499Y-4.8885
X-0.1347Y-5.2749
X-0.1480Y-5.2791
X-0.1730Y-5.2856
X-0.1883Y-5.2886
X-0.1926Y-5.2743
X-0.1973Y-5.2636
X-0.6632Y-4.4270
X-0.6683Y-4.4191
X-0.6816Y-4.4033
X-0.6889Y-4.3969
X-0.6998Y-4.3891
X-0.7109Y-4.3832
X-0.7102Y-4.3661
X-0.7124Y-4.3489
X-0.7152Y-4.3381
X-0.7224Y-4.3210
X-1.1033Y-3.6374
X-1.1110Y-3.6267
X-1.1223Y-3.6146
X-1.1155Y-3.5983
X-1.1018Y-3.5565
X-1.0988Y-3.5446
X-0.9618Y-3.7904
X-0.9565Y-3.7988
X-0.9491Y-3.8084
X-0.9389Y-3.8187
X-0.9298Y-3.8257
X-0.9176Y-3.8331
X-0.9088Y-3.8372
X-0.8920Y-3.8424
X-0.8829Y-3.8441
X-0.8700Y-3.8450
Z0.5000
G0X-0.8743Y-3.9073
Z-0.0750
G1Z-0.1500F8.0
X-0.8632Y-3.9075F10.0
X-0.8489Y-3.9063
X-0.8458Y-3.9392
X-0.8430Y-3.9545
X-0.8344Y-3.9844
X-0.8363Y-3.9881
X-0.8816Y-3.9068
X-0.8743Y-3.9073
X-0.8700Y-3.8450
X-0.8546Y-3.8440
X-0.8390Y-3.8407
X-0.8197Y-3.8331
X-0.8095Y-3.8271
X-0.7995Y-3.8196
X-0.7911Y-3.8115
X-0.7839Y-3.8030
X-0.7769Y-3.7926
X-0.7697Y-3.7783
X-0.7613Y-3.7540
X-0.7514Y-3.7357
X-0.7387Y-3.7206
X-0.7310Y-3.7139
X-0.7163Y-3.7041
X-0.7063Y-3.6991
X-0.6864Y-3.6922
X-0.6728Y-3.6897
X-0.6622Y-3.6891
X-0.6502Y-3.6897
X-0.6325Y-3.6938
X-0.6228Y-3.6981
X-0.6100Y-3.7067
X-0.6204Y-3.7076
X-0.6421Y-3.7116
X-0.6627Y-3.7181
X-0.6834Y-3.7276
X-0.6991Y-3.7371
X-0.7210Y-3.7543
X-0.7313Y-3.7639
X-0.7533Y-3.7908
X-0.7670Y-3.8144
X-0.7772Y-3.8395
X-0.7816Y-3.8554
X-0.7859Y-3.8817
X-0.7864Y-3.9093
X-0.7837Y-3.9319
X-0.7816Y-3.9427
X-0.7747Y-3.9661
X-0.7633Y-3.9921
X-0.7702Y-4.0002
X-0.7797Y-4.0146
X-0.7873Y-4.0319
X-0.7902Y-4.0425
X-0.7927Y-4.0604
X-0.7928Y-4.0703
X-0.7907Y-4.0874
X-0.7885Y-4.0962
X-0.7815Y-4.1138
X-0.6804Y-4.2956
X-0.6737Y-4.3058
X-0.6654Y-4.3158
X-0.6558Y-4.3248
X-0.6457Y-4.3322
X-0.6284Y-4.3414
X-0.6294Y-4.3504
X-0.6297Y-4.3628
X-0.6289Y-4.3722
X-0.6244Y-4.3919
X-0.6187Y-4.4058
X-0.4802Y-4.6546
X-0.4685Y-4.6702
X-0.4561Y-4.6819
X-0.4489Y-4.6872
X-0.4337Y-4.6958
X-0.4230Y-4.6999
X-0.4125Y-4.7029
X-0.4024Y-4.7046
X-0.3889Y-4.7055
X-0.3693Y-4.7035
X-0.3567Y-4.7004
X-0.3430Y-4.6950
X-0.3324Y-4.6893
X-0.3144Y-4.6778
X-0.2912Y-4.6582
X-0.2803Y-4.6467
X-0.2693Y-4.6330
X-0.2579Y-4.6159
X-0.2488Y-4.5991
X-0.2400Y-4.5781
X-0.2343Y-4.5597
X-0.2297Y-4.5376
X-0.2273Y-4.5077
X-0.2285Y-4.4828
X-0.2326Y-4.4585
X-0.2398Y-4.4337
X-0.2483Y-4.4139
X-0.2391Y-4.4236
X-0.2248Y-4.4424
X-0.2130Y-4.4615
X-0.1993Y-4.4898
X-0.1915Y-4.5104
X-0.1832Y-4.5401
X-0.1796Y-4.5610
X-0.1775Y-4.5896
X-0.1783Y-4.6088
X-0.1806Y-4.6259
X-0.1869Y-4.6499
X-0.1945Y-4.6675
X-0.2050Y-4.6842
X-0.2146Y-4.6956
X-0.2267Y-4.7067
X-0.2407Y-4.7169
X-0.2580Y-4.7265
X-0.2745Y-4.7333
X-0.2961Y-4.7404
X-0.3088Y-4.7466
X-0.3242Y-4.7574
X-0.3330Y-4.7657
X-0.3414Y-4.7759
X-0.3490Y-4.7878
X-0.3553Y-4.8015
X-0.3592Y-4.8144
X-0.3614Y-4.8272
X-0.3620Y-4.8433
X-0.3610Y-4.8542
X-0.3574Y-4.8700
X-0.3499Y-4.8885
X-0.1347Y-5.2749
X-0.1480Y-5.2791
X-0.1730Y-5.2856
X-0.1883Y-5.2886
X-0.1926Y-5.2743
X-0.1973Y-5.2636
X-0.6632Y-4.4270
X-0.6683Y-4.4191
X-0.6816Y-4.4033
X-0.6889Y-4.3969
X-0.6998Y-4.3891
X-0.7109Y-4.3832
X-0.7102Y-4.3661
X-0.7124Y-4.3489
X-0.7152Y-4.3381
X-0.7224Y-4.3210
X-1.1033Y-3.6374
X-1.1110Y-3.6267
X-1.1223Y-3.6146
X-1.1155Y-3.5983
X-1.1018Y-3.5565
X-1.0988Y-3.5446
X-0.9618Y-3.7904
X-0.9565Y-3.7988
X-0.9491Y-3.8084
X-0.9389Y-3.8187
X-0.9298Y-3.8257
X-0.9176Y-3.8331
X-0.9088Y-3.8372
X-0.8920Y-3.8424
X-0.8829Y-3.8441
X-0.8700Y-3.8450
Z0.5000
G0X-0.8743Y-3.9073
Z-0.0900
G1Z-0.1650F8.0
X-0.8632Y-3.9075F10.0
X-0.8489Y-3.9063
X-0.8458Y-3.9392
X-0.8430Y-3.9545
X-0.8344Y-3.9844
X-0.8363Y-3.9881
X-0.8816Y-3.9068
X-0.8743Y-3.9073
X-0.8700Y-3.8450
X-0.8546Y-3.8440
X-0.8390Y-3.8407
X-0.8197Y-3.8331
X-0.8095Y-3.8271
X-0.7995Y-3.8196
X-0.7911Y-3.8115
X-0.7839Y-3.8030
X-0.7769Y-3.7926
X-0.7697Y-3.7783
X-0.7613Y-3.7540
X-0.7514Y-3.7357
X-0.7387Y-3.7206
X-0.7310Y-3.7139
X-0.7163Y-3.7041
X-0.7063Y-3.6991
X-0.6864Y-3.6922
X-0.6728Y-3.6897
X-0.6622Y-3.6891
X-0.6502Y-3.6897
X-0.6325Y-3.6938
X-0.6228Y-3.6981
X-0.6100Y-3.7067
X-0.6204Y-3.7076
X-0.6421Y-3.7116
X-0.6627Y-3.7181
X-0.6834Y-3.7276
X-0.6991Y-3.7371
X-0.7210Y-3.7543
X-0.7313Y-3.7639
X-0.7533Y-3.7908
X-0.7670Y-3.8144
X-0.7772Y-3.8395
X-0.7816Y-3.8554
X-0.7859Y-3.8817
X-0.7864Y-3.9093
X-0.7837Y-3.9319
X-0.7816Y-3.9427
X-0.7747Y-3.9661
X-0.7633Y-3.9921
X-0.7702Y-4.0002
X-0.7797Y-4.0146
X-0.7873Y-4.0319
X-0.7902Y-4.0425
X-0.7927Y-4.0604
X-0.7928Y-4.0703
X-0.7907Y-4.0874
X-0.7885Y-4.0962
X-0.7815Y-4.1138
X-0.6804Y-4.2956
X-0.6737Y-4.3058
X-0.6654Y-4.3158
X-0.6558Y-4.3248
X-0.6457Y-4.3322
X-0.6284Y-4.3414
X-0.6294Y-4.3504
X-0.6297Y-4.3628
X-0.6289Y-4.3722
X-0.6244Y-4.3919
X-0.6187Y-4.4058
X-0.4802Y-4.6546
X-0.4685Y-4.6702
X-0.4561Y-4.6819
X-0.4489Y-4.6872
X-0.4337Y-4.6958
X-0.4230Y-4.6999
X-0.4125Y-4.7029
X-0.4024Y-4.7046
X-0.3889Y-4.7055
X-0.3693Y-4.7035
X-0.3567Y-4.7004
X-0.3430Y-4.6950
X-0.3324Y-4.6893
X-0.3144Y-4.6778
X-0.2912Y-4.6582
X-0.2803Y-4.6467
X-0.2693Y-4.6330
X-0.2579Y-4.6159
X-0.2488Y-4.5991
X-0.2400Y-4.5781
X-0.2343Y-4.5597
X-0.2297Y-4.5376
X-0.2273Y-4.5077
X-0.2285Y-4.4828
X-0.2326Y-4.4585
X-0.2398Y-4.4337
X-0.2483Y-4.4139
X-0.2391Y-4.4236
X-0.2248Y-4.4424
X-0.2130Y-4.4615
X-0.1993Y-4.4898
X-0.1915Y-4.5104
X-0.1832Y-4.5401
X-0.1796Y-4.5610
X-0.1775Y-4.5896
X-0.1783Y-4.6088
X-0.1806Y-4.6259
X-0.1869Y-4.6499
X-0.1945Y-4.6675
X-0.2050Y-4.6842
X-0.2146Y-4.6956
X-0.2267Y-4.7067
X-0.2407Y-4.7169
X-0.2580Y-4.7265
X-0.2745Y-4.7333
X-0.2961Y-4.7404
X-0.3088Y-4.7466
X-0.3242Y-4.7574
X-0.3330Y-4.7657
X-0.3414Y-4.7759
X-0.3490Y-4.7878
X-0.3553Y-4.8015
X-0.3592Y-4.8144
X-0.3614Y-4.8272
X-0.3620Y-4.8433
X-0.3610Y-4.8542
X-0.3574Y-4.8700
X-0.3499Y-4.8885
X-0.1347Y-5.2749
X-0.1480Y-5.2791
X-0.1730Y-5.2856
X-0.1883Y-5.2886
X-0.1926Y-5.2743
X-0.1973Y-5.2636
X-0.6632Y-4.4270
X-0.6683Y-4.4191
X-0.6816Y-4.4033
X-0.6889Y-4.3969
X-0.6998Y-4.3891
X-0.7109Y-4.3832
X-0.7102Y-4.3661
X-0.7124Y-4.3489
X-0.7152Y-4.3381
X-0.7224Y-4.3210
X-1.1033Y-3.6374
X-1.1110Y-3.6267
X-1.1223Y-3.6146
X-1.1155Y-3.5983
X-1.1018Y-3.5565
X-1.0988Y-3.5446
X-0.9618Y-3.7904
X-0.9565Y-3.7988
X-0.9491Y-3.8084
X-0.9389Y-3.8187
X-0.9298Y-3.8257
X-0.9176Y-3.8331
X-0.9088Y-3.8372
X-0.8920Y-3.8424
X-0.8829Y-3.8441
X-0.8700Y-3.8450
Z0.5000
G0X-1.3794Y-4.1854
G1Z-0.0500F8.0
X-1.3506Y-4.2123F10.0
X-1.3263Y-4.2309
X-1.2985Y-4.2482
X-1.2756Y-4.2594
X-1.2610Y-4.2654
X-1.2290Y-4.2752
X-1.2071Y-4.2795
X-1.2187Y-4.2915
X-1.2361Y-4.3043
X-1.2453Y-4.3094
X-1.2590Y-4.3144
X-1.2712Y-4.3160
X-1.2831Y-4.3148
X-1.2965Y-4.3103
X-1.3038Y-4.3066
X-1.3205Y-4.2946
X-1.3291Y-4.2865
X-1.3383Y-4.2762
X-1.3480Y-4.2637
X-1.3571Y-4.2497
X-1.3709Y-4.2240
X-1.3804Y-4.2019
X-1.3901Y-4.1735
X-1.3794Y-4.1854
Z0.5000
G0Z-0.0250
G1Z-0.1000F8.0
X-1.3506Y-4.2123F10.0
X-1.3263Y-4.2309
X-1.2985Y-4.2482
X-1.2756Y-4.2594
X-1.2610Y-4.2654
X-1.2290Y-4.2752
X-1.2071Y-4.2795
X-1.2187Y-4.2915
X-1.2361Y-4.3043
X-1.2453Y-4.3094
X-1.2590Y-4.3144
X-1.2712Y-4.3160
X-1.2831Y-4.3148
X-1.2965Y-4.3103
X-1.3038Y-4.3066
X-1.3205Y-4.2946
X-1.3291Y-4.2865
X-1.3383Y-4.2762
X-1.3480Y-4.2637
X-1.3571Y-4.2497
X-1.3709Y-4.2240
X-1.3804Y-4.2019
X-1.3901Y-4.1735
X-1.3794Y-4.1854
Z0.5000
G0Z-0.0750
G1Z-0.1500F8.0
X-1.3506Y-4.2123F10.0
X-1.3263Y-4.2309
X-1.2985Y-4.2482
X-1.2756Y-4.2594
X-1.2610Y-4.2654
X-1.2290Y-4.2752
X-1.2071Y-4.2795
X-1.2187Y-4.2915
X-1.2361Y-4.3043
X-1.2453Y-4.3094
X-1.2590Y-4.3144
X-1.2712Y-4.3160
X-1.2831Y-4.3148
X-1.2965Y-4.3103
X-1.3038Y-4.3066
X-1.3205Y-4.2946
X-1.3291Y-4.2865
X-1.3383Y-4.2762
X-1.3480Y-4.2637
X-1.3571Y-4.2497
X-1.3709Y-4.2240
X-1.3804Y-4.2019
X-1.3901Y-4.1735
X-1.3794Y-4.1854
Z0.5000
G0Z-0.0900
G1Z-0.1650F8.0
X-1.3506Y-4.2123F10.0
X-1.3263Y-4.2309
X-1.2985Y-4.2482
X-1.2756Y-4.2594
X-1.2610Y-4.2654
X-1.2290Y-4.2752
X-1.2071Y-4.2795
X-1.2187Y-4.2915
X-1.2361Y-4.3043
X-1.2453Y-4.3094
X-1.2590Y-4.3144
X-1.2712Y-4.3160
X-1.2831Y-4.3148
X-1.2965Y-4.3103
X-1.3038Y-4.3066
X-1.3205Y-4.2946
X-1.3291Y-4.2865
X-1.3383Y-4.2762
X-1.3480Y-4.2637
X-1.3571Y-4.2497
X-1.3709Y-4.2240
X-1.3804Y-4.2019
X-1.3901Y-4.1735
X-1.3794Y-4.1854
Z0.5000
G0X0.2800Y-4.3935
G1Z-0.0500F8.0
X0.2559Y-4.3707F10.0
X0.2313Y-4.3504
X0.2163Y-4.3394
X0.1964Y-4.3266
X0.2050Y-4.3175
X0.2155Y-4.3044
X0.2257Y-4.2882
X0.2338Y-4.2719
X0.2396Y-4.2558
X0.2437Y-4.2410
X0.2475Y-4.2126
X0.2471Y-4.1932
X0.5028Y-4.6521
X0.4854Y-4.6724
X0.4574Y-4.7076
X0.4260Y-4.7505
X0.4247Y-4.7228
X0.4213Y-4.6902
X0.4165Y-4.6607
X0.4063Y-4.6171
X0.3961Y-4.5844
X0.3839Y-4.5524
X0.3642Y-4.5099
X0.3557Y-4.4940
X0.3403Y-4.4684
X0.3213Y-4.4413
X0.3017Y-4.4170
X0.2800Y-4.3935
Z0.5000
G0Z-0.0250
G1Z-0.1000F8.0
X0.2559Y-4.3707F10.0
X0.2313Y-4.3504
X0.2163Y-4.3394
X0.1964Y-4.3266
X0.2050Y-4.3175
X0.2155Y-4.3044
X0.2257Y-4.2882
X0.2338Y-4.2719
X0.2396Y-4.2558
X0.2437Y-4.2410
X0.2475Y-4.2126
X0.2471Y-4.1932
X0.5028Y-4.6521
X0.4854Y-4.6724
X0.4574Y-4.7076
X0.4260Y-4.7505
X0.4247Y-4.7228
X0.4213Y-4.6902
X0.4165Y-4.6607
X0.4063Y-4.6171
X0.3961Y-4.5844
X0.3839Y-4.5524
X0.3642Y-4.5099
X0.3557Y-4.4940
X0.3403Y-4.4684
X0.3213Y-4.4413
X0.3017Y-4.4170
X0.2800Y-4.3935
Z0.5000
G0Z-0.0750
G1Z-0.1500F8.0
X0.2559Y-4.3707F10.0
X0.2313Y-4.3504
X0.2163Y-4.3394
X0.1964Y-4.3266
X0.2050Y-4.3175
X0.2155Y-4.3044
X0.2257Y-4.2882
X0.2338Y-4.2719
X0.2396Y-4.2558
X0.2437Y-4.2410
X0.2475Y-4.2126
X0.2471Y-4.1932
X0.5028Y-4.6521
X0.4854Y-4.6724
X0.4574Y-4.7076
X0.4260Y-4.7505
X0.4247Y-4.7228
X0.4213Y-4.6902
X0.4165Y-4.6607
X0.4063Y-4.6171
X0.3961Y-4.5844
X0.3839Y-4.5524
X0.3642Y-4.5099
X0.3557Y-4.4940
X0.3403Y-4.4684
X0.3213Y-4.4413
X0.3017Y-4.4170
X0.2800Y-4.3935
Z0.5000
G0Z-0.0900
G1Z-0.1650F8.0
X0.2559Y-4.3707F10.0
X0.2313Y-4.3504
X0.2163Y-4.3394
X0.1964Y-4.3266
X0.2050Y-4.3175
X0.2155Y-4.3044
X0.2257Y-4.2882
X0.2338Y-4.2719
X0.2396Y-4.2558
X0.2437Y-4.2410
X0.2475Y-4.2126
X0.2471Y-4.1932
X0.5028Y-4.6521
X0.4854Y-4.6724
X0.4574Y-4.7076
X0.4260Y-4.7505
X0.4247Y-4.7228
X0.4213Y-4.6902
X0.4165Y-4.6607
X0.4063Y-4.6171
X0.3961Y-4.5844
X0.3839Y-4.5524
X0.3642Y-4.5099
X0.3557Y-4.4940
X0.3403Y-4.4684
X0.3213Y-4.4413
X0.3017Y-4.4170
X0.2800Y-4.3935
Z0.5000
G0X0.6684Y-4.2309
G1Z-0.0500F8.0
X0.6194Y-4.2161F10.0
X0.6140Y-4.1811
X0.6065Y-4.1476
X0.5964Y-4.1123
X0.5839Y-4.0773
X0.5679Y-4.0404
X0.5487Y-4.0025
X0.5290Y-3.9688
X0.5068Y-3.9358
X0.4846Y-3.9076
X0.4598Y-3.8807
X0.4422Y-3.8646
X0.4420Y-3.8607
X0.4560Y-3.8692
X0.4698Y-3.8762
X0.4976Y-3.8854
X0.5169Y-3.8886
X0.6821Y-4.2346
X0.6684Y-4.2309
Z0.5000
G0Z-0.0250
G1Z-0.1000F8.0
X0.6194Y-4.2161F10.0
X0.6140Y-4.1811
X0.6065Y-4.1476
X0.5964Y-4.1123
X0.5839Y-4.0773
X0.5679Y-4.0404
X0.5487Y-4.0025
X0.5290Y-3.9688
X0.5068Y-3.9358
X0.4846Y-3.9076
X0.4598Y-3.8807
X0.4422Y-3.8646
X0.4420Y-3.8607
X0.4560Y-3.8692
X0.4698Y-3.8762
X0.4976Y-3.8854
X0.5169Y-3.8886
X0.6821Y-4.2346
X0.6684Y-4.2309
Z0.5000
G0Z-0.0750
G1Z-0.1500F8.0
X0.6194Y-4.2161F10.0
X0.6140Y-4.1811
X0.6065Y-4.1476
X0.5964Y-4.1123
X0.5839Y-4.0773
X0.5679Y-4.0404
X0.5487Y-4.0025
X0.5290Y-3.9688
X0.5068Y-3.9358
X0.4846Y-3.9076
X0.4598Y-3.8807
X0.4422Y-3.8646
X0.4420Y-3.8607
X0.4560Y-3.8692
X0.4698Y-3.8762
X0.4976Y-3.8854
X0.5169Y-3.8886
X0.6821Y-4.2346
X0.6684Y-4.2309
Z0.5000
G0Z-0.0900
G1Z-0.1650F8.0
X0.6194Y-4.2161F10.0
X0.6140Y-4.1811
X0.6065Y-4.1476
X0.5964Y-4.1123
X0.5839Y-4.0773
X0.5679Y-4.0404
X0.5487Y-4.0025
X0.5290Y-3.9688
X0.5068Y-3.9358
X0.4846Y-3.9076
X0.4598Y-3.8807
X0.4422Y-3.8646
X0.4420Y-3.8607
X0.4560Y-3.8692
X0.4698Y-3.8762
X0.4976Y-3.8854
X0.5169Y-3.8886
X0.6821Y-4.2346
X0.6684Y-4.2309
Z0.5000
G0X1.1614Y-3.9912
G1Z-0.0500F8.0
X1.1483Y-4.0209F10.0
X1.1362Y-3.9868
X1.1287Y-3.9687
X1.1143Y-3.9383
X1.0966Y-3.9070
X1.0865Y-3.8913
X1.0693Y-3.8683
X1.0462Y-3.8425
X1.0557Y-3.8307
X1.0669Y-3.8125
X1.0730Y-3.8002
X1.0928Y-3.8385
X1.1030Y-3.8552
X1.1233Y-3.8850
X1.1441Y-3.9126
X1.1668Y-3.9399
X1.1771Y-3.9512
X1.1614Y-3.9912
Z0.5000
G0Z-0.0250
G1Z-0.1000F8.0
X1.1483Y-4.0209F10.0
X1.1362Y-3.9868
X1.1287Y-3.9687
X1.1143Y-3.9383
X1.0966Y-3.9070
X1.0865Y-3.8913
X1.0693Y-3.8683
X1.0462Y-3.8425
X1.0557Y-3.8307
X1.0669Y-3.8125
X1.0730Y-3.8002
X1.0928Y-3.8385
X1.1030Y-3.8552
X1.1233Y-3.8850
X1.1441Y-3.9126
X1.1668Y-3.9399
X1.1771Y-3.9512
X1.1614Y-3.9912
Z0.5000
G0Z-0.0750
G1Z-0.1500F8.0
X1.1483Y-4.0209F10.0
X1.1362Y-3.9868
X1.1287Y-3.9687
X1.1143Y-3.9383
X1.0966Y-3.9070
X1.0865Y-3.8913
X1.0693Y-3.8683
X1.0462Y-3.8425
X1.0557Y-3.8307
X1.0669Y-3.8125
X1.0730Y-3.8002
X1.0928Y-3.8385
X1.1030Y-3.8552
X1.1233Y-3.8850
X1.1441Y-3.9126
X1.1668Y-3.9399
X1.1771Y-3.9512
X1.1614Y-3.9912
Z0.5000
G0Z-0.0900
G1Z-0.1650F8.0
X1.1483Y-4.0209F10.0
X1.1362Y-3.9868
X1.1287Y-3.9687
X1.1143Y-3.9383
X1.0966Y-3.9070
X1.0865Y-3.8913
X1.0693Y-3.8683
X1.0462Y-3.8425
X1.0557Y-3.8307
X1.0669Y-3.8125
X1.0730Y-3.8002
X1.0928Y-3.8385
X1.1030Y-3.8552
X1.1233Y-3.8850
X1.1441Y-3.9126
X1.1668Y-3.9399
X1.1771Y-3.9512
X1.1614Y-3.9912
Z0.5000
G0X1.4561Y-3.6331
G1Z-0.0500F8.0
X1.4152Y-3.5352F10.0
X1.4071Y-3.5194
X1.4011Y-3.5109
X1.3916Y-3.5002
X1.3773Y-3.4884
X1.3679Y-3.4826
X1.3570Y-3.4774
X1.3421Y-3.4726
X1.3453Y-3.4531
X1.3468Y-3.4297
X1.3464Y-3.4109
X1.3445Y-3.3916
X1.3411Y-3.3721
X1.3315Y-3.3365
X1.3288Y-3.3288
X1.2008Y-3.0204
X1.1872Y-2.9906
X1.1713Y-2.9616
X1.1998Y-2.9497
X1.2069Y-2.9746
X1.2195Y-3.0091
X1.5607Y-3.8276
X1.5045Y-3.8078
X1.5017Y-3.7830
X1.4946Y-3.7479
X1.4840Y-3.7093
X1.4711Y-3.6713
X1.4561Y-3.6331
Z0.5000
G0Z-0.0250
G1Z-0.1000F8.0
X1.4152Y-3.5352F10.0
X1.4071Y-3.5194
X1.4011Y-3.5109
X1.3916Y-3.5002
X1.3773Y-3.4884
X1.3679Y-3.4826
X1.3570Y-3.4774
X1.3421Y-3.4726
X1.3453Y-3.4531
X1.3468Y-3.4297
X1.3464Y-3.4109
X1.3445Y-3.3916
X1.3411Y-3.3721
X1.3315Y-3.3365
X1.3288Y-3.3288
X1.2008Y-3.0204
X1.1872Y-2.9906
X1.1713Y-2.9616
X1.1998Y-2.9497
X1.2069Y-2.9746
X1.2195Y-3.0091
X1.5607Y-3.8276
X1.5045Y-3.8078
X1.5017Y-3.7830
X1.4946Y-3.7479
X1.4840Y-3.7093
X1.4711Y-3.6713
X1.4561Y-3.6331
Z0.5000
G0Z-0.0750
G1Z-0.1500F8.0
X1.4152Y-3.5352F10.0
X1.4071Y-3.5194
X1.4011Y-3.5109
X1.3916Y-3.5002
X1.3773Y-3.4884
X1.3679Y-3.4826
X1.3570Y-3.4774
X1.3421Y-3.4726
X1.3453Y-3.4531
X1.3468Y-3.4297
X1.3464Y-3.4109
X1.3445Y-3.3916
X1.3411Y-3.3721
X1.3315Y-3.3365
X1.3288Y-3.3288
X1.2008Y-3.0204
X1.1872Y-2.9906
X1.1713Y-2.9616
X1.1998Y-2.9497
X1.2069Y-2.9746
X1.2195Y-3.0091
X1.5607Y-3.8276
X1.5045Y-3.8078
X1.5017Y-3.7830
X1.4946Y-3.7479
X1.4840Y-3.7093
X1.4711Y-3.6713
X1.4561Y-3.6331
Z0.5000
G0Z-0.0900
G1Z-0.1650F8.0
X1.4152Y-3.5352F10.0
X1.4071Y-3.5194
X1.4011Y-3.5109
X1.3916Y-3.5002
X1.3773Y-3.4884
X1.3679Y-3.4826
X1.3570Y-3.4774
X1.3421Y-3.4726
X1.3453Y-3.4531
X1.3468Y-3.4297
X1.3464Y-3.4109
X1.3445Y-3.3916
X1.3411Y-3.3721
X1.3315Y-3.3365
X1.3288Y-3.3288
X1.2008Y-3.0204
X1.1872Y-2.9906
X1.1713Y-2.9616
X1.1998Y-2.9497
X1.2069Y-2.9746
X1.2195Y-3.0091
X1.5607Y-3.8276
X1.5045Y-3.8078
X1.5017Y-3.7830
X1.4946Y-3.7479
X1.4840Y-3.7093
X1.4711Y-3.6713
X1.4561Y-3.6331
Z0.5000
G0X1.9713Y-3.4290
G1Z-0.0500F8.0
X2.0757Y-3.6798F10.0
X2.0864Y-3.7019
X2.0931Y-3.7130
X2.0806Y-3.7119
X2.0563Y-3.7035
X2.0382Y-3.7006
X2.0314Y-3.6719
X2.0217Y-3.6455
X2.0110Y-3.6236
X2.0007Y-3.6071
X1.9861Y-3.5876
X1.9720Y-3.5726
X1.9528Y-3.5559
X1.9413Y-3.5478
X1.9502Y-3.5334
X1.9559Y-3.5202
X1.9595Y-3.5079
X1.9614Y-3.4963
X1.9620Y-3.4801
X1.9611Y-3.4701
X1.9586Y-3.4575
X1.9553Y-3.4470
X1.6919Y-2.8145
X1.6770Y-2.7825
X1.6625Y-2.7569
X1.6914Y-2.7449
X1.6934Y-2.7534
X1.7043Y-2.7870
X1.8119Y-3.0458
X1.8227Y-3.0695
X1.8426Y-3.1088
X1.8625Y-3.1426
X1.8746Y-3.1606
X1.8963Y-3.1882
X1.9083Y-3.2013
X1.9193Y-3.2117
X1.9191Y-3.2281
X1.9212Y-3.2576
X1.9270Y-3.2936
X1.9321Y-3.3158
X1.9445Y-3.3578
X1.9524Y-3.3808
X1.9713Y-3.4290
Z0.5000
G0Z-0.0250
G1Z-0.1000F8.0
X2.0757Y-3.6798F10.0
X2.0864Y-3.7019
X2.0931Y-3.7130
X2.0806Y-3.7119
X2.0563Y-3.7035
X2.0382Y-3.7006
X2.0314Y-3.6719
X2.0217Y-3.6455
X2.0110Y-3.6236
X2.0007Y-3.6071
X1.9861Y-3.5876
X1.9720Y-3.5726
X1.9528Y-3.5559
X1.9413Y-3.5478
X1.9502Y-3.5334
X1.9559Y-3.5202
X1.9595Y-3.5079
X1.9614Y-3.4963
X1.9620Y-3.4801
X1.9611Y-3.4701
X1.9586Y-3.4575
X1.9553Y-3.4470
X1.6919Y-2.8145
X1.6770Y-2.7825
X1.6625Y-2.7569
X1.6914Y-2.7449
X1.6934Y-2.7534
X1.7043Y-2.7870
X1.8119Y-3.0458
X1.8227Y-3.0695
X1.8426Y-3.1088
X1.8625Y-3.1426
X1.8746Y-3.1606
X1.8963Y-3.1882
X1.9083Y-3.2013
X1.9193Y-3.2117
X1.9191Y-3.2281
X1.9212Y-3.2576
X1.9270Y-3.2936
X1.9321Y-3.3158
X1.9445Y-3.3578
X1.9524Y-3.3808
X1.9713Y-3.4290
Z0.5000
G0Z-0.0750
G1Z-0.1500F8.0
X2.0757Y-3.6798F10.0
X2.0864Y-3.7019
X2.0931Y-3.7130
X2.0806Y-3.7119
X2.0563Y-3.7035
X2.0382Y-3.7006
X2.0314Y-3.6719
X2.0217Y-3.6455
X2.0110Y-3.6236
X2.0007Y-3.6071
X1.9861Y-3.5876
X1.9720Y-3.5726
X1.9528Y-3.5559
X1.9413Y-3.5478
X1.9502Y-3.5334
X1.9559Y-3.5202
X1.9595Y-3.5079
X1.9614Y-3.4963
X1.9620Y-3.4801
X1.9611Y-3.4701
X1.9586Y-3.4575
X1.9553Y-3.4470
X1.6919Y-2.8145
X1.6770Y-2.7825
X1.6625Y-2.7569
X1.6914Y-2.7449
X1.6934Y-2.7534
X1.7043Y-2.7870
X1.8119Y-3.0458
X1.8227Y-3.0695
X1.8426Y-3.1088
X1.8625Y-3.1426
X1.8746Y-3.1606
X1.8963Y-3.1882
X1.9083Y-3.2013
X1.9193Y-3.2117
X1.9191Y-3.2281
X1.9212Y-3.2576
X1.9270Y-3.2936
X1.9321Y-3.3158
X1.9445Y-3.3578
X1.9524Y-3.3808
X1.9713Y-3.4290
Z0.5000
G0Z-0.0900
G1Z-0.1650F8.0
X2.0757Y-3.6798F10.0
X2.0864Y-3.7019
X2.0931Y-3.7130
X2.0806Y-3.7119
X2.0563Y-3.7035
X2.0382Y-3.7006
X2.0314Y-3.6719
X2.0217Y-3.6455
X2.0110Y-3.6236
X2.0007Y-3.6071
X1.9861Y-3.5876
X1.9720Y-3.5726
X1.9528Y-3.5559
X1.9413Y-3.5478
X1.9502Y-3.5334
X1.9559Y-3.5202
X1.9595Y-3.5079
X1.9614Y-3.4963
X1.9620Y-3.4801
X1.9611Y-3.4701
X1.9586Y-3.4575
X1.9553Y-3.4470
X1.6919Y-2.8145
X1.6770Y-2.7825
X1.6625Y-2.7569
X1.6914Y-2.7449
X1.6934Y-2.7534
X1.7043Y-2.7870
X1.8119Y-3.0458
X1.8227Y-3.0695
X1.8426Y-3.1088
X1.8625Y-3.1426
X1.8746Y-3.1606
X1.8963Y-3.1882
X1.9083Y-3.2013
X1.9193Y-3.2117
X1.9191Y-3.2281
X1.9212Y-3.2576
X1.9270Y-3.2936
X1.9321Y-3.3158
X1.9445Y-3.3578
X1.9524Y-3.3808
X1.9713Y-3.4290
Z0.5000
G0X2.4091Y-3.3717
G1Z-0.0500F8.0
X2.4157Y-3.3893F10.0
X2.4288Y-3.4199
X2.4440Y-3.4502
X2.4608Y-3.4788
X2.4841Y-3.5118
X2.4707Y-3.5081
X2.4481Y-3.5004
X2.4263Y-3.4914
X2.4069Y-3.4822
X2.3843Y-3.4697
X2.3835Y-3.4431
X2.3803Y-3.4065
X2.3756Y-3.3712
X2.3689Y-3.3356
X2.3639Y-3.3151
X2.3549Y-3.2850
X2.3393Y-3.2446
X2.3226Y-3.2079
X2.3124Y-3.1879
X2.3351Y-3.1961
X2.3523Y-3.1998
X2.3673Y-3.2016
X2.3823Y-3.2017
X2.3816Y-3.2270
X2.3827Y-3.2517
X2.3868Y-3.2859
X2.3931Y-3.3181
X2.4024Y-3.3514
X2.4091Y-3.3717
Z0.5000
G0Z-0.0250
G1Z-0.1000F8.0
X2.4157Y-3.3893F10.0
X2.4288Y-3.4199
X2.4440Y-3.4502
X2.4608Y-3.4788
X2.4841Y-3.5118
X2.4707Y-3.5081
X2.4481Y-3.5004
X2.4263Y-3.4914
X2.4069Y-3.4822
X2.3843Y-3.4697
X2.3835Y-3.4431
X2.3803Y-3.4065
X2.3756Y-3.3712
X2.3689Y-3.3356
X2.3639Y-3.3151
X2.3549Y-3.2850
X2.3393Y-3.2446
X2.3226Y-3.2079
X2.3124Y-3.1879
X2.3351Y-3.1961
X2.3523Y-3.1998
X2.3673Y-3.2016
X2.3823Y-3.2017
X2.3816Y-3.2270
X2.3827Y-3.2517
X2.3868Y-3.2859
X2.3931Y-3.3181
X2.4024Y-3.3514
X2.4091Y-3.3717
Z0.5000
G0Z-0.0750
G1Z-0.1500F8.0
X2.4157Y-3.3893F10.0
X2.4288Y-3.4199
X2.4440Y-3.4502
X2.4608Y-3.4788
X2.4841Y-3.5118
X2.4707Y-3.5081
X2.4481Y-3.5004
X2.4263Y-3.4914
X2.4069Y-3.4822
X2.3843Y-3.4697
X2.3835Y-3.4431
X2.3803Y-3.4065
X2.3756Y-3.3712
X2.3689Y-3.3356
X2.3639Y-3.3151
X2.3549Y-3.2850
X2.3393Y-3.2446
X2.3226Y-3.2079
X2.3124Y-3.1879
X2.3351Y-3.1961
X2.3523Y-3.1998
X2.3673Y-3.2016
X2.3823Y-3.2017
X2.3816Y-3.2270
X2.3827Y-3.2517
X2.3868Y-3.2859
X2.3931Y-3.3181
X2.4024Y-3.3514
X2.4091Y-3.3717
Z0.5000
G0Z-0.0900
G1Z-0.1650F8.0
X2.4157Y-3.3893F10.0
X2.4288Y-3.4199
X2.4440Y-3.4502
X2.4608Y-3.4788
X2.4841Y-3.5118
X2.4707Y-3.5081
X2.4481Y-3.5004
X2.4263Y-3.4914
X2.4069Y-3.4822
X2.3843Y-3.4697
X2.3835Y-3.4431
X2.3803Y-3.4065
X2.3756Y-3.3712
X2.3689Y-3.3356
X2.3639Y-3.3151
X2.3549Y-3.2850
X2.3393Y-3.2446
X2.3226Y-3.2079
X2.3124Y-3.1879
X2.3351Y-3.1961
X2.3523Y-3.1998
X2.3673Y-3.2016
X2.3823Y-3.2017
X2.3816Y-3.2270
X2.3827Y-3.2517
X2.3868Y-3.2859
X2.3931Y-3.3181
X2.4024Y-3.3514
X2.4091Y-3.3717
Z0.5000
G0X2.2209Y-2.9162
G1Z-0.0500F8.0
X2.2080Y-2.8766F10.0
X2.1936Y-2.8399
X2.1779Y-2.8065
X2.1602Y-2.7742
X2.1420Y-2.7452
X2.1222Y-2.7178
X2.1544Y-2.6633
X2.2514Y-2.9334
X2.2405Y-2.9486
X2.2327Y-2.9628
X2.2209Y-2.9162
Z0.5000
G0Z-0.0250
G1Z-0.1000F8.0
X2.2080Y-2.8766F10.0
X2.1936Y-2.8399
X2.1779Y-2.8065
X2.1602Y-2.7742
X2.1420Y-2.7452
X2.1222Y-2.7178
X2.1544Y-2.6633
X2.2514Y-2.9334
X2.2405Y-2.9486
X2.2327Y-2.9628
X2.2209Y-2.9162
Z0.5000
G0Z-0.0750
G1Z-0.1500F8.0
X2.2080Y-2.8766F10.0
X2.1936Y-2.8399
X2.1779Y-2.8065
X2.1602Y-2.7742
X2.1420Y-2.7452
X2.1222Y-2.7178
X2.1544Y-2.6633
X2.2514Y-2.9334
X2.2405Y-2.9486
X2.2327Y-2.9628
X2.2209Y-2.9162
Z0.5000
G0Z-0.0900
G1Z-0.1650F8.0
X2.2080Y-2.8766F10.0
X2.1936Y-2.8399
X2.1779Y-2.8065
X2.1602Y-2.7742
X2.1420Y-2.7452
X2.1222Y-2.7178
X2.1544Y-2.6633
X2.2514Y-2.9334
X2.2405Y-2.9486
X2.2327Y-2.9628
X2.2209Y-2.9162
Z0.5000
G0X2.7267Y-2.6744
G1Z-0.0500F8.0
X2.7447Y-2.7213F10.0
X2.7543Y-2.7438
X2.7726Y-2.7819
X2.7840Y-2.8026
X2.8021Y-2.8313
X2.8248Y-2.8607
X2.8358Y-2.8726
X2.8347Y-2.9047
X2.8368Y-2.9349
X2.8396Y-2.9557
X2.8481Y-2.9976
X2.8603Y-3.0418
X2.8768Y-3.0914
X2.9720Y-3.3550
X2.9849Y-3.3822
X2.9753Y-3.3812
X2.9680Y-3.3793
X2.9424Y-3.3688
X2.9411Y-3.3548
X2.9360Y-3.3266
X2.9274Y-3.2960
X2.7009Y-2.6676
X2.6958Y-2.6582
X2.6894Y-2.6485
X2.6787Y-2.6363
X2.6714Y-2.6300
X2.6600Y-2.6219
X2.6479Y-2.6154
X2.6344Y-2.6104
X2.6384Y-2.5935
X2.6417Y-2.5562
X2.6410Y-2.5385
X2.6386Y-2.5189
X2.6344Y-2.4994
X2.6270Y-2.4758
X2.6104Y-2.4383
X2.5935Y-2.4108
X2.5693Y-2.3813
X2.5739Y-2.3675
X2.5765Y-2.3534
X2.5771Y-2.3358
X2.5759Y-2.3253
X2.5733Y-2.3129
X2.4331Y-1.9223
X2.4474Y-1.9294
X2.4707Y-1.9397
X2.4711Y-1.9547
X2.4726Y-1.9645
X2.4755Y-1.9760
X2.7267Y-2.6744
Z0.5000
G0Z-0.0250
G1Z-0.1000F8.0
X2.7447Y-2.7213F10.0
X2.7543Y-2.7438
X2.7726Y-2.7819
X2.7840Y-2.8026
X2.8021Y-2.8313
X2.8248Y-2.8607
X2.8358Y-2.8726
X2.8347Y-2.9047
X2.8368Y-2.9349
X2.8396Y-2.9557
X2.8481Y-2.9976
X2.8603Y-3.0418
X2.8768Y-3.0914
X2.9720Y-3.3550
X2.9849Y-3.3822
X2.9753Y-3.3812
X2.9680Y-3.3793
X2.9424Y-3.3688
X2.9411Y-3.3548
X2.9360Y-3.3266
X2.9274Y-3.2960
X2.7009Y-2.6676
X2.6958Y-2.6582
X2.6894Y-2.6485
X2.6787Y-2.6363
X2.6714Y-2.6300
X2.6600Y-2.6219
X2.6479Y-2.6154
X2.6344Y-2.6104
X2.6384Y-2.5935
X2.6417Y-2.5562
X2.6410Y-2.5385
X2.6386Y-2.5189
X2.6344Y-2.4994
X2.6270Y-2.4758
X2.6104Y-2.4383
X2.5935Y-2.4108
X2.5693Y-2.3813
X2.5739Y-2.3675
X2.5765Y-2.3534
X2.5771Y-2.3358
X2.5759Y-2.3253
X2.5733Y-2.3129
X2.4331Y-1.9223
X2.4474Y-1.9294
X2.4707Y-1.9397
X2.4711Y-1.9547
X2.4726Y-1.9645
X2.4755Y-1.9760
X2.7267Y-2.6744
Z0.5000
G0Z-0.0750
G1Z-0.1500F8.0
X2.7447Y-2.7213F10.0
X2.7543Y-2.7438
X2.7726Y-2.7819
X2.7840Y-2.8026
X2.8021Y-2.8313
X2.8248Y-2.8607
X2.8358Y-2.8726
X2.8347Y-2.9047
X2.8368Y-2.9349
X2.8396Y-2.9557
X2.8481Y-2.9976
X2.8603Y-3.0418
X2.8768Y-3.0914
X2.9720Y-3.3550
X2.9849Y-3.3822
X2.9753Y-3.3812
X2.9680Y-3.3793
X2.9424Y-3.3688
X2.9411Y-3.3548
X2.9360Y-3.3266
X2.9274Y-3.2960
X2.7009Y-2.6676
X2.6958Y-2.6582
X2.6894Y-2.6485
X2.6787Y-2.6363
X2.6714Y-2.6300
X2.6600Y-2.6219
X2.6479Y-2.6154
X2.6344Y-2.6104
X2.6384Y-2.5935
X2.6417Y-2.5562
X2.6410Y-2.5385
X2.6386Y-2.5189
X2.6344Y-2.4994
X2.6270Y-2.4758
X2.6104Y-2.4383
X2.5935Y-2.4108
X2.5693Y-2.3813
X2.5739Y-2.3675
X2.5765Y-2.3534
X2.5771Y-2.3358
X2.5759Y-2.3253
X2.5733Y-2.3129
X2.4331Y-1.9223
X2.4474Y-1.9294
X2.4707Y-1.9397
X2.4711Y-1.9547
X2.4726Y-1.9645
X2.4755Y-1.9760
X2.7267Y-2.6744
Z0.5000
G0Z-0.0900
G1Z-0.1650F8.0
X2.7447Y-2.7213F10.0
X2.7543Y-2.7438
X2.7726Y-2.7819
X2.7840Y-2.8026
X2.8021Y-2.8313
X2.8248Y-2.8607
X2.8358Y-2.8726
X2.8347Y-2.9047
X2.8368Y-2.9349
X2.8396Y-2.9557
X2.8481Y-2.9976
X2.8603Y-3.0418
X2.8768Y-3.0914
X2.9720Y-3.3550
X2.9849Y-3.3822
X2.9753Y-3.3812
X2.9680Y-3.3793
X2.9424Y-3.3688
X2.9411Y-3.3548
X2.9360Y-3.3266
X2.9274Y-3.2960
X2.7009Y-2.6676
X2.6958Y-2.6582
X2.6894Y-2.6485
X2.6787Y-2.6363
X2.6714Y-2.6300
X2.6600Y-2.6219
X2.6479Y-2.6154
X2.6344Y-2.6104
X2.6384Y-2.5935
X2.6417Y-2.5562
X2.6410Y-2.5385
X2.6386Y-2.5189
X2.6344Y-2.4994
X2.6270Y-2.4758
X2.6104Y-2.4383
X2.5935Y-2.4108
X2.5693Y-2.3813
X2.5739Y-2.3675
X2.5765Y-2.3534
X2.5771Y-2.3358
X2.5759Y-2.3253
X2.5733Y-2.3129
X2.4331Y-1.9223
X2.4474Y-1.9294
X2.4707Y-1.9397
X2.4711Y-1.9547
X2.4726Y-1.9645
X2.4755Y-1.9760
X2.7267Y-2.6744
Z0.5000
G0X3.1493Y-2.5398
G1Z-0.0500F8.0
X3.0662Y-2.2724F10.0
X3.0549Y-2.2457
X3.0622Y-2.2467
X3.0682Y-2.2485
X3.0739Y-2.2511
X3.0793Y-2.2556
X3.0832Y-2.2607
X3.0869Y-2.2676
X3.0946Y-2.2899
X3.1013Y-2.3051
X3.1078Y-2.3154
X3.1150Y-2.3247
X3.1222Y-2.3321
X3.1322Y-2.3404
X3.1448Y-2.3483
X3.1634Y-2.3561
X3.1591Y-2.3815
X3.1560Y-2.4170
X3.1565Y-2.4546
X3.1601Y-2.4875
X3.1670Y-2.5220
X3.1728Y-2.5429
X3.1835Y-2.5741
X3.2002Y-2.6136
X3.2145Y-2.6417
X3.2355Y-2.6762
X3.2529Y-2.7006
X3.2776Y-2.7301
X3.3013Y-2.7541
X3.2954Y-2.7600
X3.2883Y-2.7688
X3.2811Y-2.7799
X3.2753Y-2.7919
X3.2713Y-2.8036
X3.2684Y-2.8180
X3.2674Y-2.8315
X3.2683Y-2.8455
X3.2710Y-2.8595
X3.3685Y-3.1749
X3.3773Y-3.1996
X3.3947Y-3.2374
X3.3617Y-3.2477
X3.3559Y-3.2119
X3.3508Y-3.1910
X3.2720Y-2.9369
X3.2632Y-2.9116
X3.2468Y-2.8699
X3.2303Y-2.8347
X3.2202Y-2.8161
X3.2017Y-2.7874
X3.1899Y-2.7716
X3.1802Y-2.7607
X3.1815Y-2.7509
X3.1827Y-2.7266
X3.1819Y-2.6968
X3.1799Y-2.6754
X3.1736Y-2.6349
X3.1637Y-2.5908
X3.1493Y-2.5398
Z0.5000
G0Z-0.0250
G1Z-0.1000F8.0
X3.0662Y-2.2724F10.0
X3.0549Y-2.2457
X3.0622Y-2.2467
X3.0682Y-2.2485
X3.0739Y-2.2511
X3.0793Y-2.2556
X3.0832Y-2.2607
X3.0869Y-2.2676
X3.0946Y-2.2899
X3.1013Y-2.3051
X3.1078Y-2.3154
X3.1150Y-2.3247
X3.1222Y-2.3321
X3.1322Y-2.3404
X3.1448Y-2.3483
X3.1634Y-2.3561
X3.1591Y-2.3815
X3.1560Y-2.4170
X3.1565Y-2.4546
X3.1601Y-2.4875
X3.1670Y-2.5220
X3.1728Y-2.5429
X3.1835Y-2.5741
X3.2002Y-2.6136
X3.2145Y-2.6417
X3.2355Y-2.6762
X3.2529Y-2.7006
X3.2776Y-2.7301
X3.3013Y-2.7541
X3.2954Y-2.7600
X3.2883Y-2.7688
X3.2811Y-2.7799
X3.2753Y-2.7919
X3.2713Y-2.8036
X3.2684Y-2.8180
X3.2674Y-2.8315
X3.2683Y-2.8455
X3.2710Y-2.8595
X3.3685Y-3.1749
X3.3773Y-3.1996
X3.3947Y-3.2374
X3.3617Y-3.2477
X3.3559Y-3.2119
X3.3508Y-3.1910
X3.2720Y-2.9369
X3.2632Y-2.9116
X3.2468Y-2.8699
X3.2303Y-2.8347
X3.2202Y-2.8161
X3.2017Y-2.7874
X3.1899Y-2.7716
X3.1802Y-2.7607
X3.1815Y-2.7509
X3.1827Y-2.7266
X3.1819Y-2.6968
X3.1799Y-2.6754
X3.1736Y-2.6349
X3.1637Y-2.5908
X3.1493Y-2.5398
Z0.5000
G0Z-0.0750
G1Z-0.1500F8.0
X3.0662Y-2.2724F10.0
X3.0549Y-2.2457
X3.0622Y-2.2467
X3.0682Y-2.2485
X3.0739Y-2.2511
X3.0793Y-2.2556
X3.0832Y-2.2607
X3.0869Y-2.2676
X3.0946Y-2.2899
X3.1013Y-2.3051
X3.1078Y-2.3154
X3.1150Y-2.3247
X3.1222Y-2.3321
X3.1322Y-2.3404
X3.1448Y-2.3483
X3.1634Y-2.3561
X3.1591Y-2.3815
X3.1560Y-2.4170
X3.1565Y-2.4546
X3.1601Y-2.4875
X3.1670Y-2.5220
X3.1728Y-2.5429
X3.1835Y-2.5741
X3.2002Y-2.6136
X3.2145Y-2.6417
X3.2355Y-2.6762
X3.2529Y-2.7006
X3.2776Y-2.7301
X3.3013Y-2.7541
X3.2954Y-2.7600
X3.2883Y-2.7688
X3.2811Y-2.7799
X3.2753Y-2.7919
X3.2713Y-2.8036
X3.2684Y-2.8180
X3.2674Y-2.8315
X3.2683Y-2.8455
X3.2710Y-2.8595
X3.3685Y-3.1749
X3.3773Y-3.1996
X3.3947Y-3.2374
X3.3617Y-3.2477
X3.3559Y-3.2119
X3.3508Y-3.1910
X3.2720Y-2.9369
X3.2632Y-2.9116
X3.2468Y-2.8699
X3.2303Y-2.8347
X3.2202Y-2.8161
X3.2017Y-2.7874
X3.1899Y-2.7716
X3.1802Y-2.7607
X3.1815Y-2.7509
X3.1827Y-2.7266
X3.1819Y-2.6968
X3.1799Y-2.6754
X3.1736Y-2.6349
X3.1637Y-2.5908
X3.1493Y-2.5398
Z0.5000
G0Z-0.0900
G1Z-0.1650F8.0
X3.0662Y-2.2724F10.0
X3.0549Y-2.2457
X3.0622Y-2.2467
X3.0682Y-2.2485
X3.0739Y-2.2511
X3.0793Y-2.2556
X3.0832Y-2.2607
X3.0869Y-2.2676
X3.0946Y-2.2899
X3.1013Y-2.3051
X3.1078Y-2.3154
X3.1150Y-2.3247
X3.1222Y-2.3321
X3.1322Y-2.3404
X3.1448Y-2.3483
X3.1634Y-2.3561
X3.1591Y-2.3815
X3.1560Y-2.4170
X3.1565Y-2.4546
X3.1601Y-2.4875
X3.1670Y-2.5220
X3.1728Y-2.5429
X3.1835Y-2.5741
X3.2002Y-2.6136
X3.2145Y-2.6417
X3.2355Y-2.6762
X3.2529Y-2.7006
X3.2776Y-2.7301
X3.3013Y-2.7541
X3.2954Y-2.7600
X3.2883Y-2.7688
X3.2811Y-2.7799
X3.2753Y-2.7919
X3.2713Y-2.8036
X3.2684Y-2.8180
X3.2674Y-2.8315
X3.2683Y-2.8455
X3.2710Y-2.8595
X3.3685Y-3.1749
X3.3773Y-3.1996
X3.3947Y-3.2374
X3.3617Y-3.2477
X3.3559Y-3.2119
X3.3508Y-3.1910
X3.2720Y-2.9369
X3.2632Y-2.9116
X3.2468Y-2.8699
X3.2303Y-2.8347
X3.2202Y-2.8161
X3.2017Y-2.7874
X3.1899Y-2.7716
X3.1802Y-2.7607
X3.1815Y-2.7509
X3.1827Y-2.7266
X3.1819Y-2.6968
X3.1799Y-2.6754
X3.1736Y-2.6349
X3.1637Y-2.5908
X3.1493Y-2.5398
Z0.5000
G0X3.9808Y-2.4647
G1Z-0.0500F8.0
X3.9777Y-2.4231F10.0
X3.9712Y-2.3812
X3.9606Y-2.3323
X3.9537Y-2.3049
X3.9446Y-2.2737
X3.9339Y-2.2427
X3.9203Y-2.2099
X3.9054Y-2.1796
X3.8857Y-2.1463
X3.9190Y-2.0970
X4.0567Y-2.6207
X4.0615Y-2.6327
X4.0672Y-2.6431
X4.0748Y-2.6537
X4.0843Y-2.6641
X4.0920Y-2.6707
X4.1022Y-2.6779
X4.1125Y-2.6834
X4.1099Y-2.7139
X4.1089Y-2.7428
X4.1091Y-2.7706
X4.1106Y-2.7962
X4.1136Y-2.8237
X4.1184Y-2.8526
X4.1278Y-2.8910
X4.1336Y-2.9094
X4.1433Y-2.9337
X4.0811Y-2.8984
X4.0818Y-2.8841
Y-2.8485
X4.0808Y-2.8296
X4.0776Y-2.7966
X4.0744Y-2.7748
X4.0674Y-2.7389
X4.0580Y-2.7022
X4.0462Y-2.6657
X4.0395Y-2.6476
X4.0256Y-2.6144
X4.0172Y-2.5966
X4.0019Y-2.5677
X3.9843Y-2.5392
X3.9763Y-2.5283
X3.9804Y-2.4939
X3.9808Y-2.4647
Z0.5000
G0Z-0.0250
G1Z-0.1000F8.0
X3.9777Y-2.4231F10.0
X3.9712Y-2.3812
X3.9606Y-2.3323
X3.9537Y-2.3049
X3.9446Y-2.2737
X3.9339Y-2.2427
X3.9203Y-2.2099
X3.9054Y-2.1796
X3.8857Y-2.1463
X3.9190Y-2.0970
X4.0567Y-2.6207
X4.0615Y-2.6327
X4.0672Y-2.6431
X4.0748Y-2.6537
X4.0843Y-2.6641
X4.0920Y-2.6707
X4.1022Y-2.6779
X4.1125Y-2.6834
X4.1099Y-2.7139
X4.1089Y-2.7428
X4.1091Y-2.7706
X4.1106Y-2.7962
X4.1136Y-2.8237
X4.1184Y-2.8526
X4.1278Y-2.8910
X4.1336Y-2.9094
X4.1433Y-2.9337
X4.0811Y-2.8984
X4.0818Y-2.8841
Y-2.8485
X4.0808Y-2.8296
X4.0776Y-2.7966
X4.0744Y-2.7748
X4.0674Y-2.7389
X4.0580Y-2.7022
X4.0462Y-2.6657
X4.0395Y-2.6476
X4.0256Y-2.6144
X4.0172Y-2.5966
X4.0019Y-2.5677
X3.9843Y-2.5392
X3.9763Y-2.5283
X3.9804Y-2.4939
X3.9808Y-2.4647
Z0.5000
G0Z-0.0750
G1Z-0.1500F8.0
X3.9777Y-2.4231F10.0
X3.9712Y-2.3812
X3.9606Y-2.3323
X3.9537Y-2.3049
X3.9446Y-2.2737
X3.9339Y-2.2427
X3.9203Y-2.2099
X3.9054Y-2.1796
X3.8857Y-2.1463
X3.9190Y-2.0970
X4.0567Y-2.6207
X4.0615Y-2.6327
X4.0672Y-2.6431
X4.0748Y-2.6537
X4.0843Y-2.6641
X4.0920Y-2.6707
X4.1022Y-2.6779
X4.1125Y-2.6834
X4.1099Y-2.7139
X4.1089Y-2.7428
X4.1091Y-2.7706
X4.1106Y-2.7962
X4.1136Y-2.8237
X4.1184Y-2.8526
X4.1278Y-2.8910
X4.1336Y-2.9094
X4.1433Y-2.9337
X4.0811Y-2.8984
X4.0818Y-2.8841
Y-2.8485
X4.0808Y-2.8296
X4.0776Y-2.7966
X4.0744Y-2.7748
X4.0674Y-2.7389
X4.0580Y-2.7022
X4.0462Y-2.6657
X4.0395Y-2.6476
X4.0256Y-2.6144
X4.0172Y-2.5966
X4.0019Y-2.5677
X3.9843Y-2.5392
X3.9763Y-2.5283
X3.9804Y-2.4939
X3.9808Y-2.4647
Z0.5000
G0Z-0.0900
G1Z-0.1650F8.0
X3.9777Y-2.4231F10.0
X3.9712Y-2.3812
X3.9606Y-2.3323
X3.9537Y-2.3049
X3.9446Y-2.2737
X3.9339Y-2.2427
X3.9203Y-2.2099
X3.9054Y-2.1796
X3.8857Y-2.1463
X3.9190Y-2.0970
X4.0567Y-2.6207
X4.0615Y-2.6327
X4.0672Y-2.6431
X4.0748Y-2.6537
X4.0843Y-2.6641
X4.0920Y-2.6707
X4.1022Y-2.6779
X4.1125Y-2.6834
X4.1099Y-2.7139
X4.1089Y-2.7428
X4.1091Y-2.7706
X4.1106Y-2.7962
X4.1136Y-2.8237
X4.1184Y-2.8526
X4.1278Y-2.8910
X4.1336Y-2.9094
X4.1433Y-2.9337
X4.0811Y-2.8984
X4.0818Y-2.8841
Y-2.8485
X4.0808Y-2.8296
X4.0776Y-2.7966
X4.0744Y-2.7748
X4.0674Y-2.7389
X4.0580Y-2.7022
X4.0462Y-2.6657
X4.0395Y-2.6476
X4.0256Y-2.6144
X4.0172Y-2.5966
X4.0019Y-2.5677
X3.9843Y-2.5392
X3.9763Y-2.5283
X3.9804Y-2.4939
X3.9808Y-2.4647
Z0.5000
G0X4.4446Y-2.0812
G1Z-0.0500F8.0
X4.4564Y-2.1263F10.0
X4.4393Y-2.1365
X4.4028Y-1.9982
X4.4292Y-2.0123
X4.4328Y-2.0313
X4.4446Y-2.0812
Z0.5000
G0Z-0.0250
G1Z-0.1000F8.0
X4.4564Y-2.1263F10.0
X4.4393Y-2.1365
X4.4028Y-1.9982
X4.4292Y-2.0123
X4.4328Y-2.0313
X4.4446Y-2.0812
Z0.5000
G0Z-0.0750
G1Z-0.1500F8.0
X4.4564Y-2.1263F10.0
X4.4393Y-2.1365
X4.4028Y-1.9982
X4.4292Y-2.0123
X4.4328Y-2.0313
X4.4446Y-2.0812
Z0.5000
G0Z-0.0900
G1Z-0.1650F8.0
X4.4564Y-2.1263F10.0
X4.4393Y-2.1365
X4.4028Y-1.9982
X4.4292Y-2.0123
X4.4328Y-2.0313
X4.4446Y-2.0812
Z0.5000
G0X4.9230Y-2.4059
G1Z-0.0500F8.0
X4.9447Y-2.3772F10.0
X4.9379Y-2.3968
X4.9277Y-2.4335
X4.9198Y-2.4726
X4.9148Y-2.5107
X4.9126Y-2.5514
X4.9139Y-2.5961
X4.9186Y-2.6368
X4.9241Y-2.6671
X4.9313Y-2.6966
X4.9367Y-2.7143
X4.9470Y-2.7420
X4.9538Y-2.7573
X4.9651Y-2.7790
X4.9497Y-2.7709
X4.9369Y-2.7626
X4.9248Y-2.7534
X4.9144Y-2.7437
X4.9043Y-2.7327
X4.8952Y-2.7206
X4.8868Y-2.7072
X4.8796Y-2.6931
X4.8730Y-2.6769
X4.8643Y-2.6465
X4.8597Y-2.6187
X4.8579Y-2.5926
X4.8585Y-2.5690
X4.8614Y-2.5455
X4.8697Y-2.5104
X4.8782Y-2.4865
X4.8892Y-2.4620
X4.9081Y-2.4283
X4.9230Y-2.4059
Z0.5000
G0Z-0.0250
G1Z-0.1000F8.0
X4.9447Y-2.3772F10.0
X4.9379Y-2.3968
X4.9277Y-2.4335
X4.9198Y-2.4726
X4.9148Y-2.5107
X4.9126Y-2.5514
X4.9139Y-2.5961
X4.9186Y-2.6368
X4.9241Y-2.6671
X4.9313Y-2.6966
X4.9367Y-2.7143
X4.9470Y-2.7420
X4.9538Y-2.7573
X4.9651Y-2.7790
X4.9497Y-2.7709
X4.9369Y-2.7626
X4.9248Y-2.7534
X4.9144Y-2.7437
X4.9043Y-2.7327
X4.8952Y-2.7206
X4.8868Y-2.7072
X4.8796Y-2.6931
X4.8730Y-2.6769
X4.8643Y-2.6465
X4.8597Y-2.6187
X4.8579Y-2.5926
X4.8585Y-2.5690
X4.8614Y-2.5455
X4.8697Y-2.5104
X4.8782Y-2.4865
X4.8892Y-2.4620
X4.9081Y-2.4283
X4.9230Y-2.4059
Z0.5000
G0Z-0.0750
G1Z-0.1500F8.0
X4.9447Y-2.3772F10.0
X4.9379Y-2.3968
X4.9277Y-2.4335
X4.9198Y-2.4726
X4.9148Y-2.5107
X4.9126Y-2.5514
X4.9139Y-2.5961
X4.9186Y-2.6368
X4.9241Y-2.6671
X4.9313Y-2.6966
X4.9367Y-2.7143
X4.9470Y-2.7420
X4.9538Y-2.7573
X4.9651Y-2.7790
X4.9497Y-2.7709
X4.9369Y-2.7626
X4.9248Y-2.7534
X4.9144Y-2.7437
X4.9043Y-2.7327
X4.8952Y-2.7206
X4.8868Y-2.7072
X4.8796Y-2.6931
X4.8730Y-2.6769
X4.8643Y-2.6465
X4.8597Y-2.6187
X4.8579Y-2.5926
X4.8585Y-2.5690
X4.8614Y-2.5455
X4.8697Y-2.5104
X4.8782Y-2.4865
X4.8892Y-2.4620
X4.9081Y-2.4283
X4.9230Y-2.4059
Z0.5000
G0Z-0.0900
G1Z-0.1650F8.0
X4.9447Y-2.3772F10.0
X4.9379Y-2.3968
X4.9277Y-2.4335
X4.9198Y-2.4726
X4.9148Y-2.5107
X4.9126Y-2.5514
X4.9139Y-2.5961
X4.9186Y-2.6368
X4.9241Y-2.6671
X4.9313Y-2.6966
X4.9367Y-2.7143
X4.9470Y-2.7420
X4.9538Y-2.7573
X4.9651Y-2.7790
X4.9497Y-2.7709
X4.9369Y-2.7626
X4.9248Y-2.7534
X4.9144Y-2.7437
X4.9043Y-2.7327
X4.8952Y-2.7206
X4.8868Y-2.7072
X4.8796Y-2.6931
X4.8730Y-2.6769
X4.8643Y-2.6465
X4.8597Y-2.6187
X4.8579Y-2.5926
X4.8585Y-2.5690
X4.8614Y-2.5455
X4.8697Y-2.5104
X4.8782Y-2.4865
X4.8892Y-2.4620
X4.9081Y-2.4283
X4.9230Y-2.4059
Z0.5000
G0X5.3643Y-1.9659
G1Z-0.0500F8.0
X5.3703Y-1.9923F10.0
X5.3823Y-2.0370
X5.3898Y-2.0609
X5.4033Y-2.0965
X5.4130Y-2.1182
X5.4283Y-2.1467
X5.4393Y-2.1639
X5.4476Y-2.1752
X5.4424Y-2.2030
X5.4394Y-2.2350
X5.4390Y-2.2593
X5.4413Y-2.2993
X5.4470Y-2.3449
X5.4517Y-2.3720
X5.5144Y-2.6659
X5.5202Y-2.6871
X5.5248Y-2.6998
X5.5133Y-2.6959
X5.4884Y-2.6781
X5.4805Y-2.6737
X5.4811Y-2.6491
X5.4799Y-2.6301
X5.4770Y-2.6083
X5.4709Y-2.5804
X5.4632Y-2.5563
X5.4549Y-2.5369
X5.4384Y-2.5079
X5.4273Y-2.4928
X5.4141Y-2.4779
X5.3917Y-2.4578
X5.3696Y-2.4429
X5.3497Y-2.4326
X5.3429Y-2.4299
X5.3552Y-2.4255
X5.3644Y-2.4211
X5.3730Y-2.4158
X5.3851Y-2.4062
X5.3960Y-2.3946
X5.4041Y-2.3832
X5.4116Y-2.3687
X5.4158Y-2.3565
X5.4189Y-2.3413
X5.4198Y-2.3222
X5.4185Y-2.3106
X5.3578Y-2.0261
X5.3546Y-2.0148
X5.3476Y-1.9984
X5.3434Y-1.9913
X5.3364Y-1.9817
X5.3220Y-1.9670
X5.3251Y-1.9549
X5.3284Y-1.9345
X5.3292Y-1.9272
Y-1.9002
X5.3268Y-1.8823
X5.3048Y-1.7793
X5.3018Y-1.7682
X5.3280Y-1.7715
X5.3332Y-1.8083
X5.3457Y-1.8777
X5.3643Y-1.9659
Z0.5000
G0Z-0.0250
G1Z-0.1000F8.0
X5.3703Y-1.9923F10.0
X5.3823Y-2.0370
X5.3898Y-2.0609
X5.4033Y-2.0965
X5.4130Y-2.1182
X5.4283Y-2.1467
X5.4393Y-2.1639
X5.4476Y-2.1752
X5.4424Y-2.2030
X5.4394Y-2.2350
X5.4390Y-2.2593
X5.4413Y-2.2993
X5.4470Y-2.3449
X5.4517Y-2.3720
X5.5144Y-2.6659
X5.5202Y-2.6871
X5.5248Y-2.6998
X5.5133Y-2.6959
X5.4884Y-2.6781
X5.4805Y-2.6737
X5.4811Y-2.6491
X5.4799Y-2.6301
X5.4770Y-2.6083
X5.4709Y-2.5804
X5.4632Y-2.5563
X5.4549Y-2.5369
X5.4384Y-2.5079
X5.4273Y-2.4928
X5.4141Y-2.4779
X5.3917Y-2.4578
X5.3696Y-2.4429
X5.3497Y-2.4326
X5.3429Y-2.4299
X5.3552Y-2.4255
X5.3644Y-2.4211
X5.3730Y-2.4158
X5.3851Y-2.4062
X5.3960Y-2.3946
X5.4041Y-2.3832
X5.4116Y-2.3687
X5.4158Y-2.3565
X5.4189Y-2.3413
X5.4198Y-2.3222
X5.4185Y-2.3106
X5.3578Y-2.0261
X5.3546Y-2.0148
X5.3476Y-1.9984
X5.3434Y-1.9913
X5.3364Y-1.9817
X5.3220Y-1.9670
X5.3251Y-1.9549
X5.3284Y-1.9345
X5.3292Y-1.9272
Y-1.9002
X5.3268Y-1.8823
X5.3048Y-1.7793
X5.3018Y-1.7682
X5.3280Y-1.7715
X5.3332Y-1.8083
X5.3457Y-1.8777
X5.3643Y-1.9659
Z0.5000
G0Z-0.0750
G1Z-0.1500F8.0
X5.3703Y-1.9923F10.0
X5.3823Y-2.0370
X5.3898Y-2.0609
X5.4033Y-2.0965
X5.4130Y-2.1182
X5.4283Y-2.1467
X5.4393Y-2.1639
X5.4476Y-2.1752
X5.4424Y-2.2030
X5.4394Y-2.2350
X5.4390Y-2.2593
X5.4413Y-2.2993
X5.4470Y-2.3449
X5.4517Y-2.3720
X5.5144Y-2.6659
X5.5202Y-2.6871
X5.5248Y-2.6998
X5.5133Y-2.6959
X5.4884Y-2.6781
X5.4805Y-2.6737
X5.4811Y-2.6491
X5.4799Y-2.6301
X5.4770Y-2.6083
X5.4709Y-2.5804
X5.4632Y-2.5563
X5.4549Y-2.5369
X5.4384Y-2.5079
X5.4273Y-2.4928
X5.4141Y-2.4779
X5.3917Y-2.4578
X5.3696Y-2.4429
X5.3497Y-2.4326
X5.3429Y-2.4299
X5.3552Y-2.4255
X5.3644Y-2.4211
X5.3730Y-2.4158
X5.3851Y-2.4062
X5.3960Y-2.3946
X5.4041Y-2.3832
X5.4116Y-2.3687
X5.4158Y-2.3565
X5.4189Y-2.3413
X5.4198Y-2.3222
X5.4185Y-2.3106
X5.3578Y-2.0261
X5.3546Y-2.0148
X5.3476Y-1.9984
X5.3434Y-1.9913
X5.3364Y-1.9817
X5.3220Y-1.9670
X5.3251Y-1.9549
X5.3284Y-1.9345
X5.3292Y-1.9272
Y-1.9002
X5.3268Y-1.8823
X5.3048Y-1.7793
X5.3018Y-1.7682
X5.3280Y-1.7715
X5.3332Y-1.8083
X5.3457Y-1.8777
X5.3643Y-1.9659
Z0.5000
G0Z-0.0900
G1Z-0.1650F8.0
X5.3703Y-1.9923F10.0
X5.3823Y-2.0370
X5.3898Y-2.0609
X5.4033Y-2.0965
X5.4130Y-2.1182
X5.4283Y-2.1467
X5.4393Y-2.1639
X5.4476Y-2.1752
X5.4424Y-2.2030
X5.4394Y-2.2350
X5.4390Y-2.2593
X5.4413Y-2.2993
X5.4470Y-2.3449
X5.4517Y-2.3720
X5.5144Y-2.6659
X5.5202Y-2.6871
X5.5248Y-2.6998
X5.5133Y-2.6959
X5.4884Y-2.6781
X5.4805Y-2.6737
X5.4811Y-2.6491
X5.4799Y-2.6301
X5.4770Y-2.6083
X5.4709Y-2.5804
X5.4632Y-2.5563
X5.4549Y-2.5369
X5.4384Y-2.5079
X5.4273Y-2.4928
X5.4141Y-2.4779
X5.3917Y-2.4578
X5.3696Y-2.4429
X5.3497Y-2.4326
X5.3429Y-2.4299
X5.3552Y-2.4255
X5.3644Y-2.4211
X5.3730Y-2.4158
X5.3851Y-2.4062
X5.3960Y-2.3946
X5.4041Y-2.3832
X5.4116Y-2.3687
X5.4158Y-2.3565
X5.4189Y-2.3413
X5.4198Y-2.3222
X5.4185Y-2.3106
X5.3578Y-2.0261
X5.3546Y-2.0148
X5.3476Y-1.9984
X5.3434Y-1.9913
X5.3364Y-1.9817
X5.3220Y-1.9670
X5.3251Y-1.9549
X5.3284Y-1.9345
X5.3292Y-1.9272
Y-1.9002
X5.3268Y-1.8823
X5.3048Y-1.7793
X5.3018Y-1.7682
X5.3280Y-1.7715
X5.3332Y-1.8083
X5.3457Y-1.8777
X5.3643Y-1.9659
Z0.5000
G0X5.8793Y-2.3137
G1Z-0.0500F8.0
X5.8620Y-2.2078F10.0
X5.8576Y-2.1905
X5.8531Y-2.1794
X5.8476Y-2.1693
X5.8412Y-2.1600
X5.8339Y-2.1515
X5.8264Y-2.1443
X5.8176Y-2.1376
X5.8053Y-2.1302
X5.8131Y-2.1113
X5.8196Y-2.0898
X5.8236Y-2.0714
X5.8263Y-2.0512
X5.8275Y-2.0286
X5.8263Y-1.9961
X5.8255Y-1.9881
X5.7718Y-1.6577
X5.7654Y-1.6255
X5.7566Y-1.5936
X5.7870Y-1.5886
X5.7882Y-1.6148
X5.7926Y-1.6514
X5.9363Y-2.5260
X5.8861Y-2.4939
X5.8891Y-2.4675
X5.8903Y-2.4275
X5.8889Y-2.3934
X5.8851Y-2.3543
X5.8793Y-2.3137
Z0.5000
G0Z-0.0250
G1Z-0.1000F8.0
X5.8620Y-2.2078F10.0
X5.8576Y-2.1905
X5.8531Y-2.1794
X5.8476Y-2.1693
X5.8412Y-2.1600
X5.8339Y-2.1515
X5.8264Y-2.1443
X5.8176Y-2.1376
X5.8053Y-2.1302
X5.8131Y-2.1113
X5.8196Y-2.0898
X5.8236Y-2.0714
X5.8263Y-2.0512
X5.8275Y-2.0286
X5.8263Y-1.9961
X5.8255Y-1.9881
X5.7718Y-1.6577
X5.7654Y-1.6255
X5.7566Y-1.5936
X5.7870Y-1.5886
X5.7882Y-1.6148
X5.7926Y-1.6514
X5.9363Y-2.5260
X5.8861Y-2.4939
X5.8891Y-2.4675
X5.8903Y-2.4275
X5.8889Y-2.3934
X5.8851Y-2.3543
X5.8793Y-2.3137
Z0.5000
G0Z-0.0750
G1Z-0.1500F8.0
X5.8620Y-2.2078F10.0
X5.8576Y-2.1905
X5.8531Y-2.1794
X5.8476Y-2.1693
X5.8412Y-2.1600
X5.8339Y-2.1515
X5.8264Y-2.1443
X5.8176Y-2.1376
X5.8053Y-2.1302
X5.8131Y-2.1113
X5.8196Y-2.0898
X5.8236Y-2.0714
X5.8263Y-2.0512
X5.8275Y-2.0286
X5.8263Y-1.9961
X5.8255Y-1.9881
X5.7718Y-1.6577
X5.7654Y-1.6255
X5.7566Y-1.5936
X5.7870Y-1.5886
X5.7882Y-1.6148
X5.7926Y-1.6514
X5.9363Y-2.5260
X5.8861Y-2.4939
X5.8891Y-2.4675
X5.8903Y-2.4275
X5.8889Y-2.3934
X5.8851Y-2.3543
X5.8793Y-2.3137
Z0.5000
G0Z-0.0900
G1Z-0.1650F8.0
X5.8620Y-2.2078F10.0
X5.8576Y-2.1905
X5.8531Y-2.1794
X5.8476Y-2.1693
X5.8412Y-2.1600
X5.8339Y-2.1515
X5.8264Y-2.1443
X5.8176Y-2.1376
X5.8053Y-2.1302
X5.8131Y-2.1113
X5.8196Y-2.0898
X5.8236Y-2.0714
X5.8263Y-2.0512
X5.8275Y-2.0286
X5.8263Y-1.9961
X5.8255Y-1.9881
X5.7718Y-1.6577
X5.7654Y-1.6255
X5.7566Y-1.5936
X5.7870Y-1.5886
X5.7882Y-1.6148
X5.7926Y-1.6514
X5.9363Y-2.5260
X5.8861Y-2.4939
X5.8891Y-2.4675
X5.8903Y-2.4275
X5.8889Y-2.3934
X5.8851Y-2.3543
X5.8793Y-2.3137
Z0.5000
G0X6.4275Y-2.2322
G1Z-0.0500F8.0
X6.4716Y-2.5013F10.0
X6.4763Y-2.5229
X6.4807Y-2.5370
X6.4685Y-2.5328
X6.4486Y-2.5200
X6.4397Y-2.5157
X6.4302Y-2.5124
X6.4304Y-2.4870
X6.4265Y-2.4534
X6.4212Y-2.4304
X6.4150Y-2.4119
X6.4077Y-2.3950
X6.3963Y-2.3740
X6.3807Y-2.3522
X6.3710Y-2.3412
X6.3785Y-2.3343
X6.3850Y-2.3269
X6.3927Y-2.3161
X6.3994Y-2.3035
X6.4033Y-2.2935
X6.4067Y-2.2804
X6.4085Y-2.2667
X6.4084Y-2.2513
X6.2971Y-1.5706
X6.2907Y-1.5387
X6.2818Y-1.5075
X6.3126Y-1.5024
Y-1.5120
X6.3155Y-1.5463
X6.3606Y-1.8229
X6.3657Y-1.8485
X6.3765Y-1.8931
X6.3882Y-1.9306
X6.3954Y-1.9496
X6.4107Y-1.9825
X6.4190Y-1.9971
X6.4270Y-2.0091
X6.4245Y-2.0183
X6.4183Y-2.0544
X6.4157Y-2.0917
X6.4156Y-2.1161
X6.4178Y-2.1563
X6.4204Y-2.1817
X6.4275Y-2.2322
Z0.5000
G0Z-0.0250
G1Z-0.1000F8.0
X6.4716Y-2.5013F10.0
X6.4763Y-2.5229
X6.4807Y-2.5370
X6.4685Y-2.5328
X6.4486Y-2.5200
X6.4397Y-2.5157
X6.4302Y-2.5124
X6.4304Y-2.4870
X6.4265Y-2.4534
X6.4212Y-2.4304
X6.4150Y-2.4119
X6.4077Y-2.3950
X6.3963Y-2.3740
X6.3807Y-2.3522
X6.3710Y-2.3412
X6.3785Y-2.3343
X6.3850Y-2.3269
X6.3927Y-2.3161
X6.3994Y-2.3035
X6.4033Y-2.2935
X6.4067Y-2.2804
X6.4085Y-2.2667
X6.4084Y-2.2513
X6.2971Y-1.5706
X6.2907Y-1.5387
X6.2818Y-1.5075
X6.3126Y-1.5024
Y-1.5120
X6.3155Y-1.5463
X6.3606Y-1.8229
X6.3657Y-1.8485
X6.3765Y-1.8931
X6.3882Y-1.9306
X6.3954Y-1.9496
X6.4107Y-1.9825
X6.4190Y-1.9971
X6.4270Y-2.0091
X6.4245Y-2.0183
X6.4183Y-2.0544
X6.4157Y-2.0917
X6.4156Y-2.1161
X6.4178Y-2.1563
X6.4204Y-2.1817
X6.4275Y-2.2322
Z0.5000
G0Z-0.0750
G1Z-0.1500F8.0
X6.4716Y-2.5013F10.0
X6.4763Y-2.5229
X6.4807Y-2.5370
X6.4685Y-2.5328
X6.4486Y-2.5200
X6.4397Y-2.5157
X6.4302Y-2.5124
X6.4304Y-2.4870
X6.4265Y-2.4534
X6.4212Y-2.4304
X6.4150Y-2.4119
X6.4077Y-2.3950
X6.3963Y-2.3740
X6.3807Y-2.3522
X6.3710Y-2.3412
X6.3785Y-2.3343
X6.3850Y-2.3269
X6.3927Y-2.3161
X6.3994Y-2.3035
X6.4033Y-2.2935
X6.4067Y-2.2804
X6.4085Y-2.2667
X6.4084Y-2.2513
X6.2971Y-1.5706
X6.2907Y-1.5387
X6.2818Y-1.5075
X6.3126Y-1.5024
Y-1.5120
X6.3155Y-1.5463
X6.3606Y-1.8229
X6.3657Y-1.8485
X6.3765Y-1.8931
X6.3882Y-1.9306
X6.3954Y-1.9496
X6.4107Y-1.9825
X6.4190Y-1.9971
X6.4270Y-2.0091
X6.4245Y-2.0183
X6.4183Y-2.0544
X6.4157Y-2.0917
X6.4156Y-2.1161
X6.4178Y-2.1563
X6.4204Y-2.1817
X6.4275Y-2.2322
Z0.5000
G0Z-0.0900
G1Z-0.1650F8.0
X6.4716Y-2.5013F10.0
X6.4763Y-2.5229
X6.4807Y-2.5370
X6.4685Y-2.5328
X6.4486Y-2.5200
X6.4397Y-2.5157
X6.4302Y-2.5124
X6.4304Y-2.4870
X6.4265Y-2.4534
X6.4212Y-2.4304
X6.4150Y-2.4119
X6.4077Y-2.3950
X6.3963Y-2.3740
X6.3807Y-2.3522
X6.3710Y-2.3412
X6.3785Y-2.3343
X6.3850Y-2.3269
X6.3927Y-2.3161
X6.3994Y-2.3035
X6.4033Y-2.2935
X6.4067Y-2.2804
X6.4085Y-2.2667
X6.4084Y-2.2513
X6.2971Y-1.5706
X6.2907Y-1.5387
X6.2818Y-1.5075
X6.3126Y-1.5024
Y-1.5120
X6.3155Y-1.5463
X6.3606Y-1.8229
X6.3657Y-1.8485
X6.3765Y-1.8931
X6.3882Y-1.9306
X6.3954Y-1.9496
X6.4107Y-1.9825
X6.4190Y-1.9971
X6.4270Y-2.0091
X6.4245Y-2.0183
X6.4183Y-2.0544
X6.4157Y-2.0917
X6.4156Y-2.1161
X6.4178Y-2.1563
X6.4204Y-2.1817
X6.4275Y-2.2322
Z0.5000
(Advanced VCarve txtBoudreau - Vee)
M05
(Move to safe Z to avoid workholding)
G53G0Z-0.197
(TOOL/MILL,0.001, 0.000, 0.394, 15.00)
M6T328
M03S18000
(PREPOSITION BEFORE RAPID PLUNGE)
G0X4.5528Y-2.9857
Z0.5000
G1Z-0.0800F12.0
X4.5713Y-2.9665F35.0
X4.5860Y-2.9475
X4.5931Y-2.9369
X4.6063Y-2.9130
X4.6115Y-2.9012
X4.6197Y-2.8791
X4.6231Y-2.8674
X4.6281Y-2.8447
X4.6301Y-2.8311
X4.6320Y-2.8087
X4.6322Y-2.7954
X4.6312Y-2.7735
X4.6298Y-2.7606
X4.6259Y-2.7387
X4.6176Y-2.7090
X4.6057Y-2.6802
X4.5913Y-2.6539
X4.5755Y-2.6313
X4.5635Y-2.6170
X4.5496Y-2.6028
X4.5301Y-2.5864
X4.5114Y-2.5737
X4.4959Y-2.5652
X4.4796Y-2.5581
X4.4622Y-2.5524
X4.4518Y-2.5501
X4.4576Y-2.5359
X4.4653Y-2.5240
X4.4770Y-2.5109
X4.4925Y-2.4988
X4.5102Y-2.4895
X4.5209Y-2.4856
X4.5398Y-2.4813
X4.5586Y-2.4807
X4.5755Y-2.4837
X4.5959Y-2.4923
X4.6119Y-2.5035
X4.6278Y-2.5190
X4.6385Y-2.5322
X4.6527Y-2.5542
X4.6661Y-2.5805
X4.6781Y-2.6108
X4.6881Y-2.6438
X4.6934Y-2.6675
X4.6981Y-2.7051
X4.6988Y-2.7329
X4.6974Y-2.7595
X4.6958Y-2.7731
X4.6909Y-2.8004
X4.6834Y-2.8276
X4.6707Y-2.8626
X4.6696Y-2.8711
X4.6702Y-2.8799
X4.6724Y-2.8880
X4.6765Y-2.8961
X4.6818Y-2.9028
X4.6877Y-2.9081
X4.6993Y-2.9141
X4.7198Y-2.9189
X4.7339Y-2.9248
X4.5896Y-2.9628
X4.5807Y-2.9670
X4.5634Y-2.9793
X4.5528Y-2.9857
Z0.5000
G0X4.8699Y-2.7878
G1Z-0.0800F12.0
X4.8561Y-2.7725F35.0
X4.8435Y-2.7560
X4.8325Y-2.7383
X4.8226Y-2.7189
X4.8141Y-2.6980
X4.8070Y-2.6751
X4.8031Y-2.6593
X4.7976Y-2.6257
X4.7961Y-2.6103
X4.7955Y-2.5784
X4.7977Y-2.5491
X4.7999Y-2.5343
X4.8063Y-2.5046
X4.8102Y-2.4913
X4.8202Y-2.4633
X4.8330Y-2.4346
X4.8547Y-2.3959
X4.8804Y-2.3580
X4.9010Y-2.3316
X4.9213Y-2.3078
X4.9548Y-2.2720
X4.9777Y-2.2493
X5.0260Y-2.2043
X5.1204Y-2.1216
X5.1628Y-2.0832
X5.1921Y-2.0545
X5.2096Y-2.0356
X5.0500Y-2.2937
X5.0288Y-2.3355
X5.0111Y-2.3768
X4.9969Y-2.4174
X4.9880Y-2.4500
X4.9811Y-2.4848
X4.9769Y-2.5185
X4.9751Y-2.5544
X4.9764Y-2.5930
X4.9807Y-2.6295
X4.9855Y-2.6558
X4.9919Y-2.6814
X4.9964Y-2.6958
X5.0055Y-2.7199
X5.0107Y-2.7316
X5.0209Y-2.7509
X5.0283Y-2.7629
X5.0426Y-2.7825
X5.0503Y-2.7914
X5.0638Y-2.8051
X5.0751Y-2.8149
X5.0920Y-2.8270
X5.1039Y-2.8341
X5.1203Y-2.8422
X5.1324Y-2.8469
X5.1542Y-2.8533
X5.1800Y-2.8575
X5.1441Y-2.8628
X5.1068Y-2.8657
X5.0895Y-2.8661
X5.0552Y-2.8649
X5.0226Y-2.8611
X4.9998Y-2.8567
X4.9773Y-2.8506
X4.9566Y-2.8435
X4.9368Y-2.8349
X4.9183Y-2.8250
X4.9009Y-2.8138
X4.8844Y-2.8012
X4.8699Y-2.7878
Z0.5000
G0X5.1856Y-2.5005
G1Z-0.0800F12.0
X5.1836Y-2.4858F35.0
X5.1837Y-2.4730
X5.1867Y-2.4544
X5.1912Y-2.4414
X5.1973Y-2.4293
X5.2096Y-2.4126
X5.2215Y-2.4015
X5.2310Y-2.3946
X5.2428Y-2.3878
X5.2562Y-2.3819
X5.2710Y-2.3770
X5.2862Y-2.3735
X5.2974Y-2.3722
X5.3197Y-2.3712
X5.3277Y-2.3692
X5.3348Y-2.3660
X5.3445Y-2.3587
X5.3517Y-2.3491
X5.3562Y-2.3377
X5.3574Y-2.3253
X5.3565Y-2.3185
X5.2967Y-2.0393
X5.2947Y-2.0328
X5.2902Y-2.0241
X5.2832Y-2.0160
X5.2754Y-2.0104
X5.2658Y-2.0063
X5.2563Y-2.0046
X5.2457Y-2.0052
X5.2369Y-2.0078
X5.2280Y-2.0126
X5.2342Y-2.0046
X5.2455Y-1.9870
X5.2529Y-1.9730
X5.2615Y-1.9510
X5.2646Y-1.9393
X5.2670Y-1.9213
X5.2668Y-1.9040
X5.2649Y-1.8913
X5.2437Y-1.7924
X5.2380Y-1.7739
X5.2357Y-1.7683
X5.2256Y-1.7498
X5.2186Y-1.7400
X5.2036Y-1.7230
X5.1887Y-1.7093
X5.1785Y-1.7015
X5.1601Y-1.6891
X5.1360Y-1.6761
X5.2797Y-1.7021
X5.3297Y-1.7090
X5.3615Y-1.7115
X5.3849Y-1.7118
X5.3883Y-1.7517
X5.3951Y-1.7995
X5.4072Y-1.8666
X5.4313Y-1.9784
X5.4426Y-2.0208
X5.4494Y-2.0419
X5.4617Y-2.0742
X5.4699Y-2.0923
X5.4832Y-2.1168
X5.4918Y-2.1301
X5.5072Y-2.1503
X5.5169Y-2.1608
X5.5128Y-2.1727
X5.5069Y-2.1960
X5.5040Y-2.2131
X5.5017Y-2.2402
X5.5015Y-2.2572
X5.5037Y-2.2958
X5.5090Y-2.3369
X5.5133Y-2.3611
X5.5755Y-2.6528
X5.5815Y-2.6734
X5.5917Y-2.6954
X5.6036Y-2.7129
X5.6164Y-2.7267
X5.6289Y-2.7364
X5.6097Y-2.7486
X5.6037Y-2.7515
X5.5863Y-2.7576
X5.5679Y-2.7617
X5.5512Y-2.7637
X5.5337Y-2.7639
X5.5117Y-2.7610
X5.4978Y-2.7572
X5.4852Y-2.7519
X5.4738Y-2.7451
X5.4546Y-2.7307
X5.4423Y-2.7262
X5.4323Y-2.7254
X5.4215Y-2.7270
X5.4125Y-2.7307
X5.4035Y-2.7371
X5.4134Y-2.7064
X5.4178Y-2.6784
X5.4187Y-2.6513
X5.4176Y-2.6341
X5.4152Y-2.6169
X5.4091Y-2.5910
X5.4041Y-2.5766
X5.3978Y-2.5622
X5.3857Y-2.5414
X5.3774Y-2.5304
X5.3678Y-2.5198
X5.3487Y-2.5036
X5.3362Y-2.4957
X5.3242Y-2.4897
X5.3067Y-2.4833
X5.2932Y-2.4801
X5.2798Y-2.4783
X5.2607Y-2.4777
X5.2474Y-2.4787
X5.2307Y-2.4815
X5.2178Y-2.4850
X5.2022Y-2.4913
X5.1856Y-2.5005
Z0.5000
G0X5.8152Y-2.5246
G1Z-0.0800F12.0
X5.8207Y-2.5053F35.0
X5.8253Y-2.4786
X5.8269Y-2.4616
X5.8278Y-2.4296
X5.8264Y-2.3961
X5.8229Y-2.3604
X5.8175Y-2.3225
X5.8004Y-2.2179
X5.7981Y-2.2097
X5.7937Y-2.2010
X5.7877Y-2.1936
X5.7808Y-2.1881
X5.7731Y-2.1841
X5.7653Y-2.1818
X5.7579Y-2.1810
X5.7281Y-2.1841
X5.7216Y-2.1839
X5.7115Y-2.1822
X5.7008Y-2.1773
X5.6945Y-2.1717
X5.6902Y-2.1659
X5.7020Y-2.1589
X5.7215Y-2.1428
X5.7328Y-2.1298
X5.7410Y-2.1179
X5.7477Y-2.1057
X5.7550Y-2.0881
X5.7596Y-2.0724
X5.7624Y-2.0589
X5.7642Y-2.0439
X5.7651Y-2.0257
X5.7633Y-1.9945
X5.7101Y-1.6677
X5.7041Y-1.6377
X5.6952Y-1.6062
X5.6843Y-1.5790
X5.6762Y-1.5631
X5.6650Y-1.5453
X5.8586Y-1.5135
X5.8534Y-1.5342
X5.8511Y-1.5489
X5.8493Y-1.5801
X5.8507Y-1.6120
X5.8546Y-1.6436
X6.0000Y-2.5283
X6.0054Y-2.5488
X6.0126Y-2.5685
X6.0252Y-2.5933
X6.0369Y-2.6105
X6.0536Y-2.6294
X6.0688Y-2.6429
X6.0899Y-2.6571
X6.1121Y-2.6678
X6.0761Y-2.6618
X6.0479Y-2.6539
X6.0211Y-2.6442
X5.9957Y-2.6328
X5.9702Y-2.6197
X5.9452Y-2.6054
X5.8483Y-2.5439
X5.8152Y-2.5246
Z0.5000
G0X6.3158Y-2.6216
G1Z-0.0800F12.0
X6.3332Y-2.6018F35.0
X6.3456Y-2.5831
X6.3578Y-2.5569
X6.3630Y-2.5398
X6.3671Y-2.5174
X6.3679Y-2.5069
X6.3680Y-2.4892
X6.3646Y-2.4615
X6.3606Y-2.4456
X6.3560Y-2.4325
X6.3506Y-2.4204
X6.3423Y-2.4056
X6.3303Y-2.3891
X6.3153Y-2.3734
X6.2973Y-2.3595
X6.2830Y-2.3512
X6.2665Y-2.3442
X6.2480Y-2.3389
X6.2411Y-2.3376
X6.2437Y-2.3324
X6.2492Y-2.3254
X6.2573Y-2.3190
X6.2680Y-2.3135
X6.2851Y-2.3080
X6.3154Y-2.3020
X6.3224Y-2.2991
X6.3293Y-2.2947
X6.3375Y-2.2863
X6.3426Y-2.2774
X6.3457Y-2.2667
X6.3460Y-2.2552
X6.2354Y-1.5807
X6.2294Y-1.5512
X6.2198Y-1.5188
X6.2141Y-1.5039
X6.2052Y-1.4848
X6.1970Y-1.4706
X6.1894Y-1.4593
X6.3840Y-1.4274
X6.3786Y-1.4495
X6.3751Y-1.4798
X6.3750Y-1.5100
X6.3778Y-1.5409
X6.4223Y-1.8128
X6.4270Y-1.8363
X6.4372Y-1.8782
X6.4478Y-1.9118
X6.4537Y-1.9270
X6.4663Y-1.9539
X6.4733Y-1.9660
X6.4874Y-1.9869
X6.4965Y-1.9976
X6.4914Y-2.0108
X6.4848Y-2.0348
X6.4800Y-2.0643
X6.4780Y-2.0956
Y-2.1140
X6.4802Y-2.1528
X6.4826Y-2.1753
X6.4894Y-2.2235
X6.5333Y-2.4911
X6.5387Y-2.5137
X6.5449Y-2.5303
X6.5534Y-2.5464
X6.5671Y-2.5650
X6.5757Y-2.5736
X6.5815Y-2.5783
X6.5620Y-2.5889
X6.5372Y-2.5967
X6.5186Y-2.5999
X6.4959Y-2.6013
X6.4748Y-2.5996
X6.4620Y-2.5970
X6.4504Y-2.5932
X6.4395Y-2.5882
X6.4219Y-2.5767
X6.4143Y-2.5728
X6.4032Y-2.5701
X6.3910Y-2.5704
X6.3821Y-2.5728
X6.3737Y-2.5771
X6.3427Y-2.6033
X6.3158Y-2.6216
Z0.5000
G0X4.7540Y-2.0186
G1Z-0.0800F12.0
X4.7376Y-1.9996F35.0
X4.7229Y-1.9768
X4.7144Y-1.9596
X4.7073Y-1.9413
X4.7016Y-1.9222
X4.6957Y-1.8896
X4.6945Y-1.8687
X4.6957Y-1.8484
X4.6991Y-1.8294
X4.7045Y-1.8110
X4.7120Y-1.7935
X4.7216Y-1.7766
X4.7389Y-1.7536
X4.7546Y-1.7377
X4.7711Y-1.7241
X4.7801Y-1.7176
X4.7998Y-1.7054
X4.8298Y-1.6905
X4.8222Y-1.6965
X4.8082Y-1.7096
X4.7962Y-1.7233
X4.7861Y-1.7375
X4.7771Y-1.7535
X4.7705Y-1.7689
X4.7643Y-1.7897
X4.7615Y-1.8057
X4.7604Y-1.8237
X4.7612Y-1.8428
X4.7639Y-1.8606
X4.7710Y-1.8852
X4.7770Y-1.8988
X4.7872Y-1.9160
X4.7981Y-1.9296
X4.8087Y-1.9397
X4.8207Y-1.9487
X4.8370Y-1.9577
X4.8567Y-1.9648
X4.8634Y-1.9663
X4.8836Y-1.9691
X4.9063Y-1.9684
X4.9303Y-1.9634
X4.9480Y-1.9570
X4.9720Y-1.9439
X4.9813Y-1.9371
X4.9967Y-1.9220
X5.0089Y-1.9046
X5.0149Y-1.8911
X5.0172Y-1.8981
X5.0202Y-1.9145
X5.0204Y-1.9331
X5.0185Y-1.9465
X5.0153Y-1.9591
X5.0110Y-1.9711
X5.0054Y-1.9831
X4.9941Y-2.0012
X4.9862Y-2.0113
X4.9717Y-2.0263
X4.9553Y-2.0392
X4.9451Y-2.0456
X4.9269Y-2.0542
X4.9164Y-2.0577
X4.8998Y-2.0612
X4.8789Y-2.0637
X4.8508Y-2.0634
X4.8331Y-2.0609
X4.8166Y-2.0567
X4.8011Y-2.0509
X4.7863Y-2.0435
X4.7723Y-2.0344
X4.7540Y-2.0186
Z0.5000
G0X4.3990Y-2.2459
G1Z-0.0800F12.0
X4.3998Y-2.2364F35.0
X4.3985Y-2.2270
X4.3367Y-1.9928
X4.3309Y-1.9756
X4.3237Y-1.9584
X4.3157Y-1.9426
X4.3052Y-1.9253
X4.2886Y-1.9030
X4.2713Y-1.8849
X4.2466Y-1.8653
X4.2304Y-1.8558
X4.2108Y-1.8474
X4.2252Y-1.8490
X4.2503Y-1.8539
X4.2743Y-1.8609
X4.2976Y-1.8698
X4.3202Y-1.8800
X4.3439Y-1.8922
X4.4362Y-1.9454
X4.4617Y-1.9588
X4.4857Y-1.9700
X4.4878Y-1.9858
X4.4942Y-2.0197
X4.5054Y-2.0667
X4.5293Y-2.1579
X4.4987Y-2.1737
X4.4734Y-2.1889
X4.4380Y-2.2135
X4.4153Y-2.2315
X4.3990Y-2.2459
Z0.5000
G0X4.0139Y-2.9343
G1Z-0.0800F12.0
X4.0158Y-2.9232F35.0
X4.0186Y-2.8969
X4.0194Y-2.8809
X4.0193Y-2.8506
X4.0184Y-2.8330
X4.0154Y-2.8028
X4.0126Y-2.7840
X4.0061Y-2.7509
X3.9975Y-2.7180
X3.9868Y-2.6850
X3.9680Y-2.6387
X3.9608Y-2.6235
X3.9467Y-2.5971
X3.9312Y-2.5723
X3.9086Y-2.5430
X3.9147Y-2.5182
X3.9181Y-2.4897
X3.9182Y-2.4602
X3.9154Y-2.4285
X3.9094Y-2.3911
X3.8995Y-2.3456
X3.8846Y-2.2911
X3.8749Y-2.2633
X3.8627Y-2.2341
X3.8494Y-2.2074
X3.8347Y-2.1824
X3.8174Y-2.1580
X3.8079Y-2.1469
X3.8331Y-2.1125
X3.8991Y-2.0158
X3.9255Y-1.9815
X3.9443Y-1.9598
X3.9648Y-1.9389
X3.9869Y-1.9194
X3.9974Y-1.9112
X4.0159Y-1.8986
X4.0023Y-1.9156
X3.9924Y-1.9324
X3.9842Y-1.9507
X3.9766Y-1.9765
X3.9724Y-2.0093
X3.9726Y-2.0373
X3.9767Y-2.0684
X3.9813Y-2.0892
X4.1164Y-2.6022
X4.1210Y-2.6113
X4.1275Y-2.6190
X4.1360Y-2.6253
X4.1448Y-2.6291
X4.1557Y-2.6311
X4.1665Y-2.6303
X4.1770Y-2.6268
X4.1859Y-2.6211
X4.1795Y-2.6541
X4.1743Y-2.6926
X4.1722Y-2.7189
X4.1714Y-2.7449
X4.1716Y-2.7685
X4.1730Y-2.7925
X4.1757Y-2.8168
X4.1800Y-2.8422
X4.1884Y-2.8760
X4.1930Y-2.8899
X4.2053Y-2.9202
X4.2168Y-2.9424
X4.2239Y-2.9540
X4.2406Y-2.9771
X4.2559Y-2.9943
X4.2653Y-3.0032
X4.2810Y-3.0161
X4.2905Y-3.0227
X4.3057Y-3.0318
X4.3175Y-3.0376
X4.3347Y-3.0444
X4.3533Y-3.0495
X4.3233Y-3.0513
X4.3069Y-3.0512
X4.2816Y-3.0496
X4.2676Y-3.0478
X4.2381Y-3.0421
X4.2106Y-3.0342
X4.1851Y-3.0247
X4.1602Y-3.0136
X4.1237Y-2.9944
X4.0407Y-2.9474
X4.0139Y-2.9343
Z0.5000
G0X3.4565Y-2.5439
G1Z-0.0800F12.0
X3.4485Y-2.5346F35.0
X3.4416Y-2.5247
X3.4317Y-2.5048
X3.4280Y-2.4928
X3.4255Y-2.4817
X3.4235Y-2.4613
X3.4249Y-2.4429
X3.4267Y-2.4344
X3.4320Y-2.4201
X3.4389Y-2.4088
X3.4459Y-2.4009
X3.4548Y-2.3942
X3.4591Y-2.3920
X3.4739Y-2.3875
X3.4839Y-2.3867
X3.4974Y-2.3888
X3.5047Y-2.3920
X3.5139Y-2.3993
X3.5189Y-2.4059
X3.5227Y-2.4140
X3.5246Y-2.4205
X3.5256Y-2.4289
X3.5250Y-2.4366
X3.5233Y-2.4438
X3.5202Y-2.4506
X3.5139Y-2.4594
X3.5071Y-2.4655
X3.4930Y-2.4745
X3.4851Y-2.4825
X3.4787Y-2.4939
X3.4760Y-2.5065
X3.4762Y-2.5141
X3.4780Y-2.5228
X3.4812Y-2.5304
X3.4856Y-2.5371
X3.4911Y-2.5428
X3.4976Y-2.5475
X3.5055Y-2.5512
X3.5133Y-2.5531
X3.5214Y-2.5537
X3.5348Y-2.5524
X3.5451Y-2.5503
X3.5710Y-2.5424
X3.5878Y-2.5350
X3.5962Y-2.5303
X3.6131Y-2.5187
X3.6279Y-2.5054
X3.6431Y-2.4874
X3.6522Y-2.4733
X3.6646Y-2.4478
X3.6717Y-2.4250
X3.6722Y-2.4478
X3.6710Y-2.4633
X3.6686Y-2.4780
X3.6648Y-2.4925
X3.6600Y-2.5059
X3.6539Y-2.5185
X3.6470Y-2.5296
X3.6384Y-2.5404
X3.6290Y-2.5497
X3.6185Y-2.5579
X3.6060Y-2.5653
X3.5925Y-2.5713
X3.5786Y-2.5757
X3.5587Y-2.5793
X3.5396Y-2.5800
X3.5278Y-2.5791
X3.5167Y-2.5770
X3.4990Y-2.5717
X3.4833Y-2.5643
X3.4682Y-2.5543
X3.4565Y-2.5439
Z0.5000
G0X3.2954Y-3.3336
G1Z-0.0800F12.0
X3.3000Y-3.3063F35.0
X3.3011Y-3.2902
Y-3.2742
X3.2998Y-3.2563
X3.2946Y-3.2236
X3.2902Y-3.2064
X3.2123Y-2.9554
X3.2042Y-2.9320
X3.1887Y-2.8929
X3.1738Y-2.8615
X3.1654Y-2.8462
X3.1493Y-2.8214
X3.1403Y-2.8096
X3.1234Y-2.7911
X3.1131Y-2.7819
X3.1165Y-2.7669
X3.1194Y-2.7432
X3.1202Y-2.7283
X3.1194Y-2.6985
X3.1177Y-2.6814
X3.1119Y-2.6447
X3.1028Y-2.6047
X3.0891Y-2.5569
X3.0052Y-2.2874
X2.9968Y-2.2689
X2.9849Y-2.2502
X2.9733Y-2.2365
X2.9656Y-2.2292
X2.9501Y-2.2180
X2.9594Y-2.2102
X2.9736Y-2.2017
X2.9909Y-2.1940
X3.0136Y-2.1871
X3.0339Y-2.1837
X3.0463Y-2.1829
X3.0578Y-2.1831
X3.0752Y-2.1854
X3.0903Y-2.1898
X3.1044Y-2.1965
X3.1131Y-2.2022
X3.1269Y-2.2149
X3.1367Y-2.2281
X3.1430Y-2.2399
X3.1564Y-2.2756
X3.1600Y-2.2811
X3.1657Y-2.2873
X3.1760Y-2.2941
X3.1865Y-2.2976
X3.1980Y-2.2983
X3.2091Y-2.2962
X3.2166Y-2.2929
X3.2229Y-2.2886
X3.2285Y-2.2832
X3.2338Y-2.2756
X3.2375Y-2.2669
X3.2458Y-2.2320
X3.2559Y-2.2002
X3.2685Y-2.1696
X3.2806Y-2.1466
X3.2942Y-2.1259
X3.3101Y-2.1065
X3.3217Y-2.0948
X3.3406Y-2.0799
X3.3467Y-2.0760
X3.3687Y-2.0645
X3.3861Y-2.0581
X3.4070Y-2.0526
X3.4319Y-2.0482
X3.4487Y-2.0469
X3.4689Y-2.0474
X3.4854Y-2.0498
X3.5048Y-2.0556
X3.5143Y-2.0600
X3.5269Y-2.0674
X3.5350Y-2.0704
X3.5475Y-2.0719
X3.5583Y-2.0702
X3.5544Y-2.0917
X3.5535Y-2.1048
X3.5539Y-2.1203
X3.5572Y-2.1429
X3.5610Y-2.1571
X3.5696Y-2.1813
X3.5541Y-2.1731
X3.5370Y-2.1661
X3.5146Y-2.1593
X3.5033Y-2.1570
X3.4850Y-2.1547
X3.4610Y-2.1541
X3.4493Y-2.1549
X3.4293Y-2.1578
X3.4052Y-2.1637
X3.3914Y-2.1685
X3.3690Y-2.1782
X3.3445Y-2.1919
X3.3226Y-2.2076
X3.3011Y-2.2267
X3.2839Y-2.2454
X3.2689Y-2.2651
X3.2614Y-2.2765
X3.2478Y-2.3011
X3.2367Y-2.3269
X3.2323Y-2.3396
X3.2253Y-2.3653
X3.2206Y-2.3922
X3.2183Y-2.4219
X3.2189Y-2.4515
X3.2222Y-2.4804
X3.2282Y-2.5092
X3.2330Y-2.5258
X3.2426Y-2.5537
X3.2577Y-2.5891
X3.2696Y-2.6122
X3.2888Y-2.6436
X3.3036Y-2.6640
X3.3254Y-2.6898
X3.3416Y-2.7063
X3.3654Y-2.7270
X3.3882Y-2.7435
X3.4133Y-2.7583
X3.4216Y-2.7622
X3.4125Y-2.7715
X3.4028Y-2.7781
X3.3974Y-2.7809
X3.3849Y-2.7854
X3.3594Y-2.7904
X3.3516Y-2.7941
X3.3448Y-2.7990
X3.3375Y-2.8073
X3.3326Y-2.8169
X3.3300Y-2.8282
X3.3305Y-2.8394
X3.4282Y-3.1564
X3.4361Y-3.1786
X3.4472Y-3.2031
X3.4639Y-3.2314
X3.4736Y-3.2446
X3.4841Y-3.2571
X3.4980Y-3.2709
X3.2954Y-3.3336
Z0.5000
G0X2.8726Y-3.4503
G1Z-0.0800F12.0
X2.8746Y-3.4433F35.0
X2.8792Y-3.4199
X2.8810Y-3.3906
X2.8791Y-3.3625
X2.8746Y-3.3378
X2.8674Y-3.3137
X2.6443Y-2.6942
X2.6388Y-2.6853
X2.6306Y-2.6773
X2.6222Y-2.6724
X2.6118Y-2.6692
X2.6030Y-2.6686
X2.5965Y-2.6693
X2.5707Y-2.6768
X2.5551Y-2.6791
X2.5391Y-2.6781
X2.5296Y-2.6749
X2.5235Y-2.6711
X2.5389Y-2.6573
X2.5482Y-2.6467
X2.5557Y-2.6363
X2.5646Y-2.6207
X2.5726Y-2.6006
X2.5775Y-2.5794
X2.5793Y-2.5583
X2.5786Y-2.5414
X2.5767Y-2.5274
X2.5734Y-2.5131
X2.5685Y-2.4978
X2.5555Y-2.4683
X2.5403Y-2.4437
X2.5240Y-2.4243
X2.5070Y-2.4088
X2.4873Y-2.3957
X2.4637Y-2.3850
X2.4752Y-2.3851
X2.4850Y-2.3829
X2.4948Y-2.3781
X2.5035Y-2.3705
X2.5099Y-2.3612
X2.5137Y-2.3505
X2.5146Y-2.3390
X2.5127Y-2.3280
X2.3580Y-1.8980
X2.3465Y-1.8688
X2.3328Y-1.8396
X2.3224Y-1.8199
X2.3009Y-1.7846
X2.2773Y-1.7524
X2.3010Y-1.7649
X2.3230Y-1.7783
X2.3948Y-1.8263
X2.4334Y-1.8508
X2.4607Y-1.8661
X2.4752Y-1.8735
X2.5027Y-1.8854
X2.5190Y-1.8913
X2.5447Y-1.8986
X2.5643Y-1.9016
X2.5557Y-1.9054
X2.5476Y-1.9112
X2.5418Y-1.9176
X2.5379Y-1.9239
X2.5349Y-1.9314
X2.5332Y-1.9406
X2.5334Y-1.9497
X2.5355Y-1.9584
X2.7856Y-2.6533
X2.8031Y-2.6988
X2.8118Y-2.7193
X2.8289Y-2.7546
X2.8387Y-2.7722
X2.8549Y-2.7978
X2.8740Y-2.8222
X2.8917Y-2.8405
X2.9022Y-2.8493
X2.8995Y-2.8633
X2.8973Y-2.8860
X2.8971Y-2.9000
X2.8991Y-2.9305
X2.9015Y-2.9470
X2.9093Y-2.9849
X2.9205Y-3.0250
X2.9361Y-3.0715
X3.0322Y-3.3372
X3.0414Y-3.3554
X3.0544Y-3.3742
X3.0693Y-3.3898
X3.0834Y-3.4006
X3.0919Y-3.4054
X3.0829Y-3.4138
X3.0625Y-3.4269
X3.0443Y-3.4346
X3.0280Y-3.4397
X3.0126Y-3.4430
X2.9900Y-3.4450
X2.9760Y-3.4444
X2.9626Y-3.4425
X2.9442Y-3.4371
X2.9240Y-3.4285
X2.9163Y-3.4270
X2.9095Y-3.4269
X2.8984Y-3.4288
X2.8876Y-3.4339
X2.8793Y-3.4409
X2.8726Y-3.4503
Z0.5000
G0X2.3207Y-3.5035
G1Z-0.0800F12.0
X2.3219Y-3.4740F35.0
X2.3210Y-3.4452
X2.3181Y-3.4119
X2.3137Y-3.3796
X2.3075Y-3.3473
X2.3032Y-3.3300
X2.2951Y-3.3031
X2.2811Y-3.2674
X2.2657Y-3.2339
X2.2566Y-3.2161
X2.2400Y-3.1872
X2.2220Y-3.1602
X2.2041Y-3.1371
X2.1845Y-3.1159
X2.1784Y-3.1103
X2.1809Y-3.0910
X2.1820Y-3.0626
X2.1806Y-3.0328
X2.1768Y-3.0026
X2.1698Y-2.9674
X2.1605Y-2.9323
X2.1486Y-2.8961
X2.1355Y-2.8630
X2.1214Y-2.8333
X2.1055Y-2.8043
X2.0892Y-2.7786
X2.0709Y-2.7535
X2.0530Y-2.7323
X2.0450Y-2.7242
X2.0539Y-2.7106
X2.1209Y-2.5972
X2.1376Y-2.5707
X2.1541Y-2.5467
X2.1729Y-2.5219
X2.1922Y-2.4993
X2.2132Y-2.4779
X2.2362Y-2.4579
X2.2285Y-2.4689
X2.2190Y-2.4861
X2.2119Y-2.5032
X2.2059Y-2.5234
X2.2038Y-2.5334
X2.2015Y-2.5514
X2.2009Y-2.5634
X2.2015Y-2.5848
X2.2042Y-2.6064
X2.2066Y-2.6184
X2.2127Y-2.6407
X2.3241Y-2.9507
X2.3104Y-2.9611
X2.2977Y-2.9755
X2.2908Y-2.9861
X2.2828Y-3.0038
X2.2782Y-3.0220
X2.2770Y-3.0417
X2.2781Y-3.0540
X2.2834Y-3.0741
X2.2883Y-3.0852
X2.2983Y-3.1009
X2.3070Y-3.1106
X2.3198Y-3.1211
X2.3320Y-3.1284
X2.3472Y-3.1346
X2.3646Y-3.1385
X2.3715Y-3.1392
X2.3869Y-3.1393
X2.4045Y-3.1366
X2.4169Y-3.1328
X2.4293Y-3.1269
X2.4348Y-3.1233
X2.4472Y-3.1134
X2.4532Y-3.1076
X2.4635Y-3.0949
X2.4706Y-3.0833
X2.4753Y-3.0728
X2.4841Y-3.0789
X2.4740Y-3.0959
X2.4672Y-3.1098
X2.4567Y-3.1375
X2.4491Y-3.1678
X2.4460Y-3.1885
X2.4443Y-3.2119
X2.4452Y-3.2489
X2.4488Y-3.2781
X2.4544Y-3.3056
X2.4625Y-3.3345
X2.4742Y-3.3672
X2.4862Y-3.3953
X2.4993Y-3.4211
X2.5146Y-3.4469
X2.5313Y-3.4707
X2.5472Y-3.4902
X2.5652Y-3.5089
X2.5834Y-3.5248
X2.6018Y-3.5382
X2.6247Y-3.5515
X2.6446Y-3.5602
X2.6645Y-3.5665
X2.6867Y-3.5708
X2.6931Y-3.5714
X2.6559Y-3.5794
X2.6370Y-3.5823
X2.6087Y-3.5853
X2.5920Y-3.5862
X2.5569Y-3.5860
X2.5412Y-3.5850
X2.5088Y-3.5811
X2.4947Y-3.5785
X2.4657Y-3.5717
X2.4519Y-3.5677
X2.4262Y-3.5589
X2.4012Y-3.5487
X2.3782Y-3.5377
X2.3581Y-3.5268
X2.3207Y-3.5035
Z0.5000
G0X1.8140Y-3.5742
G1Z-0.0800F12.0
X1.8154Y-3.5682F35.0
X1.8191Y-3.5604
X1.8256Y-3.5522
X1.8345Y-3.5445
X1.8502Y-3.5350
X1.8774Y-3.5228
X1.8847Y-3.5176
X1.8897Y-3.5124
X1.8954Y-3.5034
X1.8988Y-3.4929
X1.8996Y-3.4823
X1.8978Y-3.4718
X1.6342Y-2.8386
X1.6211Y-2.8104
X1.6051Y-2.7826
X1.5967Y-2.7702
X1.5830Y-2.7528
X1.5726Y-2.7415
X1.5616Y-2.7313
X1.7436Y-2.6554
X1.7435Y-2.6788
X1.7471Y-2.7091
X1.7542Y-2.7391
X1.7636Y-2.7673
X1.8696Y-3.0218
X1.8795Y-3.0435
X1.8983Y-3.0805
X1.9162Y-3.1106
X1.9263Y-3.1255
X1.9453Y-3.1494
X1.9539Y-3.1586
X1.9724Y-3.1756
X1.9843Y-3.1845
X1.9824Y-3.1983
X1.9815Y-3.2219
X1.9835Y-3.2530
X1.9887Y-3.2831
X1.9930Y-3.3016
X2.0044Y-3.3399
X2.0115Y-3.3604
X2.0294Y-3.4062
X2.1334Y-3.6557
X2.1439Y-3.6766
X2.1545Y-3.6924
X2.1665Y-3.7060
X2.1837Y-3.7204
X2.1938Y-3.7268
X2.2007Y-3.7300
X2.1844Y-3.7445
X2.1782Y-3.7489
X2.1618Y-3.7581
X2.1446Y-3.7655
X2.1229Y-3.7720
X2.1078Y-3.7747
X2.0882Y-3.7757
X2.0765Y-3.7747
X2.0649Y-3.7724
X2.0434Y-3.7647
X2.0361Y-3.7631
X2.0244Y-3.7632
X2.0137Y-3.7661
X2.0051Y-3.7707
X1.9978Y-3.7771
X1.9738Y-3.8096
X1.9520Y-3.8334
X1.9633Y-3.8126
X1.9724Y-3.7881
X1.9780Y-3.7611
X1.9792Y-3.7417
X1.9780Y-3.7201
X1.9764Y-3.7099
X1.9725Y-3.6931
X1.9631Y-3.6674
X1.9561Y-3.6535
X1.9479Y-3.6404
X1.9399Y-3.6299
X1.9280Y-3.6169
X1.9122Y-3.6033
X1.8946Y-3.5920
X1.8733Y-3.5824
X1.8577Y-3.5777
X1.8406Y-3.5747
X1.8218Y-3.5738
X1.8140Y-3.5742
Z0.5000
G0X1.4425Y-3.8541
G1Z-0.0800F12.0
X1.4434Y-3.8337F35.0
X1.4419Y-3.8078
X1.4397Y-3.7913
X1.4334Y-3.7604
X1.4238Y-3.7262
X1.4120Y-3.6916
X1.3980Y-3.6561
X1.3576Y-3.5592
X1.3536Y-3.5518
X1.3481Y-3.5451
X1.3407Y-3.5391
X1.3326Y-3.5349
X1.3233Y-3.5325
X1.3156Y-3.5320
X1.3081Y-3.5328
X1.2793Y-3.5428
X1.2735Y-3.5441
X1.2632Y-3.5448
X1.2514Y-3.5425
X1.2437Y-3.5383
X1.2384Y-3.5339
X1.2483Y-3.5243
X1.2633Y-3.5044
X1.2715Y-3.4891
X1.2769Y-3.4751
X1.2806Y-3.4616
X1.2835Y-3.4437
X1.2844Y-3.4266
X1.2839Y-3.4129
X1.2824Y-3.3983
X1.2787Y-3.3794
X1.2700Y-3.3500
X1.1431Y-3.0444
X1.1304Y-3.0166
X1.1145Y-2.9881
X1.0975Y-2.9639
X1.0863Y-2.9507
X1.0710Y-2.9357
X1.2521Y-2.8602
X1.2518Y-2.8813
X1.2530Y-2.8969
X1.2583Y-2.9272
X1.2670Y-2.9576
X1.2780Y-2.9872
X1.6234Y-3.8155
X1.6327Y-3.8331
X1.6443Y-3.8508
X1.6624Y-3.8723
X1.6780Y-3.8866
X1.6992Y-3.9017
X1.7161Y-3.9107
X1.7400Y-3.9198
X1.7644Y-3.9252
X1.7417Y-3.9272
X1.7274Y-3.9276
X1.6988Y-3.9265
X1.6705Y-3.9231
X1.6433Y-3.9179
X1.6153Y-3.9109
X1.5872Y-3.9026
X1.4798Y-3.8654
X1.4425Y-3.8541
Z0.5000
G0X1.0709Y-4.2305
G1Z-0.0800F12.0
X1.0750Y-4.2244F35.0
X1.0850Y-4.2063
X1.0918Y-4.1896
X1.0952Y-4.1789
X1.1001Y-4.1562
X1.1016Y-4.1440
X1.1025Y-4.1239
X1.1020Y-4.1088
X1.0996Y-4.0863
X1.0973Y-4.0731
X1.0874Y-4.0356
X1.0775Y-4.0081
X1.0711Y-3.9929
X1.0579Y-3.9653
X1.0423Y-3.9380
X1.0342Y-3.9256
X1.0193Y-3.9058
X1.0029Y-3.8876
X0.9931Y-3.8782
X0.9770Y-3.8653
X0.9601Y-3.8544
X0.9402Y-3.8445
X0.9183Y-3.8372
X0.9301Y-3.8369
X0.9420Y-3.8349
X0.9573Y-3.8304
X0.9719Y-3.8236
X0.9861Y-3.8139
X0.9965Y-3.8044
X1.0054Y-3.7935
X1.0156Y-3.7754
X1.0205Y-3.7615
X1.0231Y-3.7481
X1.0238Y-3.7316
X1.0226Y-3.7201
X1.0185Y-3.7033
X1.0140Y-3.6918
X1.0045Y-3.6756
X0.9963Y-3.6654
X0.9816Y-3.6523
X0.9656Y-3.6428
X0.9483Y-3.6364
X0.9357Y-3.6339
X0.9174Y-3.6331
X0.9013Y-3.6355
X0.7268Y-3.2682
X0.7160Y-3.2485
X0.7048Y-3.2315
X0.6924Y-3.2162
X0.6763Y-3.1994
X0.6603Y-3.1857
X0.6387Y-3.1710
X0.6202Y-3.1613
X0.5986Y-3.1529
X0.5748Y-3.1474
X0.5689Y-3.1467
X0.5989Y-3.1434
X0.6137Y-3.1428
X0.6460Y-3.1433
X0.6906Y-3.1478
X0.7355Y-3.1561
X0.7791Y-3.1667
X0.8863Y-3.1967
X0.8976Y-3.1993
X0.8978Y-3.2106
X0.9008Y-3.2398
X0.9059Y-3.2687
X0.9130Y-3.2981
X0.9233Y-3.3315
X0.9345Y-3.3615
X0.9486Y-3.3935
X0.9660Y-3.4278
X0.9835Y-3.4582
X1.0030Y-3.4878
X1.0215Y-3.5120
X1.0415Y-3.5343
X1.0609Y-3.5525
X1.0770Y-3.5649
X1.0771Y-3.5872
X1.0799Y-3.6152
X1.0828Y-3.6328
X1.0892Y-3.6621
X1.0987Y-3.6953
X1.1048Y-3.7132
X1.1174Y-3.7464
X1.1328Y-3.7809
X1.1478Y-3.8088
X1.1562Y-3.8224
X1.1749Y-3.8497
X1.1939Y-3.8748
X1.2148Y-3.9000
X1.2347Y-3.9215
X1.2500Y-3.9363
X1.2190Y-4.0155
X1.2018Y-4.0544
X1.1882Y-4.0818
X1.1732Y-4.1087
X1.1477Y-4.1478
X1.1268Y-4.1749
X1.1168Y-4.1865
X1.0930Y-4.2110
X1.0709Y-4.2305
Z0.5000
G0X0.8799Y-3.8314
G1Z-0.0800F12.0
X0.8806Y-3.8292F35.0
X0.8867Y-3.8317
X0.8799Y-3.8314
Z0.5000
G0X0.5670Y-3.6273
G1Z-0.0800F12.0
X0.5772Y-3.6280F35.0
X0.5765Y-3.6309
X0.5670Y-3.6273
Z0.5000
G0X0.5598Y-4.2636
G1Z-0.0800F12.0
X0.5596Y-4.2494F35.0
X0.5570Y-4.2200
X0.5523Y-4.1911
X0.5456Y-4.1614
X0.5364Y-4.1298
X0.5251Y-4.0986
X0.5106Y-4.0654
X0.4930Y-4.0309
X0.4751Y-4.0005
X0.4550Y-3.9709
X0.4356Y-3.9464
X0.4162Y-3.9254
X0.3965Y-3.9075
X0.3801Y-3.8952
X0.3806Y-3.8856
X0.3793Y-3.8580
X0.3757Y-3.8294
X0.3692Y-3.7975
X0.3600Y-3.7639
X0.3544Y-3.7468
X0.3419Y-3.7131
X0.3260Y-3.6771
X0.3124Y-3.6518
X0.3029Y-3.6365
X0.2851Y-3.6105
X0.2650Y-3.5841
X0.2435Y-3.5587
X0.2228Y-3.5368
X0.2076Y-3.5229
X0.2322Y-3.4643
X0.2500Y-3.4245
X0.2626Y-3.3987
X0.2777Y-3.3704
X0.2933Y-3.3438
X0.3196Y-3.3048
X0.3405Y-3.2785
X0.3505Y-3.2670
X0.3740Y-3.2430
X0.3833Y-3.2346
X0.3722Y-3.2542
X0.3652Y-3.2711
X0.3597Y-3.2896
X0.3567Y-3.3048
X0.3546Y-3.3243
X0.3543Y-3.3358
X0.3556Y-3.3608
X0.3594Y-3.3864
X0.3621Y-3.3985
X0.3694Y-3.4241
X0.3794Y-3.4517
X0.3858Y-3.4670
X0.3992Y-3.4948
X0.4143Y-3.5214
X0.4308Y-3.5454
X0.4476Y-3.5654
X0.4659Y-3.5830
X0.4815Y-3.5953
X0.4983Y-3.6059
X0.5098Y-3.6119
X0.5246Y-3.6179
X0.5408Y-3.6229
X0.5265Y-3.6233
X0.5114Y-3.6261
X0.4910Y-3.6335
X0.4807Y-3.6392
X0.4665Y-3.6498
X0.4515Y-3.6668
X0.4429Y-3.6815
X0.4372Y-3.6967
X0.4356Y-3.7030
X0.4333Y-3.7184
X0.4346Y-3.7416
X0.4387Y-3.7576
X0.4437Y-3.7696
X0.4522Y-3.7839
X0.4609Y-3.7948
X0.4748Y-3.8074
X0.4914Y-3.8174
X0.5086Y-3.8237
X0.5213Y-3.8262
X0.5397Y-3.8270
X0.5557Y-3.8246
X0.7341Y-4.1995
X0.7456Y-4.2186
X0.7575Y-4.2345
X0.7711Y-4.2493
X0.7863Y-4.2631
X0.8017Y-4.2746
X0.8196Y-4.2856
X0.8357Y-4.2937
X0.8540Y-4.3008
X0.8727Y-4.3063
X0.8896Y-4.3096
X0.9043Y-4.3112
X0.8751Y-4.3164
X0.8429Y-4.3192
X0.8280Y-4.3196
X0.7966Y-4.3188
X0.7515Y-4.3139
X0.7217Y-4.3087
X0.6936Y-4.3024
X0.6511Y-4.2910
X0.5598Y-4.2636
Z0.5000
G0X-0.3409Y-3.9003
G1Z-0.0800F12.0
X-0.3296Y-3.8772F35.0
X-0.3209Y-3.8549
X-0.3121Y-3.8233
X-0.3080Y-3.8001
X-0.3060Y-3.7781
X-0.3062Y-3.7473
X-0.3087Y-3.7260
X-0.3158Y-3.6957
X-0.3185Y-3.6897
X-0.6146Y-3.1586
X-0.6220Y-3.1498
X-0.6324Y-3.1427
X-0.6667Y-3.1264
X-0.6918Y-3.1169
X-0.7178Y-3.1090
X-0.7453Y-3.1024
X-0.7718Y-3.0979
X-0.7999Y-3.0947
X-0.8302Y-3.0932
X-0.8672Y-3.0941
X-0.8275Y-3.0871
X-0.7817Y-3.0808
X-0.7375Y-3.0760
X-0.5831Y-3.0622
X-0.5185Y-3.0540
X-0.4751Y-3.0463
X-0.4457Y-3.0395
X-0.4425Y-3.0585
X-0.4370Y-3.0825
X-0.4300Y-3.1074
X-0.4174Y-3.1415
X-0.4070Y-3.1631
X-0.2243Y-3.4910
X-0.2023Y-3.5283
X-0.1861Y-3.5528
X-0.1697Y-3.5743
X-0.1523Y-3.5937
X-0.1365Y-3.6078
X-0.1513Y-3.6267
X-0.1745Y-3.6606
X-0.2526Y-3.7827
X-0.2828Y-3.8255
X-0.3022Y-3.8515
X-0.3069Y-3.8635
X-0.3081Y-3.8747
X-0.3062Y-3.8863
X-0.3011Y-3.8974
X-0.3243Y-3.8957
X-0.3330Y-3.8972
X-0.3409Y-3.9003
Z0.5000
G0X-0.4278Y-4.6203
G1Z-0.0800F12.0
X-0.4238Y-4.6264F35.0
X-0.4191Y-4.6314
X-0.4131Y-4.6360
X-0.4076Y-4.6390
X-0.4015Y-4.6413
X-0.3935Y-4.6428
X-0.3857Y-4.6429
X-0.3790Y-4.6418
X-0.3691Y-4.6382
X-0.3506Y-4.6269
X-0.3344Y-4.6130
X-0.3266Y-4.6046
X-0.3183Y-4.5942
X-0.3104Y-4.5820
X-0.3028Y-4.5672
X-0.2981Y-4.5552
X-0.2942Y-4.5420
X-0.2911Y-4.5258
X-0.2898Y-4.5098
X-0.2909Y-4.4865
X-0.2940Y-4.4698
X-0.2995Y-4.4521
X-0.3094Y-4.4303
X-0.3178Y-4.4161
X-0.3299Y-4.3993
X-0.3398Y-4.3875
X-0.3513Y-4.3756
X-0.3633Y-4.3650
X-0.3755Y-4.3556
X-0.4000Y-4.3403
X-0.4158Y-4.3326
X-0.4316Y-4.3264
X-0.4481Y-4.3214
X-0.4648Y-4.3177
X-0.4813Y-4.3152
X-0.4993Y-4.3139
X-0.5265Y-4.3144
X-0.5392Y-4.3174
X-0.5468Y-4.3212
X-0.5533Y-4.3263
X-0.5587Y-4.3323
X-0.5632Y-4.3400
X-0.5662Y-4.3487
X-0.5672Y-4.3563
X-0.5667Y-4.3656
X-0.5646Y-4.3739
X-0.5619Y-4.3798
X-0.4278Y-4.6203
Z0.5000
G0X-0.7365Y-5.1787
G1Z-0.0800F12.0
X-0.7048Y-5.2080F35.0
X-0.6738Y-5.2328
X-0.6392Y-5.2567
X-0.6048Y-5.2773
X-0.5695Y-5.2953
X-0.5322Y-5.3114
X-0.4929Y-5.3254
X-0.4534Y-5.3365
X-0.4150Y-5.3449
X-0.3756Y-5.3510
X-0.3331Y-5.3548
X-0.2912Y-5.3560
X-0.2841Y-5.3552
X-0.2780Y-5.3536
X-0.2715Y-5.3507
X-0.2661Y-5.3473
X-0.2612Y-5.3431
X-0.2561Y-5.3371
X-0.2527Y-5.3312
X-0.2501Y-5.3246
X-0.2484Y-5.3161
Y-5.3075
X-0.2501Y-5.2990
X-0.2537Y-5.2906
X-0.7178Y-4.4574
X-0.7248Y-4.4484
X-0.7340Y-4.4414
X-0.7460Y-4.4367
X-0.7572Y-4.4356
X-0.7646Y-4.4364
X-0.7713Y-4.4383
X-0.7829Y-4.4446
X-0.7887Y-4.4500
X-0.8121Y-4.4766
X-0.8237Y-4.4915
X-0.8446Y-4.5220
X-0.8624Y-4.5529
X-0.8776Y-4.5846
X-0.8917Y-4.6218
X-0.9019Y-4.6572
X-0.9092Y-4.6932
X-0.9138Y-4.7326
X-0.9151Y-4.7730
X-0.9131Y-4.8126
X-0.9080Y-4.8521
X-0.8992Y-4.8936
X-0.8861Y-4.9378
X-0.8697Y-4.9806
X-0.8556Y-5.0116
X-0.8388Y-5.0435
X-0.8161Y-5.0813
X-0.7908Y-5.1169
X-0.7646Y-5.1489
X-0.7365Y-5.1787
Z0.5000
G0X-0.8437Y-5.4202
G1Z-0.0800F12.0
X-0.8457Y-5.4035F35.0
X-0.8455Y-5.3857
X-0.8422Y-5.3660
X-0.8372Y-5.3514
X-0.8341Y-5.3445
X-0.8253Y-5.3305
X-0.8108Y-5.3147
X-0.8039Y-5.3090
X-0.7965Y-5.3038
X-0.7820Y-5.2956
X-0.7612Y-5.2870
X-0.7356Y-5.2797
X-0.7295Y-5.2769
X-0.7237Y-5.2730
X-0.7155Y-5.2644
X-0.7102Y-5.2548
X-0.7074Y-5.2446
X-0.7073Y-5.2330
X-0.7107Y-5.2206
X-0.7176Y-5.2096
X-0.7502Y-5.1789
X-0.7661Y-5.1628
X-0.7934Y-5.1322
X-0.8115Y-5.1093
X-0.8302Y-5.0833
X-0.8482Y-5.0550
X-0.8667Y-5.0217
X-0.8756Y-5.0035
X-0.8922Y-4.9648
X-0.8992Y-4.9460
X-0.9122Y-4.9045
X-0.9199Y-4.8733
X-0.9260Y-4.8421
X-0.9303Y-4.8110
X-0.9330Y-4.7786
X-0.9338Y-4.7456
X-0.9328Y-4.7140
X-0.9283Y-4.6715
X-0.9249Y-4.6511
X-0.9176Y-4.6188
X-0.9119Y-4.5987
X-0.9053Y-4.5794
X-0.8971Y-4.5586
X-0.8832Y-4.5286
X-0.8731Y-4.5099
X-0.8618Y-4.4914
X-0.8487Y-4.4722
X-0.8356Y-4.4550
X-0.8206Y-4.4372
X-0.8041Y-4.4196
X-0.7846Y-4.4008
X-0.7792Y-4.3937
X-0.7756Y-4.3863
X-0.7735Y-4.3789
X-0.7727Y-4.3717
X-0.7731Y-4.3643
X-0.7752Y-4.3557
X-0.7781Y-4.3493
X-1.1572Y-3.6691
X-1.1637Y-3.6615
X-1.1701Y-3.6564
X-1.1783Y-3.6522
X-1.1875Y-3.6498
X-1.1963Y-3.6494
X-1.2043Y-3.6505
X-1.2104Y-3.6524
X-1.2246Y-3.6590
X-1.2122Y-3.6447
X-1.2035Y-3.6330
X-1.1888Y-3.6088
X-1.1828Y-3.5970
X-1.1730Y-3.5739
X-1.1613Y-3.5374
X-1.1550Y-3.5111
X-1.1501Y-3.4855
X-1.1429Y-3.4371
X-1.1337Y-3.3657
X-1.1260Y-3.3211
X-1.1237Y-3.3322
X-1.1148Y-3.3646
X-1.1032Y-3.3980
X-1.0890Y-3.4312
X-1.0733Y-3.4619
X-0.9072Y-3.7600
X-0.9010Y-3.7685
X-0.8928Y-3.7754
X-0.8873Y-3.7784
X-0.8804Y-3.7809
X-0.8675Y-3.7825
X-0.8544Y-3.7802
X-0.8427Y-3.7741
X-0.8355Y-3.7676
X-0.8298Y-3.7594
X-0.8183Y-3.7284
X-0.8110Y-3.7133
X-0.8030Y-3.7003
X-0.7931Y-3.6873
X-0.7820Y-3.6754
X-0.7692Y-3.6644
X-0.7544Y-3.6540
X-0.7316Y-3.6419
X-0.7161Y-3.6358
X-0.7010Y-3.6314
X-0.6849Y-3.6282
X-0.6630Y-3.6265
X-0.6413Y-3.6278
X-0.6269Y-3.6304
X-0.6130Y-3.6344
X-0.5942Y-3.6424
X-0.5824Y-3.6493
X-0.5712Y-3.6575
X-0.5607Y-3.6670
X-0.5471Y-3.6835
X-0.5338Y-3.7057
X-0.5276Y-3.7218
X-0.5244Y-3.7400
X-0.5242Y-3.7587
X-0.5259Y-3.7740
X-0.5291Y-3.7891
X-0.5441Y-3.7811
X-0.5630Y-3.7741
X-0.5776Y-3.7706
X-0.5896Y-3.7691
X-0.6030Y-3.7689
X-0.6151Y-3.7699
X-0.6295Y-3.7728
X-0.6426Y-3.7773
X-0.6549Y-3.7832
X-0.6661Y-3.7902
X-0.6815Y-3.8028
X-0.6865Y-3.8075
X-0.7000Y-3.8236
X-0.7104Y-3.8409
X-0.7181Y-3.8601
X-0.7213Y-3.8717
X-0.7236Y-3.8875
X-0.7239Y-3.9062
X-0.7217Y-3.9241
X-0.7149Y-3.9478
X-0.7043Y-3.9699
X-0.6950Y-3.9843
X-0.6835Y-3.9984
X-0.6758Y-4.0061
X-0.6623Y-4.0174
X-0.6476Y-4.0269
X-0.6380Y-4.0315
X-0.6833Y-4.0218
X-0.6960Y-4.0228
X-0.7071Y-4.0270
X-0.7135Y-4.0311
X-0.7191Y-4.0365
X-0.7235Y-4.0423
X-0.7272Y-4.0495
X-0.7296Y-4.0575
X-0.7304Y-4.0648
X-0.7300Y-4.0719
X-0.7282Y-4.0795
X-0.7250Y-4.0870
X-0.6257Y-4.2651
X-0.6188Y-4.2741
X-0.6104Y-4.2807
X-0.6037Y-4.2840
X-0.5974Y-4.2859
X-0.5909Y-4.2869
X-0.5841
X-0.5442Y-4.2782
X-0.5122Y-4.2731
X-0.4803Y-4.2703
X-0.4488Y-4.2699
X-0.4180Y-4.2716
X-0.3885Y-4.2755
X-0.3588Y-4.2818
X-0.3307Y-4.2901
X-0.3041Y-4.3004
X-0.2784Y-4.3130
X-0.2541Y-4.3276
X-0.2317Y-4.3439
X-0.2107Y-4.3626
X-0.1914Y-4.3832
X-0.1740Y-4.4059
X-0.1663Y-4.4177
X-0.1526Y-4.4420
X-0.1416Y-4.4656
X-0.1322Y-4.4905
X-0.1219Y-4.5276
X-0.1176Y-4.5529
X-0.1153Y-4.5781
X-0.1150Y-4.5899
X-0.1159Y-4.6142
X-0.1191Y-4.6377
X-0.1246Y-4.6606
X-0.1281Y-4.6712
X-0.1346Y-4.6872
X-0.1447Y-4.7065
X-0.1545Y-4.7211
X-0.1691Y-4.7384
X-0.1776Y-4.7469
X-0.1967Y-4.7626
X-0.2187Y-4.7765
X-0.2431Y-4.7883
X-0.2735Y-4.7986
X-0.2791Y-4.8017
X-0.2847Y-4.8059
X-0.2921Y-4.8143
X-0.2972Y-4.8246
X-0.2995Y-4.8356
X-0.2989Y-4.8469
X-0.2970Y-4.8539
X-0.2942Y-4.8602
X-0.0620Y-5.2766
X-0.0575Y-5.2822
X-0.0517Y-5.2873
X-0.0448Y-5.2915
X-0.0375Y-5.2943
X-0.0297Y-5.2957
X-0.0220Y-5.2958
X-0.0150Y-5.2947
X-0.0064Y-5.2917
X-0.0555Y-5.3135
X-0.0858Y-5.3250
X-0.1309Y-5.3393
X-0.1591Y-5.3465
X-0.1993Y-5.3545
X-0.2263Y-5.3584
X-0.2642Y-5.3620
X-0.2890Y-5.3631
X-0.3257Y-5.3633
X-0.3476Y-5.3626
X-0.3946Y-5.3594
X-0.4828Y-5.3508
X-0.5262Y-5.3473
X-0.5687Y-5.3459
X-0.6042Y-5.3472
X-0.6253Y-5.3493
X-0.6479Y-5.3528
X-0.6712Y-5.3581
X-0.7033Y-5.3683
X-0.7266Y-5.3781
X-0.7572Y-5.3944
X-0.7885Y-5.4156
X-0.8137Y-5.4369
X-0.8321Y-5.4564
X-0.8396Y-5.4376
X-0.8437Y-5.4202
Z0.5000
G0X0.1280Y-5.2108
G1Z-0.0800F12.0
X0.1558Y-5.1881F35.0
X0.1874Y-5.1590
X0.2156Y-5.1294
X0.2419Y-5.0978
X0.2657Y-5.0653
X0.2872Y-5.0316
X0.3063Y-4.9965
X0.3176Y-4.9728
X0.3329Y-4.9347
X0.3445Y-4.8985
X0.3543Y-4.8573
X0.3587Y-4.8319
X0.3616Y-4.8065
X0.3633Y-4.7793
X0.3635Y-4.7514
X0.3622Y-4.7259
X0.3592Y-4.6968
X0.3549Y-4.6710
X0.3455Y-4.6316
X0.3365Y-4.6031
X0.3256Y-4.5748
X0.3076Y-4.5365
X0.2869Y-4.5008
X0.2702Y-4.4773
X0.2533Y-4.4565
X0.2343Y-4.4361
X0.2131Y-4.4163
X0.1919Y-4.3989
X0.1795Y-4.3900
X0.1554Y-4.3745
X0.1324Y-4.3623
X0.1057Y-4.3510
X0.0913Y-4.3462
X0.0661Y-4.3400
X0.0372Y-4.3363
X0.0124Y-4.3362
X-0.0130Y-4.3391
X-0.0236Y-4.3416
X-0.0227Y-4.3285
X-0.0187Y-4.3141
X-0.0119Y-4.3002
X-0.0057Y-4.2916
X0.0043Y-4.2992
X0.0185Y-4.3069
X0.0377Y-4.3138
X0.0580Y-4.3172
X0.0785Y-4.3169
X0.0855Y-4.3160
X0.1054Y-4.3113
X0.1259Y-4.3022
X0.1465Y-4.2880
X0.1628Y-4.2708
X0.1748Y-4.2511
X0.1827Y-4.2277
X0.1852Y-4.2078
X0.1834Y-4.1832
X0.1788Y-4.1652
X0.1711Y-4.1477
X0.1681Y-4.1421
X0.1581Y-4.1277
X0.1537Y-4.1226
X0.1398Y-4.1096
X0.1223Y-4.0985
X0.1173Y-4.0961
X0.1008Y-4.0900
X0.0823Y-4.0865
X0.0762Y-4.0859
X0.0571Y-4.0865
X-0.0525Y-3.8904
X-0.0600Y-3.8822
X-0.0697Y-3.8760
X-0.0807Y-3.8725
X-0.0918Y-3.8720
X-0.0548Y-3.8559
X-0.0293Y-3.8431
X-0.0044Y-3.8290
X0.0173Y-3.8154
X0.0387Y-3.8004
X0.0589Y-3.7846
X0.0803Y-3.7655
X0.5621Y-4.6302
X0.5674Y-4.6376
X0.5739Y-4.6435
X0.5819Y-4.6483
X0.5900Y-4.6511
X0.5695Y-4.6717
X0.5506Y-4.6923
X0.5328Y-4.7131
X0.5064Y-4.7465
X0.4730Y-4.7921
X0.3741Y-4.9378
X0.3399Y-4.9863
X0.3224Y-5.0102
X0.2844Y-5.0587
X0.2437Y-5.1056
X0.2234Y-5.1270
X0.2006Y-5.1494
X0.1652Y-5.1813
X0.1280Y-5.2108
Z0.5000
G0X-1.3989Y-4.3000
G1Z-0.0800F12.0
X-1.4106Y-4.2820F35.0
X-1.4277Y-4.2500
X-1.4422Y-4.2153
X-1.4505Y-4.1900
X-1.4570Y-4.1653
X-1.4626Y-4.1387
X-1.4668Y-4.1131
X-1.4701Y-4.0861
X-1.4722Y-4.0597
X-1.4736Y-4.0319
X-1.4741Y-3.9900
X-1.4736Y-3.9620
X-1.4709Y-3.9048
X-1.4572Y-3.7359
X-1.4525Y-3.6562
X-1.4522Y-3.6052
X-1.4533Y-3.5800
X-1.4570Y-3.5439
X-1.4610Y-3.5207
X-1.4695Y-3.4879
X-1.4775Y-3.4665
X-1.4822Y-3.4561
X-1.4919Y-3.4385
X-1.5032Y-3.4220
X-1.5197Y-3.4032
X-1.5268Y-3.3963
X-1.5144Y-3.4015
X-1.5045Y-3.4072
X-1.4947Y-3.4141
X-1.4850Y-3.4224
X-1.4758Y-3.4320
X-1.4619Y-3.4486
X-1.4530Y-3.4552
X-1.4446Y-3.4588
X-1.4357Y-3.4606
X-1.4268Y-3.4605
X-1.4180Y-3.4587
X-1.4073Y-3.4536
X-1.3993Y-3.4469
X-1.3670Y-3.4044
X-1.3388Y-3.3717
X-1.3228Y-3.3545
X-1.2859Y-3.3175
X-1.3027Y-3.3381
X-1.3305Y-3.3764
X-1.3470Y-3.4020
X-1.3703Y-3.4425
X-1.3845Y-3.4708
X-1.4026Y-3.5119
X-1.4136Y-3.5407
X-1.4272Y-3.5829
X-1.4353Y-3.6128
X-1.4445Y-3.6558
X-1.4494Y-3.6855
X-1.4543Y-3.7297
X-1.4564Y-3.7723
X-1.4563Y-3.8018
X-1.4549Y-3.8309
X-1.4525Y-3.8579
X-1.4486Y-3.8874
X-1.4407Y-3.9284
X-1.4335Y-3.9565
X-1.4254Y-3.9828
X-1.4106Y-4.0218
X-1.3995Y-4.0460
X-1.3873Y-4.0695
X-1.3750Y-4.0901
X-1.3612Y-4.1101
X-1.3478Y-4.1271
X-1.3330Y-4.1435
X-1.3086Y-4.1661
X-1.2887Y-4.1810
X-1.2680Y-4.1936
X-1.2498Y-4.2025
X-1.2377Y-4.2074
X-1.2142Y-4.2145
X-1.1933Y-4.2185
X-1.1720Y-4.2202
X-1.1548Y-4.2201
X-1.1339Y-4.2180
X-1.1232Y-4.2159
Y-4.2303
X-1.1244Y-4.2426
X-1.1287Y-4.2626
X-1.1328Y-4.2749
X-1.1383Y-4.2876
X-1.1446Y-4.2992
X-1.1530Y-4.3119
X-1.1665Y-4.3280
X-1.1774Y-4.3385
X-1.1898Y-4.3484
X-1.2034Y-4.3576
X-1.2176Y-4.3655
X-1.2305Y-4.3710
X-1.2441Y-4.3752
X-1.2568Y-4.3776
X-1.2699Y-4.3785
X-1.2827Y-4.3781
X-1.2959Y-4.3760
X-1.3087Y-4.3726
X-1.3221Y-4.3674
X-1.3349Y-4.3608
X-1.3483Y-4.3522
X-1.3613Y-4.3420
X-1.3739Y-4.3302
X-1.3865Y-4.3161
X-1.3989Y-4.3000
Z0.5000
G0X-1.1454Y-3.2045
G1Z-0.0800F12.0
X-1.1314Y-3.1952F35.0
X-1.1336Y-3.2075
X-1.1454Y-3.2045
Z0.5000
G0X4.5528Y-2.9857
Z-0.0400
G1Z-0.1600F12.0
X4.5713Y-2.9665F35.0
X4.5860Y-2.9475
X4.5931Y-2.9369
X4.6063Y-2.9130
X4.6115Y-2.9012
X4.6197Y-2.8791
X4.6231Y-2.8674
X4.6281Y-2.8447
X4.6301Y-2.8311
X4.6320Y-2.8087
X4.6322Y-2.7954
X4.6312Y-2.7735
X4.6298Y-2.7606
X4.6259Y-2.7387
X4.6176Y-2.7090
X4.6057Y-2.6802
X4.5913Y-2.6539
X4.5755Y-2.6313
X4.5635Y-2.6170
X4.5496Y-2.6028
X4.5301Y-2.5864
X4.5114Y-2.5737
X4.4959Y-2.5652
X4.4796Y-2.5581
X4.4622Y-2.5524
X4.4518Y-2.5501
X4.4576Y-2.5359
X4.4653Y-2.5240
X4.4770Y-2.5109
X4.4925Y-2.4988
X4.5102Y-2.4895
X4.5209Y-2.4856
X4.5398Y-2.4813
X4.5586Y-2.4807
X4.5755Y-2.4837
X4.5959Y-2.4923
X4.6119Y-2.5035
X4.6278Y-2.5190
X4.6385Y-2.5322
X4.6527Y-2.5542
X4.6661Y-2.5805
X4.6781Y-2.6108
X4.6881Y-2.6438
X4.6934Y-2.6675
X4.6981Y-2.7051
X4.6988Y-2.7329
X4.6974Y-2.7595
X4.6958Y-2.7731
X4.6909Y-2.8004
X4.6834Y-2.8276
X4.6707Y-2.8626
X4.6696Y-2.8711
X4.6702Y-2.8799
X4.6724Y-2.8880
X4.6765Y-2.8961
X4.6818Y-2.9028
X4.6877Y-2.9081
X4.6993Y-2.9141
X4.7198Y-2.9189
X4.7339Y-2.9248
X4.5896Y-2.9628
X4.5807Y-2.9670
X4.5634Y-2.9793
X4.5528Y-2.9857
Z0.5000
G0X4.8699Y-2.7878
Z-0.0400
G1Z-0.1600F12.0
X4.8561Y-2.7725F35.0
X4.8435Y-2.7560
X4.8325Y-2.7383
X4.8226Y-2.7189
X4.8141Y-2.6980
X4.8070Y-2.6751
X4.8031Y-2.6593
X4.7976Y-2.6257
X4.7961Y-2.6103
X4.7955Y-2.5784
X4.7977Y-2.5491
X4.7999Y-2.5343
X4.8063Y-2.5046
X4.8102Y-2.4913
X4.8202Y-2.4633
X4.8330Y-2.4346
X4.8547Y-2.3959
X4.8804Y-2.3580
X4.9010Y-2.3316
X4.9213Y-2.3078
X4.9548Y-2.2720
X4.9777Y-2.2493
X5.0260Y-2.2043
X5.1204Y-2.1216
X5.1628Y-2.0832
X5.1921Y-2.0545
X5.2096Y-2.0356
X5.0500Y-2.2937
X5.0288Y-2.3355
X5.0111Y-2.3768
X4.9969Y-2.4174
X4.9880Y-2.4500
X4.9811Y-2.4848
X4.9769Y-2.5185
X4.9751Y-2.5544
X4.9764Y-2.5930
X4.9807Y-2.6295
X4.9855Y-2.6558
X4.9919Y-2.6814
X4.9964Y-2.6958
X5.0055Y-2.7199
X5.0107Y-2.7316
X5.0209Y-2.7509
X5.0283Y-2.7629
X5.0426Y-2.7825
X5.0503Y-2.7914
X5.0638Y-2.8051
X5.0751Y-2.8149
X5.0920Y-2.8270
X5.1039Y-2.8341
X5.1203Y-2.8422
X5.1324Y-2.8469
X5.1542Y-2.8533
X5.1800Y-2.8575
X5.1441Y-2.8628
X5.1068Y-2.8657
X5.0895Y-2.8661
X5.0552Y-2.8649
X5.0226Y-2.8611
X4.9998Y-2.8567
X4.9773Y-2.8506
X4.9566Y-2.8435
X4.9368Y-2.8349
X4.9183Y-2.8250
X4.9009Y-2.8138
X4.8844Y-2.8012
X4.8699Y-2.7878
Z0.5000
G0X5.1856Y-2.5005
Z-0.0400
G1Z-0.1600F12.0
X5.1836Y-2.4858F35.0
X5.1837Y-2.4730
X5.1867Y-2.4544
X5.1912Y-2.4414
X5.1973Y-2.4293
X5.2096Y-2.4126
X5.2215Y-2.4015
X5.2310Y-2.3946
X5.2428Y-2.3878
X5.2562Y-2.3819
X5.2710Y-2.3770
X5.2862Y-2.3735
X5.2974Y-2.3722
X5.3197Y-2.3712
X5.3277Y-2.3692
X5.3348Y-2.3660
X5.3445Y-2.3587
X5.3517Y-2.3491
X5.3562Y-2.3377
X5.3574Y-2.3253
X5.3565Y-2.3185
X5.2967Y-2.0393
X5.2947Y-2.0328
X5.2902Y-2.0241
X5.2832Y-2.0160
X5.2754Y-2.0104
X5.2658Y-2.0063
X5.2563Y-2.0046
X5.2457Y-2.0052
X5.2369Y-2.0078
X5.2280Y-2.0126
X5.2342Y-2.0046
X5.2455Y-1.9870
X5.2529Y-1.9730
X5.2615Y-1.9510
X5.2646Y-1.9393
X5.2670Y-1.9213
X5.2668Y-1.9040
X5.2649Y-1.8913
X5.2437Y-1.7924
X5.2380Y-1.7739
X5.2357Y-1.7683
X5.2256Y-1.7498
X5.2186Y-1.7400
X5.2036Y-1.7230
X5.1887Y-1.7093
X5.1785Y-1.7015
X5.1601Y-1.6891
X5.1360Y-1.6761
X5.2797Y-1.7021
X5.3297Y-1.7090
X5.3615Y-1.7115
X5.3849Y-1.7118
X5.3883Y-1.7517
X5.3951Y-1.7995
X5.4072Y-1.8666
X5.4313Y-1.9784
X5.4426Y-2.0208
X5.4494Y-2.0419
X5.4617Y-2.0742
X5.4699Y-2.0923
X5.4832Y-2.1168
X5.4918Y-2.1301
X5.5072Y-2.1503
X5.5169Y-2.1608
X5.5128Y-2.1727
X5.5069Y-2.1960
X5.5040Y-2.2131
X5.5017Y-2.2402
X5.5015Y-2.2572
X5.5037Y-2.2958
X5.5090Y-2.3369
X5.5133Y-2.3611
X5.5755Y-2.6528
X5.5815Y-2.6734
X5.5917Y-2.6954
X5.6036Y-2.7129
X5.6164Y-2.7267
X5.6289Y-2.7364
X5.6097Y-2.7486
X5.6037Y-2.7515
X5.5863Y-2.7576
X5.5679Y-2.7617
X5.5512Y-2.7637
X5.5337Y-2.7639
X5.5117Y-2.7610
X5.4978Y-2.7572
X5.4852Y-2.7519
X5.4738Y-2.7451
X5.4546Y-2.7307
X5.4423Y-2.7262
X5.4323Y-2.7254
X5.4215Y-2.7270
X5.4125Y-2.7307
X5.4035Y-2.7371
X5.4134Y-2.7064
X5.4178Y-2.6784
X5.4187Y-2.6513
X5.4176Y-2.6341
X5.4152Y-2.6169
X5.4091Y-2.5910
X5.4041Y-2.5766
X5.3978Y-2.5622
X5.3857Y-2.5414
X5.3774Y-2.5304
X5.3678Y-2.5198
X5.3487Y-2.5036
X5.3362Y-2.4957
X5.3242Y-2.4897
X5.3067Y-2.4833
X5.2932Y-2.4801
X5.2798Y-2.4783
X5.2607Y-2.4777
X5.2474Y-2.4787
X5.2307Y-2.4815
X5.2178Y-2.4850
X5.2022Y-2.4913
X5.1856Y-2.5005
Z0.5000
G0X5.8152Y-2.5246
Z-0.0400
G1Z-0.1600F12.0
X5.8207Y-2.5053F35.0
X5.8253Y-2.4786
X5.8269Y-2.4616
X5.8278Y-2.4296
X5.8264Y-2.3961
X5.8229Y-2.3604
X5.8175Y-2.3225
X5.8004Y-2.2179
X5.7981Y-2.2097
X5.7937Y-2.2010
X5.7877Y-2.1936
X5.7808Y-2.1881
X5.7731Y-2.1841
X5.7653Y-2.1818
X5.7579Y-2.1810
X5.7281Y-2.1841
X5.7216Y-2.1839
X5.7115Y-2.1822
X5.7008Y-2.1773
X5.6945Y-2.1717
X5.6902Y-2.1659
X5.7020Y-2.1589
X5.7215Y-2.1428
X5.7328Y-2.1298
X5.7410Y-2.1179
X5.7477Y-2.1057
X5.7550Y-2.0881
X5.7596Y-2.0724
X5.7624Y-2.0589
X5.7642Y-2.0439
X5.7651Y-2.0257
X5.7633Y-1.9945
X5.7101Y-1.6677
X5.7041Y-1.6377
X5.6952Y-1.6062
X5.6843Y-1.5790
X5.6762Y-1.5631
X5.6650Y-1.5453
X5.8586Y-1.5135
X5.8534Y-1.5342
X5.8511Y-1.5489
X5.8493Y-1.5801
X5.8507Y-1.6120
X5.8546Y-1.6436
X6.0000Y-2.5283
X6.0054Y-2.5488
X6.0126Y-2.5685
X6.0252Y-2.5933
X6.0369Y-2.6105
X6.0536Y-2.6294
X6.0688Y-2.6429
X6.0899Y-2.6571
X6.1121Y-2.6678
X6.0761Y-2.6618
X6.0479Y-2.6539
X6.0211Y-2.6442
X5.9957Y-2.6328
X5.9702Y-2.6197
X5.9452Y-2.6054
X5.8483Y-2.5439
X5.8152Y-2.5246
Z0.5000
G0X6.3158Y-2.6216
Z-0.0400
G1Z-0.1600F12.0
X6.3332Y-2.6018F35.0
X6.3456Y-2.5831
X6.3578Y-2.5569
X6.3630Y-2.5398
X6.3671Y-2.5174
X6.3679Y-2.5069
X6.3680Y-2.4892
X6.3646Y-2.4615
X6.3606Y-2.4456
X6.3560Y-2.4325
X6.3506Y-2.4204
X6.3423Y-2.4056
X6.3303Y-2.3891
X6.3153Y-2.3734
X6.2973Y-2.3595
X6.2830Y-2.3512
X6.2665Y-2.3442
X6.2480Y-2.3389
X6.2411Y-2.3376
X6.2437Y-2.3324
X6.2492Y-2.3254
X6.2573Y-2.3190
X6.2680Y-2.3135
X6.2851Y-2.3080
X6.3154Y-2.3020
X6.3224Y-2.2991
X6.3293Y-2.2947
X6.3375Y-2.2863
X6.3426Y-2.2774
X6.3457Y-2.2667
X6.3460Y-2.2552
X6.2354Y-1.5807
X6.2294Y-1.5512
X6.2198Y-1.5188
X6.2141Y-1.5039
X6.2052Y-1.4848
X6.1970Y-1.4706
X6.1894Y-1.4593
X6.3840Y-1.4274
X6.3786Y-1.4495
X6.3751Y-1.4798
X6.3750Y-1.5100
X6.3778Y-1.5409
X6.4223Y-1.8128
X6.4270Y-1.8363
X6.4372Y-1.8782
X6.4478Y-1.9118
X6.4537Y-1.9270
X6.4663Y-1.9539
X6.4733Y-1.9660
X6.4874Y-1.9869
X6.4965Y-1.9976
X6.4914Y-2.0108
X6.4848Y-2.0348
X6.4800Y-2.0643
X6.4780Y-2.0956
Y-2.1140
X6.4802Y-2.1528
X6.4826Y-2.1753
X6.4894Y-2.2235
X6.5333Y-2.4911
X6.5387Y-2.5137
X6.5449Y-2.5303
X6.5534Y-2.5464
X6.5671Y-2.5650
X6.5757Y-2.5736
X6.5815Y-2.5783
X6.5620Y-2.5889
X6.5372Y-2.5967
X6.5186Y-2.5999
X6.4959Y-2.6013
X6.4748Y-2.5996
X6.4620Y-2.5970
X6.4504Y-2.5932
X6.4395Y-2.5882
X6.4219Y-2.5767
X6.4143Y-2.5728
X6.4032Y-2.5701
X6.3910Y-2.5704
X6.3821Y-2.5728
X6.3737Y-2.5771
X6.3427Y-2.6033
X6.3158Y-2.6216
Z0.5000
G0X4.7540Y-2.0186
Z-0.0400
G1Z-0.1600F12.0
X4.7376Y-1.9996F35.0
X4.7229Y-1.9768
X4.7144Y-1.9596
X4.7073Y-1.9413
X4.7016Y-1.9222
X4.6957Y-1.8896
X4.6945Y-1.8687
X4.6957Y-1.8484
X4.6991Y-1.8294
X4.7045Y-1.8110
X4.7120Y-1.7935
X4.7216Y-1.7766
X4.7389Y-1.7536
X4.7546Y-1.7377
X4.7711Y-1.7241
X4.7801Y-1.7176
X4.7998Y-1.7054
X4.8298Y-1.6905
X4.8222Y-1.6965
X4.8082Y-1.7096
X4.7962Y-1.7233
X4.7861Y-1.7375
X4.7771Y-1.7535
X4.7705Y-1.7689
X4.7643Y-1.7897
X4.7615Y-1.8057
X4.7604Y-1.8237
X4.7612Y-1.8428
X4.7639Y-1.8606
X4.7710Y-1.8852
X4.7770Y-1.8988
X4.7872Y-1.9160
X4.7981Y-1.9296
X4.8087Y-1.9397
X4.8207Y-1.9487
X4.8370Y-1.9577
X4.8567Y-1.9648
X4.8634Y-1.9663
X4.8836Y-1.9691
X4.9063Y-1.9684
X4.9303Y-1.9634
X4.9480Y-1.9570
X4.9720Y-1.9439
X4.9813Y-1.9371
X4.9967Y-1.9220
X5.0089Y-1.9046
X5.0149Y-1.8911
X5.0172Y-1.8981
X5.0202Y-1.9145
X5.0204Y-1.9331
X5.0185Y-1.9465
X5.0153Y-1.9591
X5.0110Y-1.9711
X5.0054Y-1.9831
X4.9941Y-2.0012
X4.9862Y-2.0113
X4.9717Y-2.0263
X4.9553Y-2.0392
X4.9451Y-2.0456
X4.9269Y-2.0542
X4.9164Y-2.0577
X4.8998Y-2.0612
X4.8789Y-2.0637
X4.8508Y-2.0634
X4.8331Y-2.0609
X4.8166Y-2.0567
X4.8011Y-2.0509
X4.7863Y-2.0435
X4.7723Y-2.0344
X4.7540Y-2.0186
Z0.5000
G0X4.3990Y-2.2459
Z-0.0400
G1Z-0.1600F12.0
X4.3998Y-2.2364F35.0
X4.3985Y-2.2270
X4.3367Y-1.9928
X4.3309Y-1.9756
X4.3237Y-1.9584
X4.3157Y-1.9426
X4.3052Y-1.9253
X4.2886Y-1.9030
X4.2713Y-1.8849
X4.2466Y-1.8653
X4.2304Y-1.8558
X4.2108Y-1.8474
X4.2252Y-1.8490
X4.2503Y-1.8539
X4.2743Y-1.8609
X4.2976Y-1.8698
X4.3202Y-1.8800
X4.3439Y-1.8922
X4.4362Y-1.9454
X4.4617Y-1.9588
X4.4857Y-1.9700
X4.4878Y-1.9858
X4.4942Y-2.0197
X4.5054Y-2.0667
X4.5293Y-2.1579
X4.4987Y-2.1737
X4.4734Y-2.1889
X4.4380Y-2.2135
X4.4153Y-2.2315
X4.3990Y-2.2459
Z0.5000
G0X4.0139Y-2.9343
Z-0.0400
G1Z-0.1600F12.0
X4.0158Y-2.9232F35.0
X4.0186Y-2.8969
X4.0194Y-2.8809
X4.0193Y-2.8506
X4.0184Y-2.8330
X4.0154Y-2.8028
X4.0126Y-2.7840
X4.0061Y-2.7509
X3.9975Y-2.7180
X3.9868Y-2.6850
X3.9680Y-2.6387
X3.9608Y-2.6235
X3.9467Y-2.5971
X3.9312Y-2.5723
X3.9086Y-2.5430
X3.9147Y-2.5182
X3.9181Y-2.4897
X3.9182Y-2.4602
X3.9154Y-2.4285
X3.9094Y-2.3911
X3.8995Y-2.3456
X3.8846Y-2.2911
X3.8749Y-2.2633
X3.8627Y-2.2341
X3.8494Y-2.2074
X3.8347Y-2.1824
X3.8174Y-2.1580
X3.8079Y-2.1469
X3.8331Y-2.1125
X3.8991Y-2.0158
X3.9255Y-1.9815
X3.9443Y-1.9598
X3.9648Y-1.9389
X3.9869Y-1.9194
X3.9974Y-1.9112
X4.0159Y-1.8986
X4.0023Y-1.9156
X3.9924Y-1.9324
X3.9842Y-1.9507
X3.9766Y-1.9765
X3.9724Y-2.0093
X3.9726Y-2.0373
X3.9767Y-2.0684
X3.9813Y-2.0892
X4.1164Y-2.6022
X4.1210Y-2.6113
X4.1275Y-2.6190
X4.1360Y-2.6253
X4.1448Y-2.6291
X4.1557Y-2.6311
X4.1665Y-2.6303
X4.1770Y-2.6268
X4.1859Y-2.6211
X4.1795Y-2.6541
X4.1743Y-2.6926
X4.1722Y-2.7189
X4.1714Y-2.7449
X4.1716Y-2.7685
X4.1730Y-2.7925
X4.1757Y-2.8168
X4.1800Y-2.8422
X4.1884Y-2.8760
X4.1930Y-2.8899
X4.2053Y-2.9202
X4.2168Y-2.9424
X4.2239Y-2.9540
X4.2406Y-2.9771
X4.2559Y-2.9943
X4.2653Y-3.0032
X4.2810Y-3.0161
X4.2905Y-3.0227
X4.3057Y-3.0318
X4.3175Y-3.0376
X4.3347Y-3.0444
X4.3533Y-3.0495
X4.3233Y-3.0513
X4.3069Y-3.0512
X4.2816Y-3.0496
X4.2676Y-3.0478
X4.2381Y-3.0421
X4.2106Y-3.0342
X4.1851Y-3.0247
X4.1602Y-3.0136
X4.1237Y-2.9944
X4.0407Y-2.9474
X4.0139Y-2.9343
Z0.5000
G0X3.4565Y-2.5439
Z-0.0400
G1Z-0.1600F12.0
X3.4485Y-2.5346F35.0
X3.4416Y-2.5247
X3.4317Y-2.5048
X3.4280Y-2.4928
X3.4255Y-2.4817
X3.4235Y-2.4613
X3.4249Y-2.4429
X3.4267Y-2.4344
X3.4320Y-2.4201
X3.4389Y-2.4088
X3.4459Y-2.4009
X3.4548Y-2.3942
X3.4591Y-2.3920
X3.4739Y-2.3875
X3.4839Y-2.3867
X3.4974Y-2.3888
X3.5047Y-2.3920
X3.5139Y-2.3993
X3.5189Y-2.4059
X3.5227Y-2.4140
X3.5246Y-2.4205
X3.5256Y-2.4289
X3.5250Y-2.4366
X3.5233Y-2.4438
X3.5202Y-2.4506
X3.5139Y-2.4594
X3.5071Y-2.4655
X3.4930Y-2.4745
X3.4851Y-2.4825
X3.4787Y-2.4939
X3.4760Y-2.5065
X3.4762Y-2.5141
X3.4780Y-2.5228
X3.4812Y-2.5304
X3.4856Y-2.5371
X3.4911Y-2.5428
X3.4976Y-2.5475
X3.5055Y-2.5512
X3.5133Y-2.5531
X3.5214Y-2.5537
X3.5348Y-2.5524
X3.5451Y-2.5503
X3.5710Y-2.5424
X3.5878Y-2.5350
X3.5962Y-2.5303
X3.6131Y-2.5187
X3.6279Y-2.5054
X3.6431Y-2.4874
X3.6522Y-2.4733
X3.6646Y-2.4478
X3.6717Y-2.4250
X3.6722Y-2.4478
X3.6710Y-2.4633
X3.6686Y-2.4780
X3.6648Y-2.4925
X3.6600Y-2.5059
X3.6539Y-2.5185
X3.6470Y-2.5296
X3.6384Y-2.5404
X3.6290Y-2.5497
X3.6185Y-2.5579
X3.6060Y-2.5653
X3.5925Y-2.5713
X3.5786Y-2.5757
X3.5587Y-2.5793
X3.5396Y-2.5800
X3.5278Y-2.5791
X3.5167Y-2.5770
X3.4990Y-2.5717
X3.4833Y-2.5643
X3.4682Y-2.5543
X3.4565Y-2.5439
Z0.5000
G0X3.2954Y-3.3336
Z-0.0400
G1Z-0.1600F12.0
X3.3000Y-3.3063F35.0
X3.3011Y-3.2902
Y-3.2742
X3.2998Y-3.2563
X3.2946Y-3.2236
X3.2902Y-3.2064
X3.2123Y-2.9554
X3.2042Y-2.9320
X3.1887Y-2.8929
X3.1738Y-2.8615
X3.1654Y-2.8462
X3.1493Y-2.8214
X3.1403Y-2.8096
X3.1234Y-2.7911
X3.1131Y-2.7819
X3.1165Y-2.7669
X3.1194Y-2.7432
X3.1202Y-2.7283
X3.1194Y-2.6985
X3.1177Y-2.6814
X3.1119Y-2.6447
X3.1028Y-2.6047
X3.0891Y-2.5569
X3.0052Y-2.2874
X2.9968Y-2.2689
X2.9849Y-2.2502
X2.9733Y-2.2365
X2.9656Y-2.2292
X2.9501Y-2.2180
X2.9594Y-2.2102
X2.9736Y-2.2017
X2.9909Y-2.1940
X3.0136Y-2.1871
X3.0339Y-2.1837
X3.0463Y-2.1829
X3.0578Y-2.1831
X3.0752Y-2.1854
X3.0903Y-2.1898
X3.1044Y-2.1965
X3.1131Y-2.2022
X3.1269Y-2.2149
X3.1367Y-2.2281
X3.1430Y-2.2399
X3.1564Y-2.2756
X3.1600Y-2.2811
X3.1657Y-2.2873
X3.1760Y-2.2941
X3.1865Y-2.2976
X3.1980Y-2.2983
X3.2091Y-2.2962
X3.2166Y-2.2929
X3.2229Y-2.2886
X3.2285Y-2.2832
X3.2338Y-2.2756
X3.2375Y-2.2669
X3.2458Y-2.2320
X3.2559Y-2.2002
X3.2685Y-2.1696
X3.2806Y-2.1466
X3.2942Y-2.1259
X3.3101Y-2.1065
X3.3217Y-2.0948
X3.3406Y-2.0799
X3.3467Y-2.0760
X3.3687Y-2.0645
X3.3861Y-2.0581
X3.4070Y-2.0526
X3.4319Y-2.0482
X3.4487Y-2.0469
X3.4689Y-2.0474
X3.4854Y-2.0498
X3.5048Y-2.0556
X3.5143Y-2.0600
X3.5269Y-2.0674
X3.5350Y-2.0704
X3.5475Y-2.0719
X3.5583Y-2.0702
X3.5544Y-2.0917
X3.5535Y-2.1048
X3.5539Y-2.1203
X3.5572Y-2.1429
X3.5610Y-2.1571
X3.5696Y-2.1813
X3.5541Y-2.1731
X3.5370Y-2.1661
X3.5146Y-2.1593
X3.5033Y-2.1570
X3.4850Y-2.1547
X3.4610Y-2.1541
X3.4493Y-2.1549
X3.4293Y-2.1578
X3.4052Y-2.1637
X3.3914Y-2.1685
X3.3690Y-2.1782
X3.3445Y-2.1919
X3.3226Y-2.2076
X3.3011Y-2.2267
X3.2839Y-2.2454
X3.2689Y-2.2651
X3.2614Y-2.2765
X3.2478Y-2.3011
X3.2367Y-2.3269
X3.2323Y-2.3396
X3.2253Y-2.3653
X3.2206Y-2.3922
X3.2183Y-2.4219
X3.2189Y-2.4515
X3.2222Y-2.4804
X3.2282Y-2.5092
X3.2330Y-2.5258
X3.2426Y-2.5537
X3.2577Y-2.5891
X3.2696Y-2.6122
X3.2888Y-2.6436
X3.3036Y-2.6640
X3.3254Y-2.6898
X3.3416Y-2.7063
X3.3654Y-2.7270
X3.3882Y-2.7435
X3.4133Y-2.7583
X3.4216Y-2.7622
X3.4125Y-2.7715
X3.4028Y-2.7781
X3.3974Y-2.7809
X3.3849Y-2.7854
X3.3594Y-2.7904
X3.3516Y-2.7941
X3.3448Y-2.7990
X3.3375Y-2.8073
X3.3326Y-2.8169
X3.3300Y-2.8282
X3.3305Y-2.8394
X3.4282Y-3.1564
X3.4361Y-3.1786
X3.4472Y-3.2031
X3.4639Y-3.2314
X3.4736Y-3.2446
X3.4841Y-3.2571
X3.4980Y-3.2709
X3.2954Y-3.3336
Z0.5000
G0X2.8726Y-3.4503
Z-0.0400
G1Z-0.1600F12.0
X2.8746Y-3.4433F35.0
X2.8792Y-3.4199
X2.8810Y-3.3906
X2.8791Y-3.3625
X2.8746Y-3.3378
X2.8674Y-3.3137
X2.6443Y-2.6942
X2.6388Y-2.6853
X2.6306Y-2.6773
X2.6222Y-2.6724
X2.6118Y-2.6692
X2.6030Y-2.6686
X2.5965Y-2.6693
X2.5707Y-2.6768
X2.5551Y-2.6791
X2.5391Y-2.6781
X2.5296Y-2.6749
X2.5235Y-2.6711
X2.5389Y-2.6573
X2.5482Y-2.6467
X2.5557Y-2.6363
X2.5646Y-2.6207
X2.5726Y-2.6006
X2.5775Y-2.5794
X2.5793Y-2.5583
X2.5786Y-2.5414
X2.5767Y-2.5274
X2.5734Y-2.5131
X2.5685Y-2.4978
X2.5555Y-2.4683
X2.5403Y-2.4437
X2.5240Y-2.4243
X2.5070Y-2.4088
X2.4873Y-2.3957
X2.4637Y-2.3850
X2.4752Y-2.3851
X2.4850Y-2.3829
X2.4948Y-2.3781
X2.5035Y-2.3705
X2.5099Y-2.3612
X2.5137Y-2.3505
X2.5146Y-2.3390
X2.5127Y-2.3280
X2.3580Y-1.8980
X2.3465Y-1.8688
