; Generated by Line to G-Code Converter
; File: grape_leaf2.png
; Tool diameter: 0.125 inch
; Cut depth: 0.04 inch
; Feed rate: 30.0 inch/min

G20
G90
G17
G0 Z0.2
; Spindle control disabled
G4 P2

; Path 1/1
G0 X9.6484 Y23.8452
G1 Z-0.0400 F10.0
G1 X9.3026 Y21.9097 F30.0
G1 X9.0605 Y21.1355 F30.0
G1 X8.9222 Y20.9419 F30.0
G1 X8.8876 Y20.2839 F30.0
G1 X8.6801 Y19.2774 F30.0
G1 X8.5418 Y18.8516 F30.0
G1 X8.2997 Y18.3871 F30.0
G1 X8.1614 Y18.2710 F30.0
G1 X7.9539 Y18.2710 F30.0
G1 X7.6427 Y18.5806 F30.0
G1 X7.5735 Y18.5806 F30.0
G1 X7.5735 Y18.2710 F30.0
G1 X7.5043 Y18.1161 F30.0
G1 X7.2968 Y17.8839 F30.0
G1 X7.0202 Y17.6903 F30.0
G1 X6.8473 Y17.6903 F30.0
G1 X5.8790 Y18.1548 F30.0
G1 X5.7752 Y18.1548 F30.0
G1 X5.7752 Y18.0387 F30.0
G1 X6.2939 Y16.6452 F30.0
G1 X6.3631 Y16.3355 F30.0
G1 X7.2968 Y13.7806 F30.0
G1 X7.4352 Y13.2387 F30.0
G1 X7.2622 Y13.2387 F30.0
G1 X6.8818 Y13.4323 F30.0
G1 X5.5677 Y14.8645 F30.0
G1 X5.5331 Y14.5161 F30.0
G1 X5.2911 Y14.1677 F30.0
G1 X4.6340 Y13.6645 F30.0
G1 X4.2190 Y13.5097 F30.0
G1 X3.3545 Y13.5484 F30.0
G1 X2.8357 Y13.7806 F30.0
G1 X2.5591 Y14.0903 F30.0
G1 X2.4553 Y14.3226 F30.0
G1 X2.4207 Y14.8645 F30.0
G1 X2.1787 Y14.8645 F30.0
G1 X1.9712 Y13.7419 F30.0
G1 X1.9712 Y12.9290 F30.0
G1 X2.5937 Y11.3806 F30.0
G1 X2.7666 Y10.8387 F30.0
G1 X2.7666 Y10.6452 F30.0
G1 X2.5591 Y10.2581 F30.0
G1 X2.0403 Y9.6387 F30.0
G1 X2.0403 Y9.5613 F30.0
G1 X2.5245 Y9.2903 F30.0
G1 X3.0086 Y8.9032 F30.0
G1 X3.8386 Y8.0129 F30.0
G1 X4.0807 Y7.5871 F30.0
G1 X4.1499 Y7.1226 F30.0
G1 X3.9769 Y7.0065 F30.0
G1 X3.8040 Y7.0839 F30.0
G1 X3.4928 Y7.3548 F30.0
G1 X3.4236 Y6.5032 F30.0
G1 X3.2853 Y6.1548 F30.0
G1 X3.1816 Y6.0387 F30.0
G1 X2.9741 Y6.0000 F30.0
G1 X2.2824 Y5.6129 F30.0
G1 X1.6254 Y5.1484 F30.0
G1 X1.5908 Y5.0710 F30.0
G1 X1.6945 Y4.9548 F30.0
G1 X3.1816 Y4.9548 F30.0
G1 X4.3573 Y4.8774 F30.0
G1 X5.2911 Y4.7226 F30.0
G1 X5.6023 Y4.6065 F30.0
G1 X5.8098 Y4.3355 F30.0
G1 X5.9481 Y4.0258 F30.0
G1 X5.9481 Y3.8710 F30.0
G1 X5.8444 Y3.7161 F30.0
G1 X5.8444 Y3.4839 F30.0
G1 X5.7752 Y3.3290 F30.0
G1 X5.3602 Y2.7484 F30.0
G1 X7.0548 Y2.7484 F30.0
G1 X7.9193 Y3.0968 F30.0
G1 X8.3689 Y3.0968 F30.0
G1 X8.8184 Y2.9032 F30.0
G1 X9.1297 Y2.6323 F30.0
G1 X9.5447 Y3.3677 F30.0
G1 X9.8559 Y3.6774 F30.0
G1 X10.1671 Y3.8710 F30.0
G1 X10.6167 Y3.9097 F30.0
G1 X10.7896 Y3.8323 F30.0
G1 X11.6888 Y3.8323 F30.0
G1 X11.9308 Y3.2516 F30.0
G1 X11.9654 Y2.6323 F30.0
G1 X11.7925 Y2.1677 F30.0
G1 X11.2046 Y1.3161 F30.0
G1 X13.1412 Y0.4645 F30.0
G1 X13.2104 Y0.4645 F30.0
G1 X13.3833 Y0.6581 F30.0
G1 X13.6599 Y1.1226 F30.0
G1 X13.8329 Y1.5871 F30.0
G1 X13.9712 Y2.2452 F30.0
G1 X14.0058 Y3.4452 F30.0
G1 X13.9020 Y4.1806 F30.0
G1 X13.7291 Y4.6839 F30.0
G1 X13.7983 Y4.7613 F30.0
G1 X14.1441 Y4.7613 F30.0
G1 X14.4553 Y4.6065 F30.0
G1 X15.3199 Y4.5677 F30.0
G1 X15.5965 Y4.4516 F30.0
G1 X15.8040 Y4.2194 F30.0
G1 X16.2190 Y3.2903 F30.0
G1 X16.3573 Y3.3290 F30.0
G1 X16.3919 Y3.6774 F30.0
G1 X16.6340 Y3.8323 F30.0
G1 X19.0548 Y3.8710 F30.0
G1 X19.9539 Y4.9161 F30.0
G1 X19.3660 Y4.9548 F30.0
G1 X18.9856 Y5.0710 F30.0
G1 X18.7435 Y5.2258 F30.0
G1 X18.5014 Y5.6516 F30.0
G1 X18.5706 Y5.9613 F30.0
G1 X18.7089 Y6.1161 F30.0
G1 X19.2277 Y6.1548 F30.0
G1 X19.9539 Y6.3484 F30.0
G1 X20.8530 Y6.7742 F30.0
G1 X21.2334 Y7.0452 F30.0
G1 X22.6513 Y8.5935 F30.0
G1 X22.6513 Y8.6710 F30.0
G1 X22.1326 Y8.7097 F30.0
G1 X21.7176 Y8.8645 F30.0
G1 X21.4063 Y9.0581 F30.0
G1 X20.9914 Y9.0581 F30.0
G1 X20.8530 Y9.3290 F30.0
G1 X21.2334 Y10.1419 F30.0
G1 X21.1988 Y10.2968 F30.0
G1 X20.2651 Y9.7935 F30.0
G1 X20.1268 Y9.8710 F30.0
G1 X20.1268 Y10.6839 F30.0
G1 X20.1960 Y11.0323 F30.0
G1 X20.4726 Y11.4581 F30.0
G1 X21.2334 Y13.1226 F30.0
G1 X20.8876 Y13.2000 F30.0
G1 X20.8184 Y13.2774 F30.0
G1 X20.6455 Y13.8968 F30.0
G1 X20.6801 Y14.2452 F30.0
G1 X20.8184 Y14.4774 F30.0
G1 X20.8184 Y14.9032 F30.0
G1 X20.6801 Y15.2903 F30.0
G1 X20.6455 Y16.0645 F30.0
G1 X20.8530 Y17.4194 F30.0
G1 X20.7493 Y17.4968 F30.0
G1 X19.4697 Y16.1032 F30.0
G1 X19.1239 Y15.9097 F30.0
G1 X18.8127 Y15.8323 F30.0
G1 X18.7781 Y16.2968 F30.0
G1 X18.7089 Y16.3742 F30.0
G1 X18.6052 Y16.3742 F30.0
G1 X18.4669 Y16.0645 F30.0
G1 X18.0865 Y15.7161 F30.0
G1 X17.7752 Y15.7161 F30.0
G1 X17.4640 Y15.9097 F30.0
G1 X17.2565 Y16.1419 F30.0
G1 X17.0836 Y16.5290 F30.0
G1 X17.0490 Y17.1097 F30.0
G1 X16.9107 Y17.1097 F30.0
G1 X16.1153 Y15.4065 F30.0
G1 X15.2853 Y14.5161 F30.0
G1 X15.2161 Y14.7097 F30.0
G1 X15.2161 Y15.3290 F30.0
G1 X15.3545 Y15.9097 F30.0
G1 X15.3545 Y18.8129 F30.0
G1 X15.1124 Y19.3548 F30.0
G1 X14.7666 Y19.7419 F30.0
G1 X14.6974 Y19.3548 F30.0
G1 X14.4899 Y19.2000 F30.0
G1 X14.1095 Y19.1613 F30.0
G1 X13.5562 Y18.8903 F30.0
G1 X13.4524 Y18.9290 F30.0
G1 X13.2450 Y19.1613 F30.0
G1 X13.0720 Y19.2000 F30.0
G1 X13.0029 Y19.2774 F30.0
G1 X12.9683 Y19.5484 F30.0
G1 X12.5879 Y19.5484 F30.0
G1 X12.3458 Y19.8194 F30.0
G1 X9.7176 Y23.8452 F30.0
G0 Z0.2000


; Total paths: 1
G0 Z0.2
G0 X0 Y0
; Spindle already off
M2
