; Generated by Line to G-Code Converter
; File: grapes2.png
; Tool diameter: 3.175 mm
; Cut depth: 1.0 mm
; Feed rate: 500.0 mm/min

G21
G90
G17
G0 Z5.0
; Spindle control disabled
G4 P2

; Path 1/2
G0 X86.5815 Y82.7830
G1 Z-1.0000 F200.0
G1 X84.0256 Y82.3113 F500.0
G1 X81.7891 Y80.8962 F500.0
G1 X80.8307 Y79.2453 F500.0
G1 X80.8307 Y77.1226 F500.0
G1 X82.1086 Y75.4717 F500.0
G1 X84.3450 Y74.5283 F500.0
G1 X85.9425 Y74.5283 F500.0
G1 X87.8594 Y75.4717 F500.0
G1 X88.4984 Y76.8868 F500.0
G1 X86.5815 Y75.2358 F500.0
G1 X84.0256 Y75.2358 F500.0
G1 X83.0671 Y75.7075 F500.0
G1 X81.4696 Y77.5943 F500.0
G1 X81.4696 Y78.7736 F500.0
G1 X82.4281 Y80.4245 F500.0
G1 X84.0256 Y81.6038 F500.0
G1 X85.6230 Y82.0755 F500.0
G1 X87.8594 Y82.0755 F500.0
G1 X89.7764 Y81.3679 F500.0
G1 X91.3738 Y80.1887 F500.0
G1 X92.9712 Y77.5943 F500.0
G1 X92.9712 Y75.0000 F500.0
G1 X91.3738 Y71.4623 F500.0
G1 X88.4984 Y69.1038 F500.0
G1 X89.7764 Y69.5755 F500.0
G1 X92.3323 Y71.9340 F500.0
G1 X93.6102 Y75.0000 F500.0
G1 X93.6102 Y77.8302 F500.0
G1 X92.3323 Y80.4245 F500.0
G1 X89.4569 Y82.3113 F500.0
G1 X86.9010 Y82.7830 F500.0
G0 Z5.0000

; Path 2/2
G0 X32.2684 Y95.9906
G1 Z-1.0000 F200.0
G1 X31.3099 Y95.2830 F500.0
G1 X29.0735 Y95.7547 F500.0
G1 X24.9201 Y95.7547 F500.0
G1 X24.2812 Y94.8113 F500.0
G1 X24.2812 Y92.6887 F500.0
G1 X24.9201 Y91.2736 F500.0
G1 X23.6422 Y90.5660 F500.0
G1 X24.2812 Y88.9151 F500.0
G1 X29.0735 Y84.9057 F500.0
G1 X28.4345 Y84.6698 F500.0
G1 X25.2396 Y86.3208 F500.0
G1 X23.3227 Y86.7925 F500.0
G1 X20.1278 Y86.7925 F500.0
G1 X19.1693 Y86.3208 F500.0
G1 X18.5304 Y85.3774 F500.0
G1 X16.9329 Y85.1415 F500.0
G1 X14.0575 Y83.7264 F500.0
G1 X13.7380 Y83.2547 F500.0
G1 X14.3770 Y82.3113 F500.0
G1 X12.1406 Y81.3679 F500.0
G1 X8.9457 Y78.7736 F500.0
G1 X10.5431 Y77.5943 F500.0
G1 X13.4185 Y76.4151 F500.0
G1 X12.7796 Y75.4717 F500.0
G1 X15.3355 Y73.5849 F500.0
G1 X16.6134 Y73.1132 F500.0
G1 X19.4888 Y72.8774 F500.0
G1 X20.1278 Y72.4057 F500.0
G1 X19.4888 Y71.4623 F500.0
G1 X23.6422 Y71.6981 F500.0
G1 X28.7540 Y74.0566 F500.0
G1 X29.0735 Y73.1132 F500.0
G1 X24.9201 Y70.0472 F500.0
G1 X23.6422 Y68.3962 F500.0
G1 X23.6422 Y66.5094 F500.0
G1 X24.2812 Y66.2736 F500.0
G1 X24.2812 Y65.5660 F500.0
G1 X23.6422 Y64.8585 F500.0
G1 X23.3227 Y62.7358 F500.0
G1 X23.9617 Y62.0283 F500.0
G1 X27.4760 Y61.7925 F500.0
G1 X32.2684 Y62.5000 F500.0
G1 X33.5463 Y61.5566 F500.0
G1 X37.0607 Y62.5000 F500.0
G1 X39.9361 Y64.6226 F500.0
G1 X41.2141 Y63.6792 F500.0
G1 X42.8115 Y64.8585 F500.0
G1 X43.7700 Y66.5094 F500.0
G1 X44.4089 Y66.9811 F500.0
G1 X45.3674 Y66.7453 F500.0
G1 X46.9649 Y68.6321 F500.0
G1 X46.9649 Y72.8774 F500.0
G1 X44.7284 Y76.4151 F500.0
G1 X45.0479 Y76.6509 F500.0
G1 X53.3546 Y76.4151 F500.0
G1 X56.5495 Y76.6509 F500.0
G1 X57.8275 Y77.1226 F500.0
G1 X59.4249 Y76.8868 F500.0
G1 X56.2300 Y72.6415 F500.0
G1 X56.2300 Y71.9340 F500.0
G1 X55.5911 Y71.4623 F500.0
G1 X55.5911 Y70.7547 F500.0
G1 X53.3546 Y66.9811 F500.0
G1 X49.2013 Y62.5000 F500.0
G1 X45.0479 Y59.1981 F500.0
G1 X43.1310 Y58.2547 F500.0
G1 X40.8946 Y59.4340 F500.0
G1 X37.6997 Y59.6698 F500.0
G1 X35.7827 Y58.9623 F500.0
G1 X34.1853 Y57.3113 F500.0
G1 X30.9904 Y57.3113 F500.0
G1 X29.7125 Y56.8396 F500.0
G1 X28.1150 Y55.6604 F500.0
G1 X27.4760 Y54.2453 F500.0
G1 X27.7955 Y51.8868 F500.0
G1 X30.3514 Y50.0000 F500.0
G1 X28.4345 Y47.8774 F500.0
G1 X28.4345 Y45.7547 F500.0
G1 X29.0735 Y44.5755 F500.0
G1 X30.3514 Y43.6321 F500.0
G1 X32.9073 Y43.1604 F500.0
G1 X34.8243 Y41.0377 F500.0
G1 X34.8243 Y40.5660 F500.0
G1 X33.2268 Y39.3868 F500.0
G1 X32.5879 Y37.9717 F500.0
G1 X32.9073 Y36.0849 F500.0
G1 X34.8243 Y34.1981 F500.0
G1 X37.0607 Y33.4906 F500.0
G1 X37.0607 Y30.4245 F500.0
G1 X39.2971 Y28.5377 F500.0
G1 X40.5751 Y28.0660 F500.0
G1 X39.6166 Y26.4151 F500.0
G1 X39.9361 Y24.0566 F500.0
G1 X41.8530 Y22.6415 F500.0
G1 X44.0895 Y21.9340 F500.0
G1 X43.4505 Y20.2830 F500.0
G1 X44.7284 Y18.1604 F500.0
G1 X48.8818 Y16.7453 F500.0
G1 X49.8403 Y15.3302 F500.0
G1 X48.8818 Y13.6792 F500.0
G1 X48.8818 Y11.5566 F500.0
G1 X50.4792 Y10.1415 F500.0
G1 X51.7572 Y9.6698 F500.0
G1 X53.6741 Y9.6698 F500.0
G1 X55.2716 Y10.3774 F500.0
G1 X57.1885 Y12.9717 F500.0
G1 X59.4249 Y12.9717 F500.0
G1 X60.7029 Y13.4434 F500.0
G1 X61.9808 Y14.6226 F500.0
G1 X61.9808 Y17.4528 F500.0
G1 X60.7029 Y18.8679 F500.0
G1 X62.6198 Y20.0472 F500.0
G1 X63.2588 Y20.9906 F500.0
G1 X63.2588 Y22.4057 F500.0
G1 X64.2173 Y23.1132 F500.0
G1 X66.1342 Y23.5849 F500.0
G1 X67.4121 Y24.7642 F500.0
G1 X67.4121 Y27.5943 F500.0
G1 X65.8147 Y29.0094 F500.0
G1 X68.6901 Y30.8962 F500.0
G1 X69.3291 Y32.0755 F500.0
G1 X69.3291 Y33.9623 F500.0
G1 X68.0511 Y35.8491 F500.0
G1 X70.9265 Y37.0283 F500.0
G1 X71.8850 Y37.9717 F500.0
G1 X72.5240 Y39.3868 F500.0
G1 X71.8850 Y41.9811 F500.0
G1 X74.4409 Y42.6887 F500.0
G1 X76.3578 Y44.1038 F500.0
G1 X76.9968 Y45.5189 F500.0
G1 X76.6773 Y47.6415 F500.0
G1 X73.8019 Y49.7642 F500.0
G1 X74.1214 Y50.7075 F500.0
G1 X75.0799 Y51.1792 F500.0
G1 X77.6358 Y50.4717 F500.0
G1 X79.5527 Y50.4717 F500.0
G1 X79.8722 Y51.8868 F500.0
G1 X82.7476 Y51.1792 F500.0
G1 X85.3035 Y51.1792 F500.0
G1 X86.2620 Y52.3585 F500.0
G1 X90.0958 Y52.5943 F500.0
G1 X91.6933 Y53.0660 F500.0
G1 X92.0128 Y53.5377 F500.0
G1 X91.0543 Y56.1321 F500.0
G1 X89.7764 Y57.5472 F500.0
G1 X90.4153 Y59.1981 F500.0
G1 X88.8179 Y61.5566 F500.0
G1 X87.2204 Y62.9717 F500.0
G1 X88.4984 Y63.9151 F500.0
G1 X85.6230 Y66.2736 F500.0
G1 X82.7476 Y67.4528 F500.0
G1 X82.4281 Y67.9245 F500.0
G1 X83.3866 Y68.3962 F500.0
G1 X83.0671 Y68.8679 F500.0
G1 X79.8722 Y69.3396 F500.0
G1 X79.2332 Y69.8113 F500.0
G1 X79.5527 Y71.4623 F500.0
G1 X77.6358 Y73.8208 F500.0
G1 X76.3578 Y74.2925 F500.0
G1 X72.5240 Y74.2925 F500.0
G1 X69.9681 Y75.2358 F500.0
G1 X68.6901 Y76.4151 F500.0
G1 X68.6901 Y78.5377 F500.0
G1 X70.2875 Y80.1887 F500.0
G1 X77.6358 Y83.0189 F500.0
G1 X78.5942 Y83.0189 F500.0
G1 X79.2332 Y83.4906 F500.0
G1 X80.1917 Y83.4906 F500.0
G1 X85.9425 Y85.3774 F500.0
G1 X86.9010 Y86.5566 F500.0
G1 X86.9010 Y87.9717 F500.0
G1 X85.3035 Y89.8585 F500.0
G1 X83.3866 Y89.8585 F500.0
G1 X75.7188 Y85.8491 F500.0
G1 X62.9393 Y80.8962 F500.0
G1 X52.7157 Y78.3019 F500.0
G1 X45.6869 Y77.8302 F500.0
G1 X45.0479 Y78.3019 F500.0
G1 X48.2428 Y80.8962 F500.0
G1 X49.5208 Y83.0189 F500.0
G1 X49.5208 Y87.5000 F500.0
G1 X48.5623 Y88.6792 F500.0
G1 X46.9649 Y88.9151 F500.0
G1 X46.9649 Y89.8585 F500.0
G1 X44.4089 Y92.6887 F500.0
G1 X42.4920 Y90.8019 F500.0
G1 X41.5335 Y92.4528 F500.0
G1 X39.2971 Y94.3396 F500.0
G1 X37.6997 Y95.0472 F500.0
G1 X36.4217 Y94.5755 F500.0
G1 X32.5879 Y95.9906 F500.0
G0 Z5.0000


; Total paths: 2
G0 Z5.0
G0 X0 Y0
; Spindle already off
M2
