; Generated by Line to G-Code Converter
; File: Handwritten_grapeleaf.jpg
; Tool diameter: 0.25 inch
; Cut depth: 0.25 inch
; Feed rate: 30.0 inch/min

G20
G90
G17
G0 Z0.5
; Spindle control disabled
G4 P2

; Path 1/1
G0 X3.4340 Y6.5263
G1 Z-0.2500 F10.0
G1 X3.4057 Y6.4868 F30.0
G1 X3.4057 Y6.3289 F30.0
G1 X3.4434 Y6.1842 F30.0
G1 X3.4434 Y6.0395 F30.0
G1 X3.4245 Y6.0000 F30.0
G1 X3.4151 Y5.8553 F30.0
G1 X3.3774 Y5.6974 F30.0
G1 X3.3396 Y5.6579 F30.0
G1 X3.3019 Y5.5658 F30.0
G1 X3.2358 Y5.5132 F30.0
G1 X3.1698 Y5.5132 F30.0
G1 X3.1132 Y5.5395 F30.0
G1 X3.0094 Y5.6316 F30.0
G1 X2.9811 Y5.6053 F30.0
G1 X2.9906 Y5.5658 F30.0
G1 X3.0943 Y5.4868 F30.0
G1 X3.1321 Y5.4079 F30.0
G1 X3.1887 Y5.3421 F30.0
G1 X3.2547 Y5.1974 F30.0
G1 X3.2830 Y4.9868 F30.0
G1 X3.3019 Y4.9474 F30.0
G1 X3.3019 Y4.8684 F30.0
G1 X3.2830 Y4.8158 F30.0
G1 X3.2925 Y4.7368 F30.0
G1 X3.2736 Y4.6447 F30.0
G1 X3.2830 Y4.5658 F30.0
G1 X3.2547 Y4.4605 F30.0
G1 X3.2358 Y4.2763 F30.0
G1 X3.2075 Y4.1579 F30.0
G1 X3.1038 Y3.9737 F30.0
G1 X3.0000 Y4.0000 F30.0
G1 X2.9623 Y3.9737 F30.0
G1 X2.7358 Y3.9737 F30.0
G1 X2.6604 Y4.0000 F30.0
G1 X2.6038 Y3.9737 F30.0
G1 X2.4811 Y4.0000 F30.0
G1 X2.3396 Y3.9868 F30.0
G1 X2.2264 Y3.9474 F30.0
G1 X2.2075 Y3.9211 F30.0
G1 X2.1226 Y3.9211 F30.0
G1 X2.0283 Y3.8816 F30.0
G1 X1.7358 Y3.8816 F30.0
G1 X1.6604 Y3.8289 F30.0
G1 X1.6321 Y3.8421 F30.0
G1 X1.6132 Y3.8158 F30.0
G1 X1.5377 Y3.8158 F30.0
G1 X1.4623 Y3.7237 F30.0
G1 X1.3679 Y3.7368 F30.0
G1 X1.3585 Y3.6842 F30.0
G1 X1.5377 Y3.4868 F30.0
G1 X1.5943 Y3.3816 F30.0
G1 X1.7264 Y3.2368 F30.0
G1 X1.7547 Y3.1711 F30.0
G1 X1.7642 Y3.1974 F30.0
G1 X1.8302 Y3.1974 F30.0
G1 X1.9245 Y3.2895 F30.0
G1 X2.0755 Y3.3947 F30.0
G1 X2.2075 Y3.4605 F30.0
G1 X2.2453 Y3.4605 F30.0
G1 X2.3585 Y3.5395 F30.0
G1 X2.6415 Y3.5789 F30.0
G1 X3.0189 Y3.5789 F30.0
G1 X3.0283 Y3.5526 F30.0
G1 X2.9906 Y3.4868 F30.0
G1 X2.9811 Y3.3684 F30.0
G1 X2.9151 Y3.1842 F30.0
G1 X2.9151 Y3.1447 F30.0
G1 X2.8868 Y3.1053 F30.0
G1 X2.8679 Y3.0263 F30.0
G1 X2.7358 Y2.8421 F30.0
G1 X2.5849 Y2.7763 F30.0
G1 X2.4906 Y2.7105 F30.0
G1 X2.3679 Y2.7105 F30.0
G1 X2.3491 Y2.6579 F30.0
G1 X2.5283 Y2.6579 F30.0
G1 X2.6604 Y2.5658 F30.0
G1 X2.7642 Y2.4342 F30.0
G1 X2.8774 Y2.2368 F30.0
G1 X2.8774 Y2.1447 F30.0
G1 X2.8962 Y2.0789 F30.0
G1 X2.8868 Y1.9605 F30.0
G1 X2.9245 Y1.9605 F30.0
G1 X2.9717 Y2.0395 F30.0
G1 X3.0755 Y2.1053 F30.0
G1 X3.2264 Y2.1053 F30.0
G1 X3.3019 Y2.0658 F30.0
G1 X3.3491 Y2.0000 F30.0
G1 X3.3868 Y1.9868 F30.0
G1 X3.5000 Y1.8158 F30.0
G1 X3.5377 Y1.7895 F30.0
G1 X3.5566 Y1.8026 F30.0
G1 X3.5566 Y1.8421 F30.0
G1 X3.4906 Y2.0658 F30.0
G1 X3.4811 Y2.2105 F30.0
G1 X3.5000 Y2.5132 F30.0
G1 X3.5660 Y2.6842 F30.0
G1 X3.6887 Y2.8289 F30.0
G1 X3.7547 Y2.8553 F30.0
G1 X3.7642 Y2.8289 F30.0
G1 X3.7264 Y2.7763 F30.0
G1 X3.7170 Y2.6711 F30.0
G1 X3.6887 Y2.5789 F30.0
G1 X3.6887 Y2.3158 F30.0
G1 X3.7453 Y2.0658 F30.0
G1 X3.8208 Y1.8947 F30.0
G1 X3.8962 Y1.7632 F30.0
G1 X3.9340 Y1.7632 F30.0
G1 X3.9434 Y1.8684 F30.0
G1 X3.9906 Y2.0000 F30.0
G1 X4.0472 Y2.0789 F30.0
G1 X4.1415 Y2.0921 F30.0
G1 X4.1887 Y2.0658 F30.0
G1 X4.5377 Y1.6842 F30.0
G1 X4.5472 Y1.5921 F30.0
G1 X4.5189 Y1.3947 F30.0
G1 X4.5472 Y1.3947 F30.0
G1 X4.5660 Y1.4211 F30.0
G1 X4.5849 Y1.5921 F30.0
G1 X4.6604 Y1.7105 F30.0
G1 X4.7547 Y1.7632 F30.0
G1 X4.7830 Y1.7500 F30.0
G1 X4.8208 Y1.7763 F30.0
G1 X4.9340 Y1.7632 F30.0
G1 X5.0000 Y1.7105 F30.0
G1 X5.1226 Y1.5395 F30.0
G1 X5.1415 Y1.4868 F30.0
G1 X5.1887 Y1.5000 F30.0
G1 X5.1698 Y1.8684 F30.0
G1 X5.1981 Y2.0263 F30.0
G1 X5.2453 Y2.1447 F30.0
G1 X5.2925 Y2.2105 F30.0
G1 X5.3679 Y2.2632 F30.0
G1 X5.5189 Y2.3026 F30.0
G1 X5.6981 Y2.3026 F30.0
G1 X5.7170 Y2.3289 F30.0
G1 X5.7075 Y2.3816 F30.0
G1 X5.6415 Y2.4079 F30.0
G1 X5.4434 Y2.5658 F30.0
G1 X5.2170 Y2.8684 F30.0
G1 X5.1887 Y2.8816 F30.0
G1 X5.1792 Y2.9342 F30.0
G1 X5.1038 Y3.0921 F30.0
G1 X5.0472 Y3.2895 F30.0
G1 X5.0566 Y3.3421 F30.0
G1 X5.0283 Y3.4605 F30.0
G1 X5.0472 Y3.5132 F30.0
G1 X5.1604 Y3.4342 F30.0
G1 X5.1792 Y3.3947 F30.0
G1 X5.2170 Y3.3816 F30.0
G1 X5.3585 Y3.2500 F30.0
G1 X5.4151 Y3.1711 F30.0
G1 X5.5849 Y3.0395 F30.0
G1 X5.7925 Y2.8026 F30.0
G1 X5.8113 Y2.7500 F30.0
G1 X5.8868 Y2.6447 F30.0
G1 X5.9340 Y2.6316 F30.0
G1 X5.9528 Y2.5921 F30.0
G1 X5.9906 Y2.6184 F30.0
G1 X6.0849 Y2.8816 F30.0
G1 X6.2453 Y3.0789 F30.0
G1 X6.3113 Y3.1184 F30.0
G1 X6.3585 Y3.1184 F30.0
G1 X6.3962 Y3.1579 F30.0
G1 X6.5094 Y3.2105 F30.0
G1 X6.5943 Y3.2237 F30.0
G1 X6.6132 Y3.2500 F30.0
G1 X6.7358 Y3.2500 F30.0
G1 X6.7642 Y3.2763 F30.0
G1 X6.7642 Y3.3026 F30.0
G1 X6.6226 Y3.4079 F30.0
G1 X6.5566 Y3.5000 F30.0
G1 X6.5189 Y3.5921 F30.0
G1 X6.4811 Y3.6316 F30.0
G1 X6.4811 Y3.6579 F30.0
G1 X6.4434 Y3.6974 F30.0
G1 X6.4245 Y3.7763 F30.0
G1 X6.3868 Y3.8289 F30.0
G1 X6.3585 Y4.0263 F30.0
G1 X6.3585 Y4.2105 F30.0
G1 X6.4245 Y4.5789 F30.0
G1 X6.3868 Y4.5921 F30.0
G1 X6.3396 Y4.5132 F30.0
G1 X6.1981 Y4.3816 F30.0
G1 X6.0566 Y4.3684 F30.0
G1 X6.0094 Y4.3421 F30.0
G1 X5.9717 Y4.3553 F30.0
G1 X5.9151 Y4.3158 F30.0
G1 X5.7925 Y4.3026 F30.0
G1 X5.7547 Y4.2763 F30.0
G1 X5.5943 Y4.2763 F30.0
G1 X5.4811 Y4.3026 F30.0
G1 X5.4623 Y4.3289 F30.0
G1 X5.4151 Y4.3158 F30.0
G1 X5.3396 Y4.3684 F30.0
G1 X5.3019 Y4.3684 F30.0
G1 X5.1981 Y4.4474 F30.0
G1 X5.3491 Y4.6579 F30.0
G1 X5.5189 Y4.7895 F30.0
G1 X5.7453 Y4.8684 F30.0
G1 X5.8019 Y4.9079 F30.0
G1 X5.9151 Y4.9342 F30.0
G1 X5.9811 Y4.9211 F30.0
G1 X6.1981 Y4.9868 F30.0
G1 X6.2453 Y4.9737 F30.0
G1 X6.3019 Y5.0132 F30.0
G1 X6.2925 Y5.0658 F30.0
G1 X6.1509 Y5.1053 F30.0
G1 X6.0094 Y5.2105 F30.0
G1 X5.8491 Y5.3684 F30.0
G1 X5.7453 Y5.5132 F30.0
G1 X5.6981 Y5.6447 F30.0
G1 X5.6792 Y5.7500 F30.0
G1 X5.6887 Y5.8421 F30.0
G1 X5.7264 Y5.9079 F30.0
G1 X5.7075 Y5.9605 F30.0
G1 X5.6887 Y5.9605 F30.0
G1 X5.6321 Y5.8684 F30.0
G1 X5.5755 Y5.8684 F30.0
G1 X5.5189 Y5.8158 F30.0
G1 X5.4717 Y5.8026 F30.0
G1 X5.2925 Y5.8026 F30.0
G1 X5.2170 Y5.8553 F30.0
G1 X5.1887 Y5.8553 F30.0
G1 X5.0377 Y5.9605 F30.0
G1 X4.8962 Y6.0921 F30.0
G1 X4.8396 Y6.2895 F30.0
G1 X4.8396 Y6.4211 F30.0
G1 X4.8019 Y6.4474 F30.0
G1 X4.7830 Y6.4211 F30.0
G1 X4.8019 Y6.2763 F30.0
G1 X4.7830 Y5.9868 F30.0
G1 X4.7358 Y5.8553 F30.0
G1 X4.6981 Y5.6184 F30.0
G1 X4.6226 Y5.4868 F30.0
G1 X4.5660 Y5.3158 F30.0
G1 X4.4906 Y5.2368 F30.0
G1 X4.3868 Y5.0789 F30.0
G1 X4.3679 Y5.0789 F30.0
G1 X4.3585 Y5.0526 F30.0
G1 X4.3302 Y5.0658 F30.0
G1 X4.2830 Y5.0395 F30.0
G1 X4.2358 Y5.0526 F30.0
G1 X4.1981 Y5.0921 F30.0
G1 X4.2075 Y5.1974 F30.0
G1 X4.1792 Y5.4474 F30.0
G1 X4.1604 Y5.4868 F30.0
G1 X4.1698 Y5.7763 F30.0
G1 X4.1415 Y6.1316 F30.0
G1 X4.1604 Y6.1579 F30.0
G1 X4.1698 Y6.3158 F30.0
G1 X4.1981 Y6.3816 F30.0
G1 X4.1981 Y6.4342 F30.0
G1 X4.1792 Y6.4474 F30.0
G1 X4.1792 Y6.4737 F30.0
G1 X4.1226 Y6.3553 F30.0
G1 X3.9623 Y6.1579 F30.0
G1 X3.8491 Y6.1053 F30.0
G1 X3.7075 Y6.1053 F30.0
G1 X3.6321 Y6.1316 F30.0
G1 X3.5000 Y6.3026 F30.0
G1 X3.4717 Y6.4211 F30.0
G1 X3.4717 Y6.5000 F30.0
G1 X3.4528 Y6.5263 F30.0
G0 Z0.5000


; Total paths: 1
G0 Z0.5
G0 X0 Y0
; Spindle already off
M2
