; Generated by Line to G-Code Converter
; File: Heart.jpg
; Tool diameter: 0.125 inch
; Cut depth: 0.04 inch
; Feed rate: 30.0 inch/min

G20
G90
G17
G0 Z0.2
; Spindle control disabled
G4 P2

; Path 1/16
G0 X1.4493 Y2.1522
G1 Z-0.0400 F10.0
G1 X1.5709 Y2.0543 F30.0
G1 X1.5912 Y2.0870 F30.0
G1 X1.7027 Y1.9891 F30.0
G1 X1.7331 Y2.0217 F30.0
G1 X1.9662 Y1.8913 F30.0
G1 X2.0068 Y1.9239 F30.0
G1 X1.8750 Y1.9239 F30.0
G1 X1.8243 Y1.9891 F30.0
G1 X1.7534 Y1.9891 F30.0
G1 X1.7027 Y2.0543 F30.0
G1 X1.6723 Y2.0217 F30.0
G1 X1.4899 Y2.1522 F30.0
G1 X1.3480 Y2.2500 F30.0
G1 X1.3784 Y2.1848 F30.0
G1 X1.4291 Y2.1848 F30.0
G1 X1.3581 Y2.2174 F30.0
G0 Z0.2000

; Path 2/16
G0 X9.9122 Y3.6848
G1 Z-0.0400 F10.0
G1 X9.9628 Y3.6848 F30.0
G0 Z0.2000

; Path 3/16
G0 X1.6622 Y4.1087
G1 Z-0.0400 F10.0
G1 X1.3074 Y3.8152 F30.0
G1 X1.1655 Y3.6196 F30.0
G1 X1.0845 Y3.4565 F30.0
G1 X0.9831 Y3.0978 F30.0
G1 X0.9831 Y2.7717 F30.0
G1 X1.1047 Y2.4783 F30.0
G1 X1.2872 Y2.2500 F30.0
G1 X1.3277 Y2.2500 F30.0
G1 X1.1149 Y2.4783 F30.0
G1 X1.0541 Y2.6087 F30.0
G1 X1.0034 Y2.8043 F30.0
G1 X0.9932 Y3.0000 F30.0
G1 X1.0135 Y3.1304 F30.0
G1 X1.0946 Y3.4239 F30.0
G1 X1.1858 Y3.6196 F30.0
G1 X1.3480 Y3.8152 F30.0
G1 X1.5000 Y3.9130 F30.0
G1 X1.6926 Y3.9130 F30.0
G1 X1.7534 Y3.8478 F30.0
G1 X1.7838 Y3.8804 F30.0
G1 X1.7939 Y4.0761 F30.0
G1 X1.6723 Y4.0761 F30.0
G0 Z0.2000

; Path 4/16
G0 X6.0811 Y4.6304
G1 Z-0.0400 F10.0
G1 X6.0608 Y4.5978 F30.0
G1 X6.1216 Y4.5652 F30.0
G1 X6.1318 Y4.5978 F30.0
G1 X6.1014 Y4.6304 F30.0
G0 Z0.2000

; Path 5/16
G0 X5.7770 Y4.8587
G1 Z-0.0400 F10.0
G1 X5.7973 Y4.8587 F30.0
G1 X5.7973 Y4.7935 F30.0
G1 X5.8277 Y4.8261 F30.0
G1 X5.7973 Y4.8587 F30.0
G1 X5.6655 Y4.9565 F30.0
G1 X5.6554 Y4.9239 F30.0
G1 X5.7365 Y4.8913 F30.0
G1 X5.6959 Y4.9565 F30.0
G0 Z0.2000

; Path 6/16
G0 X9.8818 Y4.9565
G1 Z-0.0400 F10.0
G1 X9.7297 Y4.7283 F30.0
G1 X9.3345 Y4.4022 F30.0
G1 X9.2432 Y4.4022 F30.0
G1 X9.2128 Y4.3370 F30.0
G1 X9.0304 Y4.2717 F30.0
G1 X8.5743 Y4.2065 F30.0
G1 X8.5946 Y4.1413 F30.0
G1 X8.5845 Y4.1087 F30.0
G1 X8.5338 Y4.1087 F30.0
G1 X8.5236 Y4.1413 F30.0
G1 X8.5541 Y4.1739 F30.0
G1 X8.2905 Y4.1739 F30.0
G1 X8.4020 Y4.1739 F30.0
G1 X8.4122 Y4.1413 F30.0
G1 X8.3919 Y4.0761 F30.0
G1 X8.2601 Y4.1087 F30.0
G1 X8.2601 Y4.1739 F30.0
G1 X8.1993 Y4.1087 F30.0
G1 X8.1182 Y4.1739 F30.0
G1 X7.8243 Y4.1739 F30.0
G1 X7.1655 Y4.3696 F30.0
G1 X6.7804 Y4.4348 F30.0
G1 X6.5574 Y4.4022 F30.0
G1 X6.3345 Y4.5000 F30.0
G1 X6.2635 Y4.4674 F30.0
G1 X6.2635 Y4.5326 F30.0
G1 X6.2230 Y4.5652 F30.0
G1 X6.2331 Y4.5326 F30.0
G1 X6.2128 Y4.4348 F30.0
G1 X5.7568 Y4.3043 F30.0
G1 X5.3209 Y4.0109 F30.0
G1 X4.1959 Y2.7391 F30.0
G1 X3.7905 Y2.3804 F30.0
G1 X3.5676 Y2.2500 F30.0
G1 X3.5473 Y2.1848 F30.0
G1 X3.5068 Y2.2174 F30.0
G1 X3.3953 Y2.1196 F30.0
G1 X3.1014 Y2.0217 F30.0
G1 X3.0608 Y1.9565 F30.0
G1 X2.8682 Y1.9239 F30.0
G1 X2.8378 Y1.8587 F30.0
G1 X2.7264 Y1.8913 F30.0
G1 X2.6047 Y1.8261 F30.0
G1 X2.2399 Y1.8261 F30.0
G1 X2.0270 Y1.8913 F30.0
G1 X2.2601 Y1.7935 F30.0
G1 X2.6149 Y1.7935 F30.0
G1 X2.6250 Y1.8587 F30.0
G1 X2.7568 Y1.8261 F30.0
G1 X2.7365 Y1.8261 F30.0
G1 X2.7365 Y1.8913 F30.0
G1 X2.9797 Y1.8913 F30.0
G1 X3.1216 Y1.9891 F30.0
G1 X3.2027 Y1.9891 F30.0
G1 X3.2230 Y2.0543 F30.0
G1 X3.2534 Y2.0217 F30.0
G1 X3.5270 Y2.1848 F30.0
G1 X3.5372 Y2.1522 F30.0
G1 X4.2872 Y2.7717 F30.0
G1 X5.0777 Y3.6848 F30.0
G1 X5.1385 Y3.7174 F30.0
G1 X5.1385 Y3.7826 F30.0
G1 X5.1588 Y3.7500 F30.0
G1 X5.2703 Y3.8478 F30.0
G1 X5.2905 Y3.9130 F30.0
G1 X5.5743 Y4.1413 F30.0
G1 X6.1014 Y4.3696 F30.0
G1 X6.5372 Y4.3696 F30.0
G1 X6.5676 Y4.3043 F30.0
G1 X6.6182 Y4.3043 F30.0
G1 X6.5878 Y4.3370 F30.0
G1 X6.6385 Y4.3696 F30.0
G1 X6.7297 Y4.3043 F30.0
G1 X6.6486 Y4.2717 F30.0
G1 X6.7297 Y4.2717 F30.0
G1 X6.7703 Y4.3370 F30.0
G1 X6.8209 Y4.2717 F30.0
G1 X6.7804 Y4.2391 F30.0
G1 X6.8615 Y4.2391 F30.0
G1 X6.8412 Y4.2391 F30.0
G1 X6.8412 Y4.3043 F30.0
G1 X6.9831 Y4.2717 F30.0
G1 X6.9831 Y4.2065 F30.0
G1 X6.8818 Y4.2065 F30.0
G1 X7.1149 Y4.2391 F30.0
G1 X7.1149 Y4.1739 F30.0
G1 X7.0845 Y4.1739 F30.0
G1 X7.1959 Y4.2065 F30.0
G1 X7.2162 Y4.1413 F30.0
G1 X7.3176 Y4.1413 F30.0
G1 X7.2973 Y4.1413 F30.0
G1 X7.2973 Y4.2065 F30.0
G1 X7.6419 Y4.1739 F30.0
G1 X7.6520 Y4.1413 F30.0
G1 X7.6216 Y4.1087 F30.0
G1 X7.6622 Y4.1413 F30.0
G1 X7.7128 Y4.0761 F30.0
G1 X8.0676 Y4.0761 F30.0
G1 X8.1892 Y4.0109 F30.0
G1 X8.1892 Y4.0761 F30.0
G1 X8.2196 Y4.0761 F30.0
G1 X8.2905 Y3.9783 F30.0
G1 X8.3919 Y3.9783 F30.0
G1 X8.3311 Y3.9783 F30.0
G1 X8.3209 Y4.0435 F30.0
G1 X8.3412 Y4.0761 F30.0
G1 X8.4223 Y4.0435 F30.0
G1 X8.4223 Y3.9783 F30.0
G1 X8.4831 Y4.0109 F30.0
G1 X8.4831 Y3.9457 F30.0
G1 X8.4527 Y3.9457 F30.0
G1 X8.4831 Y3.9130 F30.0
G1 X9.0608 Y3.8152 F30.0
G1 X9.0912 Y3.7500 F30.0
G1 X9.1520 Y3.7826 F30.0
G1 X9.3041 Y3.7174 F30.0
G1 X9.3142 Y3.7826 F30.0
G1 X9.3446 Y3.7826 F30.0
G1 X9.3547 Y3.7500 F30.0
G1 X9.3345 Y3.7174 F30.0
G1 X9.8209 Y3.6522 F30.0
G1 X9.8311 Y3.6848 F30.0
G1 X9.4865 Y3.7174 F30.0
G1 X9.3851 Y3.7826 F30.0
G1 X8.9189 Y3.8478 F30.0
G1 X8.6250 Y3.9783 F30.0
G1 X8.5236 Y3.9783 F30.0
G1 X8.4223 Y4.0761 F30.0
G1 X8.8277 Y4.1413 F30.0
G1 X9.4459 Y4.4022 F30.0
G1 X9.4764 Y4.5000 F30.0
G1 X9.5473 Y4.5000 F30.0
G1 X9.7095 Y4.6304 F30.0
G1 X9.9223 Y4.9565 F30.0
G0 Z0.2000

; Path 7/16
G0 X5.4730 Y5.1522
G1 Z-0.0400 F10.0
G1 X5.4730 Y5.0870 F30.0
G1 X5.5236 Y5.0870 F30.0
G1 X5.5946 Y4.9565 F30.0
G1 X5.6250 Y4.9891 F30.0
G1 X5.5743 Y4.9891 F30.0
G1 X5.5642 Y5.0543 F30.0
G1 X5.4831 Y5.0870 F30.0
G1 X5.4831 Y5.1522 F30.0
G0 Z0.2000

; Path 8/16
G0 X5.2905 Y5.2826
G1 Z-0.0400 F10.0
G1 X5.3818 Y5.2174 F30.0
G1 X5.3716 Y5.2500 F30.0
G1 X5.3514 Y5.2174 F30.0
G1 X5.3007 Y5.2826 F30.0
G1 X5.2095 Y5.4457 F30.0
G1 X5.1892 Y5.4130 F30.0
G1 X5.1993 Y5.3804 F30.0
G1 X5.2500 Y5.3804 F30.0
G1 X5.2196 Y5.4457 F30.0
G0 Z0.2000

; Path 9/16
G0 X5.0270 Y5.6739
G1 Z-0.0400 F10.0
G1 X5.0169 Y5.6413 F30.0
G1 X5.0676 Y5.6413 F30.0
G1 X5.0676 Y5.5761 F30.0
G1 X5.0878 Y5.6087 F30.0
G1 X5.0372 Y5.6739 F30.0
G0 Z0.2000

; Path 10/16
G0 X4.8547 Y5.9348
G1 Z-0.0400 F10.0
G1 X4.8851 Y5.8370 F30.0
G1 X4.9155 Y5.8370 F30.0
G1 X4.8750 Y5.8696 F30.0
G0 Z0.2000

; Path 11/16
G0 X4.5507 Y6.3587
G1 Z-0.0400 F10.0
G1 X4.5811 Y6.2935 F30.0
G1 X4.6115 Y6.3261 F30.0
G1 X4.6216 Y6.2283 F30.0
G1 X4.6723 Y6.1957 F30.0
G1 X4.6926 Y6.0978 F30.0
G1 X4.7331 Y6.0978 F30.0
G1 X4.8142 Y5.9348 F30.0
G1 X4.8142 Y6.0000 F30.0
G1 X4.7736 Y6.0000 F30.0
G1 X4.7534 Y6.0978 F30.0
G1 X4.6824 Y6.1630 F30.0
G1 X4.6723 Y6.2283 F30.0
G1 X4.6115 Y6.3261 F30.0
G1 X4.5608 Y6.3587 F30.0
G1 X4.4493 Y6.5217 F30.0
G1 X4.5304 Y6.3913 F30.0
G1 X4.4899 Y6.5217 F30.0
G1 X4.3682 Y6.7174 F30.0
G1 X4.3885 Y6.6522 F30.0
G1 X4.3480 Y6.6522 F30.0
G1 X4.3480 Y6.7174 F30.0
G1 X4.2466 Y6.9130 F30.0
G1 X4.2365 Y6.8478 F30.0
G1 X4.2669 Y6.8478 F30.0
G0 Z0.2000

; Path 12/16
G0 X4.0845 Y7.1413
G1 Z-0.0400 F10.0
G1 X4.1655 Y6.9783 F30.0
G1 X4.1959 Y6.9783 F30.0
G1 X4.1554 Y7.0761 F30.0
G1 X4.1250 Y7.0761 F30.0
G1 X4.1149 Y7.1413 F30.0
G1 X3.9831 Y7.3696 F30.0
G1 X3.9932 Y7.3370 F30.0
G1 X3.9730 Y7.3043 F30.0
G1 X3.9932 Y7.2717 F30.0
G1 X3.9932 Y7.3370 F30.0
G1 X4.0135 Y7.3043 F30.0
G1 X3.9932 Y7.3370 F30.0
G1 X3.8615 Y7.5652 F30.0
G1 X3.9223 Y7.4674 F30.0
G1 X3.9020 Y7.4348 F30.0
G1 X3.9020 Y7.5000 F30.0
G1 X3.8412 Y7.5652 F30.0
G1 X3.7196 Y7.8261 F30.0
G1 X3.7399 Y7.7283 F30.0
G1 X3.7905 Y7.6957 F30.0
G1 X3.7297 Y7.7935 F30.0
G0 Z0.2000

; Path 13/16
G0 X3.5270 Y8.1522
G1 Z-0.0400 F10.0
G1 X3.5169 Y8.1196 F30.0
G1 X3.5372 Y8.1522 F30.0
G1 X3.5473 Y8.0870 F30.0
G1 X3.5777 Y8.0870 F30.0
G1 X3.5980 Y7.9891 F30.0
G1 X3.6486 Y7.9565 F30.0
G1 X3.6486 Y7.8913 F30.0
G1 X3.6689 Y7.9239 F30.0
G1 X3.5980 Y7.9891 F30.0
G1 X3.5980 Y8.0543 F30.0
G1 X3.5372 Y8.1522 F30.0
G0 Z0.2000

; Path 14/16
G0 X2.7872 Y9.4239
G1 Z-0.0400 F10.0
G1 X2.7568 Y9.3913 F30.0
G1 X2.7770 Y9.3913 F30.0
G1 X2.8074 Y9.2935 F30.0
G1 X2.8682 Y9.2609 F30.0
G1 X3.0709 Y8.9348 F30.0
G1 X3.1014 Y8.8370 F30.0
G1 X3.1926 Y8.7391 F30.0
G1 X3.2027 Y8.6739 F30.0
G1 X3.2939 Y8.5109 F30.0
G1 X3.3243 Y8.5435 F30.0
G1 X3.3345 Y8.4457 F30.0
G1 X3.3953 Y8.4130 F30.0
G1 X3.4561 Y8.2500 F30.0
G1 X3.4764 Y8.2500 F30.0
G1 X3.2939 Y8.6087 F30.0
G1 X3.2432 Y8.6087 F30.0
G1 X3.2027 Y8.7717 F30.0
G1 X3.1723 Y8.7717 F30.0
G1 X3.1622 Y8.8370 F30.0
G1 X3.0507 Y9.0326 F30.0
G1 X3.0101 Y9.0000 F30.0
G1 X3.0101 Y9.0978 F30.0
G1 X2.8784 Y9.2609 F30.0
G1 X2.7973 Y9.4239 F30.0
G0 Z0.2000

; Path 15/16
G0 X2.3108 Y10.0435
G1 Z-0.0400 F10.0
G1 X2.2905 Y10.0109 F30.0
G1 X2.3818 Y9.9457 F30.0
G1 X2.4932 Y9.7500 F30.0
G1 X2.5135 Y9.7826 F30.0
G1 X2.5236 Y9.7174 F30.0
G1 X2.5743 Y9.6522 F30.0
G1 X2.6554 Y9.6196 F30.0
G1 X2.6554 Y9.5543 F30.0
G1 X2.6858 Y9.5543 F30.0
G1 X2.7061 Y9.4565 F30.0
G1 X2.7568 Y9.4565 F30.0
G1 X2.6655 Y9.6196 F30.0
G1 X2.6351 Y9.6196 F30.0
G1 X2.3209 Y10.0435 F30.0
G0 Z0.2000

; Path 16/16
G0 X1.4595 Y10.5326
G1 Z-0.0400 F10.0
G1 X1.1959 Y10.4348 F30.0
G1 X1.0135 Y10.2065 F30.0
G1 X0.8007 Y9.6196 F30.0
G1 X0.7297 Y9.1630 F30.0
G1 X0.6993 Y8.5109 F30.0
G1 X0.7500 Y7.5978 F30.0
G1 X0.8412 Y7.0761 F30.0
G1 X0.8311 Y7.0435 F30.0
G1 X0.8514 Y7.0109 F30.0
G1 X0.8514 Y6.9130 F30.0
G1 X0.8919 Y6.8152 F30.0
G1 X0.8818 Y6.7826 F30.0
G1 X0.9426 Y6.4565 F30.0
G1 X1.0439 Y6.0978 F30.0
G1 X1.0946 Y5.8370 F30.0
G1 X1.2162 Y5.4457 F30.0
G1 X1.4088 Y4.9239 F30.0
G1 X1.6622 Y4.3696 F30.0
G1 X1.8142 Y4.1413 F30.0
G1 X1.8649 Y4.0109 F30.0
G1 X2.2297 Y3.5543 F30.0
G1 X2.2703 Y3.5543 F30.0
G1 X2.1791 Y3.6196 F30.0
G1 X2.0878 Y3.7826 F30.0
G1 X2.0068 Y3.8478 F30.0
G1 X1.6926 Y4.3370 F30.0
G1 X1.4797 Y4.7935 F30.0
G1 X1.2669 Y5.3478 F30.0
G1 X1.1149 Y5.8370 F30.0
G1 X0.9628 Y6.4565 F30.0
G1 X0.8615 Y7.0435 F30.0
G1 X0.8412 Y7.0761 F30.0
G1 X0.8311 Y7.2391 F30.0
G1 X0.8007 Y7.3370 F30.0
G1 X0.8108 Y7.3696 F30.0
G1 X0.7703 Y7.5978 F30.0
G1 X0.7196 Y8.4783 F30.0
G1 X0.7399 Y8.7717 F30.0
G1 X0.7297 Y8.9022 F30.0
G1 X0.7601 Y9.2609 F30.0
G1 X0.8108 Y9.5870 F30.0
G1 X0.9730 Y10.0761 F30.0
G1 X1.1351 Y10.3370 F30.0
G1 X1.3176 Y10.4674 F30.0
G1 X1.6723 Y10.4674 F30.0
G1 X1.9257 Y10.3370 F30.0
G1 X1.9358 Y10.3696 F30.0
G1 X1.9561 Y10.3043 F30.0
G1 X2.0068 Y10.2717 F30.0
G1 X2.0473 Y10.3043 F30.0
G1 X2.0574 Y10.2391 F30.0
G1 X2.2399 Y10.0435 F30.0
G1 X2.2905 Y10.0761 F30.0
G1 X2.1993 Y10.1739 F30.0
G1 X2.1892 Y10.1413 F30.0
G1 X2.1284 Y10.2391 F30.0
G1 X2.1081 Y10.2065 F30.0
G1 X2.0980 Y10.2717 F30.0
G1 X1.7939 Y10.4674 F30.0
G1 X1.5101 Y10.5326 F30.0
G0 Z0.2000


; Total paths: 16
G0 Z0.2
G0 X0 Y0
; Spindle already off
M2
