; Generated by Line to G-Code Converter
; File: Heart2.jpg
; Tool diameter: 0.125 inch
; Cut depth: 0.04 inch
; Feed rate: 30.0 inch/min

G20
G90
G17
G0 Z0.2
; Spindle control disabled
G4 P2

; Path 1/111
G0 X1.2137 Y0.7031
G1 Z-0.0400 F10.0
G1 X1.2156 Y0.6969 F30.0
G1 X1.2061 Y0.7000 F30.0
G1 X1.2099 Y0.7031 F30.0
G1 X1.1851 Y0.7219 F30.0
G1 X1.1889 Y0.7156 F30.0
G1 X1.1870 Y0.7094 F30.0
G1 X1.1927 Y0.7156 F30.0
G1 X1.1870 Y0.7219 F30.0
G1 X1.1622 Y0.7125 F30.0
G1 X1.1794 Y0.7125 F30.0
G1 X1.1737 Y0.7063 F30.0
G1 X1.1756 Y0.7031 F30.0
G1 X1.1603 Y0.7094 F30.0
G1 X1.1508 Y0.7063 F30.0
G1 X1.1546 Y0.7063 F30.0
G1 X1.1565 Y0.7125 F30.0
G1 X1.1298 Y0.7125 F30.0
G1 X1.1336 Y0.7063 F30.0
G1 X1.1393 Y0.7063 F30.0
G1 X1.1317 Y0.7094 F30.0
G1 X1.1145 Y0.7406 F30.0
G1 X1.1107 Y0.7344 F30.0
G1 X1.1145 Y0.7313 F30.0
G1 X1.1221 Y0.7344 F30.0
G1 X1.1183 Y0.7344 F30.0
G1 X1.1164 Y0.7406 F30.0
G0 Z0.2000

; Path 2/111
G0 X1.2939 Y0.7063
G1 Z-0.0400 F10.0
G1 X1.2939 Y0.7000 F30.0
G1 X1.3053 Y0.7000 F30.0
G1 X1.3053 Y0.7063 F30.0
G1 X1.3015 Y0.7063 F30.0
G1 X1.2958 Y0.7313 F30.0
G1 X1.2710 Y0.7250 F30.0
G1 X1.2195 Y0.7250 F30.0
G1 X1.2252 Y0.7063 F30.0
G1 X1.2309 Y0.7188 F30.0
G1 X1.2385 Y0.7219 F30.0
G1 X1.2557 Y0.7188 F30.0
G1 X1.2977 Y0.7250 F30.0
G1 X1.3034 Y0.7188 F30.0
G1 X1.3168 Y0.7250 F30.0
G1 X1.2977 Y0.7281 F30.0
G0 Z0.2000

; Path 3/111
G0 X1.4332 Y0.7250
G1 Z-0.0400 F10.0
G1 X1.4370 Y0.7219 F30.0
G1 X1.4351 Y0.7188 F30.0
G1 X1.4294 Y0.7188 F30.0
G1 X1.4275 Y0.7250 F30.0
G1 X1.4027 Y0.7344 F30.0
G1 X1.3989 Y0.7344 F30.0
G0 Z0.2000

; Path 4/111
G0 X1.3607 Y0.7250
G1 Z-0.0400 F10.0
G1 X1.3588 Y0.7188 F30.0
G1 X1.3626 Y0.7094 F30.0
G1 X1.3798 Y0.7125 F30.0
G1 X1.3779 Y0.7188 F30.0
G1 X1.3740 Y0.7125 F30.0
G1 X1.3702 Y0.7156 F30.0
G1 X1.3702 Y0.7250 F30.0
G1 X1.3626 Y0.7250 F30.0
G0 Z0.2000

; Path 5/111
G0 X1.3263 Y0.7313
G1 Z-0.0400 F10.0
G1 X1.3263 Y0.7250 F30.0
G1 X1.3302 Y0.7281 F30.0
G1 X1.3435 Y0.7188 F30.0
G1 X1.3511 Y0.7313 F30.0
G1 X1.3454 Y0.7313 F30.0
G1 X1.3454 Y0.7219 F30.0
G1 X1.3282 Y0.7281 F30.0
G0 Z0.2000

; Path 6/111
G0 X1.0668 Y0.7406
G1 Z-0.0400 F10.0
G1 X1.0553 Y0.7313 F30.0
G1 X1.0630 Y0.7281 F30.0
G1 X1.0706 Y0.7344 F30.0
G0 Z0.2000

; Path 7/111
G0 X1.4866 Y0.7469
G1 Z-0.0400 F10.0
G1 X1.4847 Y0.7406 F30.0
G1 X1.4771 Y0.7375 F30.0
G1 X1.4847 Y0.7344 F30.0
G1 X1.4847 Y0.7406 F30.0
G1 X1.4905 Y0.7469 F30.0
G1 X1.5095 Y0.7625 F30.0
G1 X1.5191 Y0.7531 F30.0
G1 X1.5153 Y0.7469 F30.0
G1 X1.5248 Y0.7563 F30.0
G1 X1.5286 Y0.7500 F30.0
G1 X1.5324 Y0.7531 F30.0
G1 X1.5267 Y0.7625 F30.0
G1 X1.5210 Y0.7625 F30.0
G0 Z0.2000

; Path 8/111
G0 X1.0057 Y0.7625
G1 Z-0.0400 F10.0
G1 X1.0038 Y0.7563 F30.0
G1 X1.0095 Y0.7563 F30.0
G1 X1.0095 Y0.7625 F30.0
G1 X1.0305 Y0.7688 F30.0
G1 X1.0305 Y0.7594 F30.0
G1 X1.0382 Y0.7531 F30.0
G1 X1.0382 Y0.7656 F30.0
G1 X1.0344 Y0.7625 F30.0
G0 Z0.2000

; Path 9/111
G0 X1.5668 Y0.7688
G1 Z-0.0400 F10.0
G1 X1.5611 Y0.7625 F30.0
G1 X1.5630 Y0.7563 F30.0
G1 X1.5706 Y0.7531 F30.0
G1 X1.5725 Y0.7656 F30.0
G1 X1.5687 Y0.7656 F30.0
G0 Z0.2000

; Path 10/111
G0 X0.9733 Y0.7844
G1 Z-0.0400 F10.0
G1 X0.9695 Y0.7781 F30.0
G1 X0.9656 Y0.7812 F30.0
G1 X0.9733 Y0.7812 F30.0
G1 X0.9485 Y0.7875 F30.0
G1 X0.9485 Y0.7812 F30.0
G1 X0.9504 Y0.7875 F30.0
G0 Z0.2000

; Path 11/111
G0 X1.5973 Y0.7938
G1 Z-0.0400 F10.0
G1 X1.5992 Y0.7875 F30.0
G1 X1.5954 Y0.7812 F30.0
G1 X1.5954 Y0.7688 F30.0
G1 X1.5992 Y0.7688 F30.0
G1 X1.6011 Y0.7938 F30.0
G0 Z0.2000

; Path 12/111
G0 X3.1221 Y0.8000
G1 Z-0.0400 F10.0
G1 X3.1240 Y0.7938 F30.0
G1 X3.1279 Y0.7969 F30.0
G1 X3.1240 Y0.7969 F30.0
G1 X3.1011 Y0.8063 F30.0
G1 X3.0916 Y0.8031 F30.0
G1 X3.1145 Y0.7938 F30.0
G1 X3.1031 Y0.8031 F30.0
G0 Z0.2000

; Path 13/111
G0 X1.6336 Y0.8031
G1 Z-0.0400 F10.0
G1 X1.6393 Y0.7969 F30.0
G1 X1.6355 Y0.7938 F30.0
G1 X1.6374 Y0.7875 F30.0
G1 X1.6469 Y0.7906 F30.0
G1 X1.6374 Y0.8031 F30.0
G1 X1.6527 Y0.8188 F30.0
G1 X1.6565 Y0.8188 F30.0
G0 Z0.2000

; Path 14/111
G0 X1.6870 Y0.8094
G1 Z-0.0400 F10.0
G1 X1.6851 Y0.8031 F30.0
G1 X1.6775 Y0.8031 F30.0
G1 X1.6889 Y0.8063 F30.0
G1 X1.7023 Y0.8438 F30.0
G1 X1.7004 Y0.8375 F30.0
G1 X1.7061 Y0.8438 F30.0
G0 Z0.2000

; Path 15/111
G0 X0.9141 Y0.8125
G1 Z-0.0400 F10.0
G1 X0.9122 Y0.8063 F30.0
G1 X0.9160 Y0.8063 F30.0
G1 X0.9198 Y0.7969 F30.0
G1 X0.9160 Y0.8094 F30.0
G0 Z0.2000

; Path 16/111
G0 X3.0687 Y0.8156
G1 Z-0.0400 F10.0
G1 X3.0630 Y0.8094 F30.0
G1 X3.0687 Y0.8125 F30.0
G1 X3.0439 Y0.8219 F30.0
G1 X3.0458 Y0.8219 F30.0
G0 Z0.2000

; Path 17/111
G0 X0.8760 Y0.8344
G1 Z-0.0400 F10.0
G1 X0.8740 Y0.8281 F30.0
G1 X0.8779 Y0.8344 F30.0
G0 Z0.2000

; Path 18/111
G0 X0.8435 Y0.8406
G1 Z-0.0400 F10.0
G1 X0.8473 Y0.8344 F30.0
G1 X0.8492 Y0.8375 F30.0
G1 X0.8454 Y0.8406 F30.0
G1 X0.8302 Y0.8656 F30.0
G1 X0.8340 Y0.8594 F30.0
G1 X0.8321 Y0.8656 F30.0
G0 Z0.2000

; Path 19/111
G0 X1.7405 Y0.8469
G1 Z-0.0400 F10.0
G1 X1.7385 Y0.8406 F30.0
G1 X1.7309 Y0.8438 F30.0
G1 X1.7347 Y0.8375 F30.0
G1 X1.7443 Y0.8406 F30.0
G1 X1.7424 Y0.8469 F30.0
G1 X1.7672 Y0.8594 F30.0
G1 X1.7615 Y0.8563 F30.0
G1 X1.7653 Y0.8531 F30.0
G1 X1.7710 Y0.8594 F30.0
G0 Z0.2000

; Path 20/111
G0 X3.0038 Y0.8531
G1 Z-0.0400 F10.0
G1 X3.0038 Y0.8469 F30.0
G1 X3.0000 Y0.8438 F30.0
G1 X3.0019 Y0.8406 F30.0
G1 X3.0095 Y0.8406 F30.0
G1 X3.0038 Y0.8469 F30.0
G1 X3.0076 Y0.8500 F30.0
G1 X3.0057 Y0.8531 F30.0
G0 Z0.2000

; Path 21/111
G0 X2.9695 Y0.8563
G1 Z-0.0400 F10.0
G1 X2.9752 Y0.8563 F30.0
G1 X2.9542 Y0.8844 F30.0
G1 X2.9504 Y0.8844 F30.0
G0 Z0.2000

; Path 22/111
G0 X1.7977 Y0.8813
G1 Z-0.0400 F10.0
G1 X1.7977 Y0.8750 F30.0
G1 X1.8034 Y0.8750 F30.0
G1 X1.8034 Y0.8813 F30.0
G1 X1.8187 Y0.9188 F30.0
G1 X1.8130 Y0.9125 F30.0
G1 X1.8149 Y0.9094 F30.0
G1 X1.8206 Y0.9156 F30.0
G0 Z0.2000

; Path 23/111
G0 X0.7786 Y0.8844
G1 Z-0.0400 F10.0
G1 X0.7748 Y0.8813 F30.0
G1 X0.7805 Y0.8813 F30.0
G1 X0.7844 Y0.8750 F30.0
G1 X0.7863 Y0.8781 F30.0
G1 X0.7824 Y0.8781 F30.0
G1 X0.7805 Y0.8844 F30.0
G1 X0.7595 Y0.9000 F30.0
G1 X0.7615 Y0.8906 F30.0
G1 X0.7672 Y0.8844 F30.0
G1 X0.7615 Y0.9000 F30.0
G1 X0.7385 Y0.9250 F30.0
G1 X0.7366 Y0.9219 F30.0
G1 X0.7443 Y0.9188 F30.0
G1 X0.7424 Y0.9250 F30.0
G1 X0.7176 Y0.9469 F30.0
G1 X0.7137 Y0.9469 F30.0
G1 X0.7156 Y0.9500 F30.0
G0 Z0.2000

; Path 24/111
G0 X2.9160 Y0.8938
G1 Z-0.0400 F10.0
G1 X2.9179 Y0.8938 F30.0
G1 X2.8950 Y0.9062 F30.0
G1 X2.8855 Y0.9062 F30.0
G1 X2.8664 Y0.9406 F30.0
G1 X2.8798 Y0.9313 F30.0
G1 X2.8855 Y0.9313 F30.0
G1 X2.8702 Y0.9406 F30.0
G0 Z0.2000

; Path 25/111
G0 X1.8569 Y0.9219
G1 Z-0.0400 F10.0
G1 X1.8435 Y0.9094 F30.0
G1 X1.8416 Y0.9156 F30.0
G1 X1.8378 Y0.9156 F30.0
G1 X1.8492 Y0.9062 F30.0
G1 X1.8454 Y0.9125 F30.0
G1 X1.8588 Y0.9188 F30.0
G0 Z0.2000

; Path 26/111
G0 X1.9027 Y0.9531
G1 Z-0.0400 F10.0
G1 X1.8950 Y0.9438 F30.0
G1 X1.9008 Y0.9438 F30.0
G1 X1.9065 Y0.9531 F30.0
G1 X1.8836 Y0.9594 F30.0
G1 X1.8702 Y0.9469 F30.0
G1 X1.8760 Y0.9469 F30.0
G1 X1.8855 Y0.9594 F30.0
G0 Z0.2000

; Path 27/111
G0 X0.6775 Y0.9625
G1 Z-0.0400 F10.0
G1 X0.6832 Y0.9531 F30.0
G1 X0.6870 Y0.9563 F30.0
G1 X0.6794 Y0.9625 F30.0
G1 X0.6718 Y0.9906 F30.0
G1 X0.6660 Y0.9844 F30.0
G1 X0.6565 Y0.9844 F30.0
G1 X0.6679 Y0.9813 F30.0
G1 X0.6718 Y0.9875 F30.0
G0 Z0.2000

; Path 28/111
G0 X2.9523 Y0.9719
G1 Z-0.0400 F10.0
G1 X2.9504 Y0.9656 F30.0
G1 X2.9580 Y0.9688 F30.0
G1 X2.9542 Y0.9719 F30.0
G1 X2.9351 Y0.9813 F30.0
G1 X2.9256 Y0.9781 F30.0
G1 X2.9275 Y0.9750 F30.0
G1 X2.9408 Y0.9750 F30.0
G1 X2.9389 Y0.9813 F30.0
G0 Z0.2000

; Path 29/111
G0 X2.9943 Y0.9750
G1 Z-0.0400 F10.0
G1 X3.0019 Y0.9750 F30.0
G0 Z0.2000

; Path 30/111
G0 X2.7977 Y0.9844
G1 Z-0.0400 F10.0
G1 X2.8015 Y0.9750 F30.0
G1 X2.8225 Y0.9688 F30.0
G1 X2.8321 Y0.9719 F30.0
G1 X2.8149 Y0.9813 F30.0
G1 X2.8130 Y0.9781 F30.0
G1 X2.8073 Y0.9844 F30.0
G1 X2.7863 Y0.9906 F30.0
G1 X2.7844 Y0.9844 F30.0
G1 X2.7882 Y0.9906 F30.0
G0 Z0.2000

; Path 31/111
G0 X2.8740 Y0.9875
G1 Z-0.0400 F10.0
G1 X2.9027 Y0.9844 F30.0
G1 X2.8855 Y0.9813 F30.0
G1 X2.8817 Y0.9750 F30.0
G1 X2.8798 Y0.9844 F30.0
G1 X2.8645 Y0.9813 F30.0
G1 X2.8588 Y0.9875 F30.0
G1 X2.8321 Y0.9938 F30.0
G1 X2.8302 Y0.9906 F30.0
G1 X2.8511 Y0.9844 F30.0
G1 X2.8511 Y0.9906 F30.0
G1 X2.8340 Y0.9938 F30.0
G0 Z0.2000

; Path 32/111
G0 X2.7156 Y1.0000
G1 Z-0.0400 F10.0
G1 X2.7576 Y0.9813 F30.0
G1 X2.7710 Y0.9813 F30.0
G1 X2.7805 Y0.9719 F30.0
G1 X2.7805 Y0.9781 F30.0
G1 X2.7691 Y0.9844 F30.0
G1 X2.7653 Y0.9938 F30.0
G1 X2.7519 Y0.9906 F30.0
G1 X2.7424 Y0.9969 F30.0
G1 X2.7347 Y0.9938 F30.0
G1 X2.7195 Y1.0000 F30.0
G0 Z0.2000

; Path 33/111
G0 X3.0382 Y1.0063
G1 Z-0.0400 F10.0
G1 X3.0363 Y1.0031 F30.0
G1 X3.0458 Y1.0000 F30.0
G1 X3.0496 Y0.9938 F30.0
G1 X3.0534 Y0.9938 F30.0
G1 X3.0534 Y1.0000 F30.0
G1 X3.0649 Y0.9969 F30.0
G1 X3.0687 Y1.0000 F30.0
G1 X3.0668 Y1.0063 F30.0
G1 X3.0515 Y1.0063 F30.0
G1 X3.0534 Y1.0000 F30.0
G1 X3.0496 Y0.9938 F30.0
G1 X3.0458 Y1.0031 F30.0
G1 X3.0401 Y1.0063 F30.0
G0 Z0.2000

; Path 34/111
G0 X0.6412 Y1.0063
G1 Z-0.0400 F10.0
G1 X0.6508 Y0.9906 F30.0
G1 X0.6431 Y1.0063 F30.0
G1 X0.6260 Y1.0281 F30.0
G1 X0.6260 Y1.0219 F30.0
G1 X0.6336 Y1.0125 F30.0
G1 X0.6298 Y1.0219 F30.0
G0 Z0.2000

; Path 35/111
G0 X1.9523 Y1.0156
G1 Z-0.0400 F10.0
G1 X1.9466 Y1.0125 F30.0
G1 X1.9466 Y1.0063 F30.0
G1 X1.9504 Y1.0031 F30.0
G1 X1.9504 Y0.9875 F30.0
G1 X1.9542 Y0.9906 F30.0
G1 X1.9504 Y1.0094 F30.0
G1 X1.9542 Y1.0156 F30.0
G0 Z0.2000

; Path 36/111
G0 X2.6183 Y1.0375
G1 Z-0.0400 F10.0
G1 X2.6336 Y1.0312 F30.0
G1 X2.6145 Y1.0375 F30.0
G1 X2.6164 Y1.0406 F30.0
G1 X2.6412 Y1.0281 F30.0
G1 X2.6603 Y1.0219 F30.0
G1 X2.6450 Y1.0281 F30.0
G1 X2.6431 Y1.0250 F30.0
G1 X2.6393 Y1.0312 F30.0
G1 X2.6660 Y1.0437 F30.0
G1 X2.6698 Y1.0375 F30.0
G1 X2.6756 Y1.0406 F30.0
G1 X2.6927 Y1.0312 F30.0
G1 X2.7271 Y1.0250 F30.0
G1 X2.7290 Y1.0188 F30.0
G1 X2.7405 Y1.0219 F30.0
G1 X2.7443 Y1.0156 F30.0
G1 X2.7767 Y1.0094 F30.0
G1 X2.7863 Y1.0031 F30.0
G1 X2.8015 Y1.0031 F30.0
G1 X2.8073 Y0.9969 F30.0
G1 X2.8111 Y1.0000 F30.0
G1 X2.8130 Y0.9938 F30.0
G1 X2.8053 Y1.0000 F30.0
G1 X2.7844 Y0.9969 F30.0
G1 X2.7767 Y1.0031 F30.0
G1 X2.7653 Y1.0000 F30.0
G1 X2.7233 Y1.0125 F30.0
G1 X2.7137 Y1.0219 F30.0
G1 X2.6737 Y1.0344 F30.0
G1 X2.6622 Y1.0437 F30.0
G1 X2.6718 Y1.0188 F30.0
G1 X2.6870 Y1.0125 F30.0
G1 X2.6775 Y1.0125 F30.0
G1 X2.6698 Y1.0188 F30.0
G1 X2.6851 Y1.0531 F30.0
G1 X2.6832 Y1.0500 F30.0
G1 X2.6966 Y1.0469 F30.0
G1 X2.6870 Y1.0500 F30.0
G0 Z0.2000

; Path 37/111
G0 X3.0802 Y1.0375
G1 Z-0.0400 F10.0
G1 X3.0706 Y1.0250 F30.0
G1 X3.0763 Y1.0250 F30.0
G1 X3.0782 Y1.0312 F30.0
G1 X3.0821 Y1.0312 F30.0
G1 X3.0821 Y1.0375 F30.0
G1 X3.1011 Y1.0531 F30.0
G1 X3.1031 Y1.0500 F30.0
G1 X3.0973 Y1.0375 F30.0
G1 X3.1050 Y1.0500 F30.0
G1 X3.1031 Y1.0531 F30.0
G1 X3.1145 Y1.0781 F30.0
G1 X3.1145 Y1.0656 F30.0
G1 X3.1202 Y1.0688 F30.0
G1 X3.1164 Y1.0781 F30.0
G0 Z0.2000

; Path 38/111
G0 X1.9943 Y1.0500
G1 Z-0.0400 F10.0
G1 X1.9885 Y1.0406 F30.0
G1 X1.9924 Y1.0406 F30.0
G1 X1.9943 Y1.0469 F30.0
G0 Z0.2000

; Path 39/111
G0 X2.5630 Y1.0656
G1 Z-0.0400 F10.0
G1 X2.5821 Y1.0563 F30.0
G1 X2.5668 Y1.0656 F30.0
G1 X2.5496 Y1.0719 F30.0
G1 X2.5534 Y1.0719 F30.0
G0 Z0.2000

; Path 40/111
G0 X0.6107 Y1.0688
G1 Z-0.0400 F10.0
G1 X0.6164 Y1.0656 F30.0
G1 X0.6164 Y1.0594 F30.0
G1 X0.6183 Y1.0625 F30.0
G1 X0.6126 Y1.0688 F30.0
G0 Z0.2000

; Path 41/111
G0 X2.6431 Y1.0719
G1 Z-0.0400 F10.0
G1 X2.6469 Y1.0656 F30.0
G1 X2.6527 Y1.0719 F30.0
G0 Z0.2000

; Path 42/111
G0 X2.0534 Y1.0719
G1 Z-0.0400 F10.0
G1 X2.0458 Y1.0656 F30.0
G1 X2.0592 Y1.0719 F30.0
G1 X2.0382 Y1.0844 F30.0
G1 X2.0305 Y1.0750 F30.0
G1 X2.0210 Y1.0750 F30.0
G1 X2.0115 Y1.0594 F30.0
G1 X2.0038 Y1.0563 F30.0
G1 X2.0191 Y1.0594 F30.0
G1 X2.0229 Y1.0719 F30.0
G1 X2.0401 Y1.0813 F30.0
G1 X2.0668 Y1.0906 F30.0
G1 X2.0649 Y1.0813 F30.0
G1 X2.0802 Y1.0844 F30.0
G1 X2.0725 Y1.0844 F30.0
G1 X2.0706 Y1.0875 F30.0
G1 X2.0763 Y1.0906 F30.0
G0 Z0.2000

; Path 43/111
G0 X2.5191 Y1.0906
G1 Z-0.0400 F10.0
G1 X2.5248 Y1.0844 F30.0
G1 X2.5286 Y1.0844 F30.0
G1 X2.5229 Y1.0906 F30.0
G1 X2.5019 Y1.1031 F30.0
G1 X2.5019 Y1.0969 F30.0
G1 X2.5134 Y1.0938 F30.0
G1 X2.5038 Y1.0969 F30.0
G1 X2.5038 Y1.1031 F30.0
G0 Z0.2000

; Path 44/111
G0 X0.5821 Y1.1000
G1 Z-0.0400 F10.0
G1 X0.5935 Y1.0781 F30.0
G1 X0.5916 Y1.0906 F30.0
G1 X0.5859 Y1.1000 F30.0
G0 Z0.2000

; Path 45/111
G0 X2.5878 Y1.1062
G1 Z-0.0400 F10.0
G1 X2.5992 Y1.0969 F30.0
G1 X2.6011 Y1.1000 F30.0
G1 X2.5935 Y1.1062 F30.0
G0 Z0.2000

; Path 46/111
G0 X2.4676 Y1.1219
G1 Z-0.0400 F10.0
G1 X2.4905 Y1.1094 F30.0
G1 X2.4771 Y1.1188 F30.0
G1 X2.4695 Y1.1188 F30.0
G0 Z0.2000

; Path 47/111
G0 X2.1107 Y1.1219
G1 Z-0.0400 F10.0
G1 X2.1126 Y1.1156 F30.0
G1 X2.1069 Y1.1094 F30.0
G1 X2.1011 Y1.1156 F30.0
G1 X2.0992 Y1.1125 F30.0
G1 X2.1107 Y1.1094 F30.0
G1 X2.1202 Y1.1156 F30.0
G1 X2.1164 Y1.1219 F30.0
G1 X2.1317 Y1.1500 F30.0
G1 X2.1145 Y1.1375 F30.0
G1 X2.1355 Y1.1375 F30.0
G1 X2.1298 Y1.1438 F30.0
G1 X2.1317 Y1.1469 F30.0
G1 X2.1489 Y1.1625 F30.0
G1 X2.1603 Y1.1625 F30.0
G1 X2.1756 Y1.1562 F30.0
G1 X2.1813 Y1.1500 F30.0
G1 X2.1889 Y1.1562 F30.0
G1 X2.1985 Y1.1844 F30.0
G1 X2.1947 Y1.1719 F30.0
G1 X2.2023 Y1.1625 F30.0
G1 X2.2004 Y1.1594 F30.0
G1 X2.2042 Y1.1594 F30.0
G1 X2.2023 Y1.1656 F30.0
G1 X2.2061 Y1.1656 F30.0
G1 X2.2061 Y1.1719 F30.0
G1 X2.1985 Y1.1781 F30.0
G1 X2.2061 Y1.1844 F30.0
G1 X2.2214 Y1.1844 F30.0
G1 X2.2328 Y1.1687 F30.0
G1 X2.2500 Y1.1719 F30.0
G1 X2.2347 Y1.1719 F30.0
G1 X2.2290 Y1.1844 F30.0
G1 X2.2481 Y1.1938 F30.0
G1 X2.2557 Y1.1813 F30.0
G1 X2.2595 Y1.1844 F30.0
G1 X2.2538 Y1.1906 F30.0
G1 X2.2557 Y1.1938 F30.0
G1 X2.2710 Y1.1813 F30.0
G1 X2.2710 Y1.1750 F30.0
G1 X2.2767 Y1.1781 F30.0
G1 X2.2729 Y1.1781 F30.0
G1 X2.2996 Y1.1906 F30.0
G1 X2.3034 Y1.1875 F30.0
G1 X2.3015 Y1.1844 F30.0
G1 X2.2920 Y1.1844 F30.0
G1 X2.2977 Y1.1781 F30.0
G1 X2.3034 Y1.1781 F30.0
G1 X2.3015 Y1.1844 F30.0
G1 X2.3053 Y1.1875 F30.0
G1 X2.3015 Y1.1906 F30.0
G1 X2.3225 Y1.1906 F30.0
G1 X2.3263 Y1.1844 F30.0
G1 X2.3282 Y1.1906 F30.0
G1 X2.3435 Y1.2000 F30.0
G1 X2.3492 Y1.2000 F30.0
G0 Z0.2000

; Path 48/111
G0 X2.4885 Y1.1594
G1 Z-0.0400 F10.0
G1 X2.4905 Y1.1562 F30.0
G0 Z0.2000

; Path 49/111
G0 X0.5821 Y1.1656
G1 Z-0.0400 F10.0
G1 X0.5802 Y1.1594 F30.0
G1 X0.5859 Y1.1344 F30.0
G1 X0.5821 Y1.1625 F30.0
G1 X0.5630 Y1.1844 F30.0
G1 X0.5649 Y1.1781 F30.0
G1 X0.5649 Y1.1844 F30.0
G1 X0.5782 Y1.2219 F30.0
G1 X0.5782 Y1.1938 F30.0
G1 X0.5821 Y1.1938 F30.0
G1 X0.5802 Y1.2000 F30.0
G1 X0.5840 Y1.2219 F30.0
G0 Z0.2000

; Path 50/111
G0 X2.4027 Y1.1938
G1 Z-0.0400 F10.0
G1 X2.4065 Y1.1875 F30.0
G1 X2.4065 Y1.1750 F30.0
G1 X2.4275 Y1.1750 F30.0
G1 X2.4370 Y1.1656 F30.0
G1 X2.4179 Y1.1625 F30.0
G1 X2.4141 Y1.1687 F30.0
G1 X2.3989 Y1.1687 F30.0
G1 X2.4046 Y1.1625 F30.0
G1 X2.4332 Y1.1625 F30.0
G1 X2.4466 Y1.1500 F30.0
G1 X2.4618 Y1.1469 F30.0
G1 X2.4714 Y1.1375 F30.0
G1 X2.4924 Y1.1313 F30.0
G1 X2.4752 Y1.1375 F30.0
G1 X2.4618 Y1.1500 F30.0
G1 X2.4504 Y1.1500 F30.0
G1 X2.4370 Y1.1625 F30.0
G1 X2.4447 Y1.1687 F30.0
G1 X2.4427 Y1.1719 F30.0
G1 X2.4370 Y1.1719 F30.0
G1 X2.4332 Y1.1781 F30.0
G1 X2.4237 Y1.1750 F30.0
G1 X2.4218 Y1.1813 F30.0
G1 X2.4065 Y1.1938 F30.0
G1 X2.3798 Y1.1969 F30.0
G1 X2.3779 Y1.1938 F30.0
G1 X2.3855 Y1.1844 F30.0
G1 X2.3779 Y1.1687 F30.0
G1 X2.3950 Y1.1813 F30.0
G1 X2.3836 Y1.1969 F30.0
G0 Z0.2000

; Path 51/111
G0 X1.2023 Y1.2438
G1 Z-0.0400 F10.0
G1 X1.2023 Y1.2344 F30.0
G1 X1.2042 Y1.2438 F30.0
G0 Z0.2000

; Path 52/111
G0 X2.3378 Y1.2563
G1 Z-0.0400 F10.0
G1 X2.3359 Y1.2500 F30.0
G1 X2.3340 Y1.2563 F30.0
G1 X2.3111 Y1.2812 F30.0
G1 X2.3149 Y1.2750 F30.0
G1 X2.3130 Y1.2812 F30.0
G0 Z0.2000

; Path 53/111
G0 X2.2824 Y1.2875
G1 Z-0.0400 F10.0
G1 X2.2863 Y1.2812 F30.0
G1 X2.2844 Y1.2875 F30.0
G1 X2.2672 Y1.3063 F30.0
G1 X2.2691 Y1.3063 F30.0
G0 Z0.2000

; Path 54/111
G0 X1.1508 Y1.2906
G1 Z-0.0400 F10.0
G1 X1.1527 Y1.2812 F30.0
G1 X1.1584 Y1.2812 F30.0
G1 X1.1622 Y1.2750 F30.0
G1 X1.1660 Y1.2750 F30.0
G1 X1.1565 Y1.2812 F30.0
G1 X1.1527 Y1.2906 F30.0
G0 Z0.2000

; Path 55/111
G0 X0.6031 Y1.3219
G1 Z-0.0400 F10.0
G1 X0.6031 Y1.3156 F30.0
G1 X0.5973 Y1.3094 F30.0
G1 X0.5992 Y1.3031 F30.0
G1 X0.5878 Y1.2969 F30.0
G1 X0.5992 Y1.2938 F30.0
G1 X0.5954 Y1.2875 F30.0
G1 X0.5935 Y1.2906 F30.0
G1 X0.5897 Y1.2844 F30.0
G1 X0.5821 Y1.2844 F30.0
G1 X0.5802 Y1.2781 F30.0
G1 X0.5859 Y1.2750 F30.0
G1 X0.5840 Y1.2563 F30.0
G1 X0.5802 Y1.2531 F30.0
G1 X0.5859 Y1.2469 F30.0
G1 X0.5916 Y1.2531 F30.0
G1 X0.5935 Y1.2719 F30.0
G1 X0.6031 Y1.2938 F30.0
G1 X0.6183 Y1.3156 F30.0
G1 X0.6107 Y1.3125 F30.0
G1 X0.6069 Y1.3219 F30.0
G1 X0.6202 Y1.3313 F30.0
G1 X0.6107 Y1.3281 F30.0
G1 X0.6202 Y1.3281 F30.0
G1 X0.6355 Y1.3625 F30.0
G1 X0.6355 Y1.3531 F30.0
G1 X0.6393 Y1.3563 F30.0
G0 Z0.2000

; Path 56/111
G0 X1.0992 Y1.3375
G1 Z-0.0400 F10.0
G1 X1.1088 Y1.3344 F30.0
G1 X1.1011 Y1.3344 F30.0
G1 X1.0859 Y1.3719 F30.0
G1 X1.0859 Y1.3625 F30.0
G1 X1.0916 Y1.3594 F30.0
G1 X1.0878 Y1.3688 F30.0
G1 X1.0687 Y1.3938 F30.0
G1 X1.0668 Y1.3906 F30.0
G1 X1.0706 Y1.3906 F30.0
G0 Z0.2000

; Path 57/111
G0 X2.2500 Y1.3531
G1 Z-0.0400 F10.0
G1 X2.2557 Y1.3438 F30.0
G1 X2.2576 Y1.3469 F30.0
G1 X2.2519 Y1.3531 F30.0
G0 Z0.2000

; Path 58/111
G0 X0.6660 Y1.4094
G1 Z-0.0400 F10.0
G1 X0.6679 Y1.4062 F30.0
G1 X0.6622 Y1.3906 F30.0
G1 X0.6565 Y1.3844 F30.0
G1 X0.6546 Y1.3875 F30.0
G1 X0.6527 Y1.3781 F30.0
G1 X0.6469 Y1.3844 F30.0
G1 X0.6450 Y1.3781 F30.0
G1 X0.6412 Y1.3813 F30.0
G1 X0.6431 Y1.3750 F30.0
G1 X0.6565 Y1.3781 F30.0
G1 X0.6737 Y1.4062 F30.0
G1 X0.6718 Y1.4094 F30.0
G1 X0.6813 Y1.4344 F30.0
G1 X0.6775 Y1.4313 F30.0
G1 X0.6756 Y1.4156 F30.0
G1 X0.6832 Y1.4188 F30.0
G1 X0.6794 Y1.4250 F30.0
G1 X0.6870 Y1.4344 F30.0
G0 Z0.2000

; Path 59/111
G0 X2.1985 Y1.4156
G1 Z-0.0400 F10.0
G1 X2.2004 Y1.4156 F30.0
G0 Z0.2000

; Path 60/111
G0 X1.0267 Y1.4469
G1 Z-0.0400 F10.0
G1 X1.0248 Y1.4375 F30.0
G1 X1.0344 Y1.4281 F30.0
G1 X1.0324 Y1.4344 F30.0
G1 X1.0382 Y1.4406 F30.0
G1 X1.0363 Y1.4438 F30.0
G1 X1.0305 Y1.4344 F30.0
G1 X1.0286 Y1.4469 F30.0
G1 X1.0134 Y1.4781 F30.0
G1 X1.0134 Y1.4719 F30.0
G1 X1.0191 Y1.4688 F30.0
G1 X0.9962 Y1.4875 F30.0
G1 X1.0000 Y1.4813 F30.0
G1 X0.9962 Y1.4813 F30.0
G1 X0.9924 Y1.4875 F30.0
G1 X0.9885 Y1.5250 F30.0
G1 X0.9905 Y1.5219 F30.0
G1 X0.9866 Y1.5156 F30.0
G1 X0.9847 Y1.5188 F30.0
G1 X0.9905 Y1.5125 F30.0
G1 X0.9866 Y1.5031 F30.0
G1 X0.9981 Y1.5063 F30.0
G1 X0.9885 Y1.5156 F30.0
G1 X0.9905 Y1.5219 F30.0
G0 Z0.2000

; Path 61/111
G0 X0.7214 Y1.4688
G1 Z-0.0400 F10.0
G1 X0.7156 Y1.4563 F30.0
G1 X0.7156 Y1.4438 F30.0
G1 X0.7080 Y1.4438 F30.0
G1 X0.7042 Y1.4375 F30.0
G1 X0.6985 Y1.4438 F30.0
G1 X0.6985 Y1.4500 F30.0
G1 X0.7023 Y1.4375 F30.0
G1 X0.6889 Y1.4281 F30.0
G1 X0.6947 Y1.4313 F30.0
G1 X0.6966 Y1.4250 F30.0
G1 X0.7004 Y1.4250 F30.0
G1 X0.6966 Y1.4313 F30.0
G1 X0.6985 Y1.4344 F30.0
G1 X0.7061 Y1.4281 F30.0
G1 X0.7042 Y1.4344 F30.0
G1 X0.7099 Y1.4438 F30.0
G1 X0.7252 Y1.4438 F30.0
G1 X0.7252 Y1.4563 F30.0
G1 X0.7214 Y1.4594 F30.0
G1 X0.7233 Y1.4688 F30.0
G0 Z0.2000

; Path 62/111
G0 X2.1431 Y1.4750
G1 Z-0.0400 F10.0
G1 X2.1450 Y1.4750 F30.0
G0 Z0.2000

; Path 63/111
G0 X0.9198 Y1.5438
G1 Z-0.0400 F10.0
G1 X0.9103 Y1.5281 F30.0
G1 X0.9046 Y1.5344 F30.0
G1 X0.8931 Y1.5344 F30.0
G1 X0.8912 Y1.5250 F30.0
G1 X0.8893 Y1.5312 F30.0
G1 X0.8760 Y1.5344 F30.0
G1 X0.8683 Y1.5219 F30.0
G1 X0.8607 Y1.5219 F30.0
G1 X0.8569 Y1.5156 F30.0
G1 X0.8435 Y1.5156 F30.0
G1 X0.8378 Y1.5031 F30.0
G1 X0.8340 Y1.5156 F30.0
G1 X0.8282 Y1.5094 F30.0
G1 X0.8187 Y1.5125 F30.0
G1 X0.8168 Y1.5000 F30.0
G1 X0.8130 Y1.5063 F30.0
G1 X0.7901 Y1.4969 F30.0
G1 X0.7863 Y1.5000 F30.0
G1 X0.7786 Y1.4906 F30.0
G1 X0.7805 Y1.4813 F30.0
G1 X0.7767 Y1.4750 F30.0
G1 X0.7767 Y1.4844 F30.0
G1 X0.7691 Y1.4906 F30.0
G1 X0.7672 Y1.4844 F30.0
G1 X0.7538 Y1.4844 F30.0
G1 X0.7519 Y1.4781 F30.0
G1 X0.7462 Y1.4781 F30.0
G1 X0.7481 Y1.4750 F30.0
G1 X0.7424 Y1.4625 F30.0
G1 X0.7385 Y1.4688 F30.0
G1 X0.7309 Y1.4625 F30.0
G1 X0.7385 Y1.4563 F30.0
G1 X0.7309 Y1.4500 F30.0
G1 X0.7462 Y1.4531 F30.0
G1 X0.7462 Y1.4688 F30.0
G1 X0.7576 Y1.4594 F30.0
G1 X0.7595 Y1.4656 F30.0
G1 X0.7653 Y1.4656 F30.0
G1 X0.7653 Y1.4750 F30.0
G1 X0.7691 Y1.4688 F30.0
G1 X0.7729 Y1.4688 F30.0
G1 X0.7786 Y1.4781 F30.0
G1 X0.7882 Y1.4750 F30.0
G1 X0.7863 Y1.4781 F30.0
G1 X0.7901 Y1.4875 F30.0
G1 X0.7939 Y1.4813 F30.0
G1 X0.7996 Y1.4844 F30.0
G1 X0.8015 Y1.4781 F30.0
G1 X0.8187 Y1.4781 F30.0
G1 X0.8263 Y1.4844 F30.0
G1 X0.8473 Y1.4844 F30.0
G1 X0.8607 Y1.4781 F30.0
G1 X0.8721 Y1.4844 F30.0
G1 X0.8740 Y1.4750 F30.0
G1 X0.8817 Y1.4750 F30.0
G1 X0.8931 Y1.4625 F30.0
G1 X0.8969 Y1.4688 F30.0
G1 X0.9084 Y1.4625 F30.0
G1 X0.9122 Y1.4563 F30.0
G1 X0.9122 Y1.4469 F30.0
G1 X0.9179 Y1.4625 F30.0
G1 X0.9256 Y1.4594 F30.0
G1 X0.9294 Y1.4406 F30.0
G1 X0.9294 Y1.4563 F30.0
G1 X0.9332 Y1.4563 F30.0
G1 X0.9351 Y1.4500 F30.0
G1 X0.9389 Y1.4531 F30.0
G1 X0.9447 Y1.4281 F30.0
G1 X0.9485 Y1.4469 F30.0
G1 X0.9561 Y1.4500 F30.0
G1 X0.9618 Y1.4438 F30.0
G1 X0.9656 Y1.4500 F30.0
G1 X0.9656 Y1.4656 F30.0
G1 X0.9714 Y1.4750 F30.0
G1 X0.9695 Y1.4906 F30.0
G1 X0.9771 Y1.5063 F30.0
G1 X0.9676 Y1.5000 F30.0
G1 X0.9656 Y1.5063 F30.0
G1 X0.9695 Y1.5125 F30.0
G1 X0.9656 Y1.5188 F30.0
G1 X0.9485 Y1.5281 F30.0
G1 X0.9198 Y1.5312 F30.0
G0 Z0.2000

; Path 64/111
G0 X0.9618 Y1.5688
G1 Z-0.0400 F10.0
G1 X0.9676 Y1.5594 F30.0
G1 X0.9695 Y1.5312 F30.0
G1 X0.9847 Y1.5312 F30.0
G1 X0.9809 Y1.5312 F30.0
G1 X0.9771 Y1.5406 F30.0
G1 X0.9695 Y1.5344 F30.0
G1 X0.9676 Y1.5375 F30.0
G1 X0.9714 Y1.5531 F30.0
G1 X0.9637 Y1.5688 F30.0
G1 X0.9485 Y1.6000 F30.0
G1 X0.9561 Y1.5844 F30.0
G1 X0.9485 Y1.5688 F30.0
G1 X0.9485 Y1.5844 F30.0
G1 X0.9504 Y1.5813 F30.0
G1 X0.9523 Y1.5875 F30.0
G1 X0.9466 Y1.5969 F30.0
G1 X0.9427 Y1.5938 F30.0
G1 X0.9447 Y1.6063 F30.0
G1 X0.9313 Y1.6313 F30.0
G1 X0.9332 Y1.6281 F30.0
G1 X0.9294 Y1.6250 F30.0
G1 X0.9294 Y1.6125 F30.0
G1 X0.9351 Y1.6156 F30.0
G1 X0.9370 Y1.6000 F30.0
G1 X0.9389 Y1.6156 F30.0
G1 X0.9332 Y1.6313 F30.0
G0 Z0.2000

; Path 65/111
G0 X0.9065 Y1.6719
G1 Z-0.0400 F10.0
G1 X0.9198 Y1.6594 F30.0
G1 X0.9179 Y1.6688 F30.0
G1 X0.9122 Y1.6656 F30.0
G1 X0.9103 Y1.6719 F30.0
G0 Z0.2000

; Path 66/111
G0 X0.8798 Y1.7375
G1 Z-0.0400 F10.0
G1 X0.8760 Y1.7344 F30.0
G1 X0.8779 Y1.7250 F30.0
G1 X0.8817 Y1.7250 F30.0
G1 X0.8817 Y1.7344 F30.0
G1 X0.8874 Y1.7313 F30.0
G1 X0.8893 Y1.7375 F30.0
G0 Z0.2000

; Path 67/111
G0 X0.8588 Y1.7750
G1 Z-0.0400 F10.0
G1 X0.8664 Y1.7656 F30.0
G1 X0.8664 Y1.7563 F30.0
G1 X0.8683 Y1.7688 F30.0
G1 X0.8607 Y1.7750 F30.0
G1 X0.8531 Y1.8188 F30.0
G1 X0.8492 Y1.8125 F30.0
G1 X0.8531 Y1.8094 F30.0
G1 X0.8454 Y1.8063 F30.0
G1 X0.8588 Y1.8063 F30.0
G1 X0.8550 Y1.8156 F30.0
G0 Z0.2000

; Path 68/111
G0 X0.8321 Y1.8719
G1 Z-0.0400 F10.0
G1 X0.8340 Y1.8656 F30.0
G1 X0.8340 Y1.8719 F30.0
G0 Z0.2000

; Path 69/111
G0 X0.8187 Y1.9188
G1 Z-0.0400 F10.0
G1 X0.8244 Y1.9094 F30.0
G1 X0.8225 Y1.9188 F30.0
G1 X0.8073 Y1.9469 F30.0
G1 X0.8053 Y1.9406 F30.0
G1 X0.8149 Y1.9375 F30.0
G1 X0.8092 Y1.9469 F30.0
G0 Z0.2000

; Path 70/111
G0 X1.8950 Y1.9313
G1 Z-0.0400 F10.0
G1 X1.8969 Y1.9281 F30.0
G0 Z0.2000

; Path 71/111
G0 X1.8645 Y1.9938
G1 Z-0.0400 F10.0
G1 X1.8683 Y1.9875 F30.0
G1 X1.8664 Y1.9938 F30.0
G0 Z0.2000

; Path 72/111
G0 X0.7805 Y2.0156
G1 Z-0.0400 F10.0
G1 X0.7920 Y2.0063 F30.0
G1 X0.7939 Y2.0000 F30.0
G1 X0.7920 Y2.0094 F30.0
G1 X0.7882 Y2.0094 F30.0
G1 X0.7863 Y2.0156 F30.0
G0 Z0.2000

; Path 73/111
G0 X0.7672 Y2.0906
G1 Z-0.0400 F10.0
G1 X0.7595 Y2.0844 F30.0
G1 X0.7615 Y2.0813 F30.0
G1 X0.7710 Y2.0844 F30.0
G1 X0.7691 Y2.0906 F30.0
G1 X0.7576 Y2.1187 F30.0
G1 X0.7615 Y2.1187 F30.0
G1 X0.7519 Y2.1531 F30.0
G1 X0.7500 Y2.1469 F30.0
G1 X0.7519 Y2.1438 F30.0
G1 X0.7538 Y2.1500 F30.0
G1 X0.7443 Y2.1812 F30.0
G1 X0.7462 Y2.1750 F30.0
G1 X0.7462 Y2.1812 F30.0
G0 Z0.2000

; Path 74/111
G0 X1.8149 Y2.1094
G1 Z-0.0400 F10.0
G1 X1.8149 Y2.1063 F30.0
G0 Z0.2000

; Path 75/111
G0 X1.7939 Y2.1812
G1 Z-0.0400 F10.0
G1 X1.7958 Y2.1781 F30.0
G0 Z0.2000

; Path 76/111
G0 X1.7615 Y2.2219
G1 Z-0.0400 F10.0
G1 X1.7653 Y2.2156 F30.0
G0 Z0.2000

; Path 77/111
G0 X0.7309 Y2.2531
G1 Z-0.0400 F10.0
G1 X0.7290 Y2.2437 F30.0
G1 X0.7233 Y2.2437 F30.0
G1 X0.7233 Y2.2313 F30.0
G1 X0.7347 Y2.2031 F30.0
G1 X0.7347 Y2.2125 F30.0
G1 X0.7252 Y2.2344 F30.0
G1 X0.7252 Y2.2406 F30.0
G1 X0.7290 Y2.2437 F30.0
G1 X0.7347 Y2.2313 F30.0
G1 X0.7347 Y2.2531 F30.0
G1 X0.7176 Y2.2781 F30.0
G1 X0.7195 Y2.2625 F30.0
G1 X0.7252 Y2.2656 F30.0
G1 X0.7176 Y2.2719 F30.0
G1 X0.7195 Y2.2781 F30.0
G0 Z0.2000

; Path 78/111
G0 X1.7538 Y2.2688
G1 Z-0.0400 F10.0
G1 X1.7557 Y2.2688 F30.0
G1 X1.7309 Y2.2906 F30.0
G1 X1.7328 Y2.2875 F30.0
G1 X1.7252 Y2.3313 F30.0
G1 X1.7233 Y2.3344 F30.0
G1 X1.7099 Y2.3656 F30.0
G1 X1.7118 Y2.3625 F30.0
G0 Z0.2000

; Path 79/111
G0 X0.7137 Y2.3438
G1 Z-0.0400 F10.0
G1 X0.7156 Y2.3344 F30.0
G1 X0.7061 Y2.3313 F30.0
G1 X0.7099 Y2.3188 F30.0
G1 X0.7099 Y2.3250 F30.0
G1 X0.7176 Y2.3375 F30.0
G0 Z0.2000

; Path 80/111
G0 X0.6927 Y2.4000
G1 Z-0.0400 F10.0
G1 X0.6966 Y2.3875 F30.0
G1 X0.6947 Y2.4000 F30.0
G0 Z0.2000

; Path 81/111
G0 X1.6870 Y2.4125
G1 Z-0.0400 F10.0
G1 X1.6908 Y2.4031 F30.0
G1 X1.6889 Y2.4125 F30.0
G1 X1.6737 Y2.4406 F30.0
G1 X1.6756 Y2.4406 F30.0
G1 X1.6584 Y2.4688 F30.0
G1 X1.6603 Y2.4688 F30.0
G1 X1.6469 Y2.5000 F30.0
G1 X1.6508 Y2.4938 F30.0
G1 X1.6489 Y2.5000 F30.0
G0 Z0.2000

; Path 82/111
G0 X0.6985 Y2.4469
G1 Z-0.0400 F10.0
G1 X0.6985 Y2.4406 F30.0
G1 X0.6927 Y2.4375 F30.0
G1 X0.6966 Y2.4500 F30.0
G1 X0.6870 Y2.4938 F30.0
G1 X0.6851 Y2.4844 F30.0
G1 X0.6947 Y2.4875 F30.0
G1 X0.6889 Y2.4938 F30.0
G0 Z0.2000

; Path 83/111
G0 X1.6221 Y2.5312
G1 Z-0.0400 F10.0
G1 X1.6240 Y2.5312 F30.0
G1 X1.6164 Y2.5750 F30.0
G1 X1.6164 Y2.5656 F30.0
G1 X1.6126 Y2.5719 F30.0
G1 X1.6145 Y2.5781 F30.0
G0 Z0.2000

; Path 84/111
G0 X0.6756 Y2.5531
G1 Z-0.0400 F10.0
G1 X0.6756 Y2.5375 F30.0
G1 X0.6813 Y2.5375 F30.0
G1 X0.6756 Y2.5438 F30.0
G1 X0.6832 Y2.5500 F30.0
G1 X0.6889 Y2.5438 F30.0
G1 X0.6870 Y2.5500 F30.0
G1 X0.6775 Y2.5531 F30.0
G0 Z0.2000

; Path 85/111
G0 X1.5878 Y2.6094
G1 Z-0.0400 F10.0
G1 X1.5878 Y2.6031 F30.0
G1 X1.5897 Y2.6094 F30.0
G0 Z0.2000

; Path 86/111
G0 X0.6813 Y2.6156
G1 Z-0.0400 F10.0
G1 X0.6756 Y2.6125 F30.0
G1 X0.6813 Y2.6063 F30.0
G1 X0.6679 Y2.6125 F30.0
G1 X0.6756 Y2.6250 F30.0
G1 X0.6698 Y2.6656 F30.0
G1 X0.6698 Y2.6562 F30.0
G1 X0.6775 Y2.6531 F30.0
G1 X0.6718 Y2.6625 F30.0
G1 X0.6718 Y2.7000 F30.0
G1 X0.6698 Y2.6906 F30.0
G1 X0.6641 Y2.6938 F30.0
G1 X0.6698 Y2.6875 F30.0
G1 X0.6737 Y2.6906 F30.0
G1 X0.6737 Y2.7000 F30.0
G0 Z0.2000

; Path 87/111
G0 X1.5668 Y2.6500
G1 Z-0.0400 F10.0
G1 X1.5668 Y2.6438 F30.0
G1 X1.5687 Y2.6469 F30.0
G0 Z0.2000

; Path 88/111
G0 X1.5363 Y2.7188
G1 Z-0.0400 F10.0
G1 X1.5382 Y2.7094 F30.0
G1 X1.5382 Y2.7188 F30.0
G1 X1.5267 Y2.7469 F30.0
G1 X1.5286 Y2.7469 F30.0
G0 Z0.2000

; Path 89/111
G0 X0.6584 Y2.7781
G1 Z-0.0400 F10.0
G1 X0.6584 Y2.7594 F30.0
G1 X0.6641 Y2.7531 F30.0
G1 X0.6603 Y2.7750 F30.0
G1 X0.6698 Y2.8094 F30.0
G1 X0.6718 Y2.7969 F30.0
G1 X0.6737 Y2.8094 F30.0
G1 X0.6698 Y2.8500 F30.0
G1 X0.6718 Y2.8438 F30.0
G1 X0.6718 Y2.8500 F30.0
G0 Z0.2000

; Path 90/111
G0 X1.4790 Y2.8344
G1 Z-0.0400 F10.0
G1 X1.4752 Y2.8250 F30.0
G1 X1.4847 Y2.8188 F30.0
G1 X1.4943 Y2.8188 F30.0
G1 X1.4943 Y2.8313 F30.0
G1 X1.4885 Y2.8281 F30.0
G1 X1.4885 Y2.8188 F30.0
G1 X1.4847 Y2.8188 F30.0
G1 X1.4790 Y2.8281 F30.0
G1 X1.4809 Y2.8344 F30.0
G1 X1.4599 Y2.8594 F30.0
G1 X1.4580 Y2.8625 F30.0
G0 Z0.2000

; Path 91/111
G0 X0.6660 Y2.9031
G1 Z-0.0400 F10.0
G1 X0.6660 Y2.8906 F30.0
G1 X0.6622 Y2.8844 F30.0
G1 X0.6679 Y2.9031 F30.0
G1 X0.6660 Y2.9313 F30.0
G1 X0.6641 Y2.9250 F30.0
G1 X0.6698 Y2.9250 F30.0
G1 X0.6679 Y2.9313 F30.0
G1 X0.6660 Y2.9656 F30.0
G1 X0.6660 Y2.9594 F30.0
G1 X0.6698 Y2.9594 F30.0
G1 X0.6698 Y2.9656 F30.0
G0 Z0.2000

; Path 92/111
G0 X1.4275 Y2.9250
G1 Z-0.0400 F10.0
G1 X1.4256 Y2.9219 F30.0
G1 X1.4313 Y2.9125 F30.0
G1 X1.4332 Y2.9156 F30.0
G0 Z0.2000

; Path 93/111
G0 X1.4103 Y2.9813
G1 Z-0.0400 F10.0
G1 X1.4141 Y2.9656 F30.0
G1 X1.4065 Y2.9594 F30.0
G1 X1.4122 Y2.9594 F30.0
G1 X1.4160 Y2.9719 F30.0
G1 X1.3969 Y3.0031 F30.0
G1 X1.4008 Y3.0000 F30.0
G1 X1.3950 Y2.9969 F30.0
G1 X1.3950 Y3.0063 F30.0
G0 Z0.2000

; Path 94/111
G0 X0.6756 Y3.0188
G1 Z-0.0400 F10.0
G1 X0.6698 Y3.0125 F30.0
G1 X0.6698 Y2.9813 F30.0
G1 X0.6756 Y2.9844 F30.0
G1 X0.6718 Y2.9906 F30.0
G1 X0.6756 Y2.9969 F30.0
G1 X0.6718 Y3.0031 F30.0
G1 X0.6775 Y3.0156 F30.0
G1 X0.6737 Y3.0406 F30.0
G1 X0.6718 Y3.0375 F30.0
G1 X0.6775 Y3.0250 F30.0
G1 X0.6794 Y3.0281 F30.0
G1 X0.6756 Y3.0375 F30.0
G0 Z0.2000

; Path 95/111
G0 X1.3683 Y3.0500
G1 Z-0.0400 F10.0
G1 X1.3702 Y3.0438 F30.0
G1 X1.3702 Y3.0500 F30.0
G1 X1.3492 Y3.0688 F30.0
G1 X1.3511 Y3.0688 F30.0
G0 Z0.2000

; Path 96/111
G0 X0.6927 Y3.1031
G1 Z-0.0400 F10.0
G1 X0.6908 Y3.0969 F30.0
G1 X0.6985 Y3.0969 F30.0
G1 X0.6947 Y3.1031 F30.0
G0 Z0.2000

; Path 97/111
G0 X1.3073 Y3.1344
G1 Z-0.0400 F10.0
G1 X1.3111 Y3.1281 F30.0
G1 X1.3092 Y3.1219 F30.0
G1 X1.3130 Y3.1219 F30.0
G1 X1.3149 Y3.1156 F30.0
G1 X1.3111 Y3.1313 F30.0
G1 X1.3149 Y3.1344 F30.0
G1 X1.3168 Y3.1281 F30.0
G1 X1.3206 Y3.1281 F30.0
G1 X1.3149 Y3.1344 F30.0
G0 Z0.2000

; Path 98/111
G0 X1.2767 Y3.1625
G1 Z-0.0400 F10.0
G1 X1.2882 Y3.1531 F30.0
G1 X1.2844 Y3.1625 F30.0
G0 Z0.2000

; Path 99/111
G0 X0.6985 Y3.1750
G1 Z-0.0400 F10.0
G1 X0.6966 Y3.1531 F30.0
G1 X0.6908 Y3.1438 F30.0
G1 X0.6908 Y3.1375 F30.0
G1 X0.6985 Y3.1531 F30.0
G1 X0.6985 Y3.1625 F30.0
G1 X0.7023 Y3.1688 F30.0
G1 X0.7004 Y3.1750 F30.0
G0 Z0.2000

; Path 100/111
G0 X1.2576 Y3.2125
G1 Z-0.0400 F10.0
G1 X1.2615 Y3.2125 F30.0
G1 X1.2729 Y3.1938 F30.0
G1 X1.2786 Y3.1906 F30.0
G1 X1.2691 Y3.1781 F30.0
G1 X1.2748 Y3.1750 F30.0
G1 X1.2805 Y3.1906 F30.0
G1 X1.2634 Y3.2125 F30.0
G1 X1.2405 Y3.2156 F30.0
G1 X1.2519 Y3.2031 F30.0
G1 X1.2500 Y3.2125 F30.0
G1 X1.2424 Y3.2156 F30.0
G1 X1.2347 Y3.2469 F30.0
G1 X1.2385 Y3.2375 F30.0
G1 X1.2443 Y3.2375 F30.0
G1 X1.2405 Y3.2375 F30.0
G1 X1.2366 Y3.2469 F30.0
G1 X1.2195 Y3.2656 F30.0
G1 X1.2137 Y3.2500 F30.0
G1 X1.2233 Y3.2500 F30.0
G1 X1.2195 Y3.2563 F30.0
G1 X1.2214 Y3.2625 F30.0
G1 X1.1947 Y3.2781 F30.0
G1 X1.2042 Y3.2594 F30.0
G1 X1.2042 Y3.2656 F30.0
G1 X1.1966 Y3.2781 F30.0
G0 Z0.2000

; Path 101/111
G0 X0.7290 Y3.2531
G1 Z-0.0400 F10.0
G1 X0.7156 Y3.2375 F30.0
G1 X0.7137 Y3.2281 F30.0
G1 X0.7233 Y3.2375 F30.0
G1 X0.7233 Y3.2438 F30.0
G1 X0.7290 Y3.2500 F30.0
G1 X0.7328 Y3.2469 F30.0
G1 X0.7290 Y3.2406 F30.0
G1 X0.7309 Y3.2375 F30.0
G1 X0.7347 Y3.2438 F30.0
G1 X0.7309 Y3.2531 F30.0
G0 Z0.2000

; Path 102/111
G0 X1.1584 Y3.3281
G1 Z-0.0400 F10.0
G1 X1.1584 Y3.3219 F30.0
G1 X1.1622 Y3.3219 F30.0
G1 X1.1660 Y3.3094 F30.0
G1 X1.1679 Y3.3219 F30.0
G1 X1.1641 Y3.3219 F30.0
G1 X1.1622 Y3.3281 F30.0
G1 X1.1412 Y3.3375 F30.0
G1 X1.1469 Y3.3281 F30.0
G1 X1.1450 Y3.3219 F30.0
G1 X1.1508 Y3.3188 F30.0
G1 X1.1489 Y3.3125 F30.0
G1 X1.1431 Y3.3281 F30.0
G1 X1.1393 Y3.3281 F30.0
G1 X1.1393 Y3.3344 F30.0
G1 X1.1336 Y3.3375 F30.0
G1 X1.1221 Y3.3656 F30.0
G1 X1.1298 Y3.3563 F30.0
G1 X1.1279 Y3.3500 F30.0
G1 X1.1336 Y3.3469 F30.0
G1 X1.1336 Y3.3531 F30.0
G1 X1.1240 Y3.3625 F30.0
G0 Z0.2000

; Path 103/111
G0 X0.7729 Y3.3281
G1 Z-0.0400 F10.0
G1 X0.7672 Y3.3250 F30.0
G1 X0.7672 Y3.3188 F30.0
G1 X0.7748 Y3.3281 F30.0
G1 X0.7901 Y3.3594 F30.0
G1 X0.7920 Y3.3531 F30.0
G1 X0.7958 Y3.3531 F30.0
G1 X0.7939 Y3.3594 F30.0
G0 Z0.2000

; Path 104/111
G0 X1.0782 Y3.3781
G1 Z-0.0400 F10.0
G1 X1.0763 Y3.3750 F30.0
G1 X1.0821 Y3.3781 F30.0
G1 X1.0878 Y3.3625 F30.0
G1 X1.0973 Y3.3625 F30.0
G1 X1.0897 Y3.3688 F30.0
G1 X1.0916 Y3.3750 F30.0
G1 X1.0878 Y3.3719 F30.0
G1 X1.0821 Y3.3781 F30.0
G0 Z0.2000

; Path 105/111
G0 X0.8206 Y3.4000
G1 Z-0.0400 F10.0
G1 X0.8206 Y3.3875 F30.0
G1 X0.8282 Y3.3875 F30.0
G1 X0.8282 Y3.3938 F30.0
G1 X0.8244 Y3.3938 F30.0
G1 X0.8225 Y3.4000 F30.0
G0 Z0.2000

; Path 106/111
G0 X1.0496 Y3.4188
G1 Z-0.0400 F10.0
G1 X1.0458 Y3.4094 F30.0
G1 X1.0420 Y3.4125 F30.0
G1 X1.0382 Y3.4062 F30.0
G1 X1.0382 Y3.3969 F30.0
G1 X1.0420 Y3.4000 F30.0
G1 X1.0458 Y3.3938 F30.0
G1 X1.0458 Y3.4031 F30.0
G1 X1.0515 Y3.4125 F30.0
G1 X1.0496 Y3.4156 F30.0
G0 Z0.2000

; Path 107/111
G0 X0.8607 Y3.4219
G1 Z-0.0400 F10.0
G1 X0.8550 Y3.4156 F30.0
G1 X0.8340 Y3.4156 F30.0
G1 X0.8435 Y3.4000 F30.0
G1 X0.8435 Y3.4094 F30.0
G1 X0.8473 Y3.4156 F30.0
G1 X0.8531 Y3.4125 F30.0
G1 X0.8645 Y3.4156 F30.0
G1 X0.8607 Y3.4188 F30.0
G0 Z0.2000

; Path 108/111
G0 X1.0134 Y3.4344
G1 Z-0.0400 F10.0
G1 X1.0172 Y3.4219 F30.0
G1 X1.0229 Y3.4281 F30.0
G1 X1.0153 Y3.4313 F30.0
G1 X1.0057 Y3.4406 F30.0
G1 X1.0038 Y3.4313 F30.0
G1 X0.9847 Y3.4344 F30.0
G1 X0.9752 Y3.4281 F30.0
G1 X0.9695 Y3.4344 F30.0
G1 X0.9618 Y3.4344 F30.0
G1 X0.9599 Y3.4281 F30.0
G1 X1.0019 Y3.4250 F30.0
G1 X1.0076 Y3.4188 F30.0
G1 X1.0134 Y3.4188 F30.0
G1 X1.0076 Y3.4313 F30.0
G1 X1.0076 Y3.4406 F30.0
G0 Z0.2000

; Path 109/111
G0 X0.9504 Y3.4531
G1 Z-0.0400 F10.0
G1 X0.9542 Y3.4469 F30.0
G1 X0.9466 Y3.4406 F30.0
G1 X0.9523 Y3.4313 F30.0
G1 X0.9561 Y3.4313 F30.0
G1 X0.9504 Y3.4406 F30.0
G1 X0.9542 Y3.4438 F30.0
G1 X0.9542 Y3.4531 F30.0
G0 Z0.2000

; Path 110/111
G0 X0.9065 Y3.4531
G1 Z-0.0400 F10.0
G1 X0.9103 Y3.4406 F30.0
G1 X0.9160 Y3.4375 F30.0
G1 X0.9141 Y3.4344 F30.0
G1 X0.9179 Y3.4344 F30.0
G1 X0.9141 Y3.4406 F30.0
G1 X0.9160 Y3.4469 F30.0
G1 X0.9141 Y3.4500 F30.0
G1 X0.9160 Y3.4469 F30.0
G1 X0.9122 Y3.4438 F30.0
G1 X0.9084 Y3.4500 F30.0
G0 Z0.2000

; Path 111/111
G0 X1.0687 Y3.7344
G1 Z-0.0400 F10.0
G1 X1.0706 Y3.7281 F30.0
G1 X1.0706 Y3.7344 F30.0
G0 Z0.2000


; Total paths: 111
G0 Z0.2
G0 X0 Y0
; Spindle already off
M2
