; Generated by Line to G-Code Converter
; File: test_thick_lines.png
; Tool diameter: 0.25 inch
; Cut depth: 0.25 inch
; Feed rate: 30.0 inch/min

G20
G90
G17
G0 Z0.5
; Spindle control disabled
G4 P2

; Path 1/1
G0 X0.6667 Y7.0800
G1 Z-0.2500 F10.0
G1 X0.6133 Y7.0000 F30.0
G1 X0.6133 Y1.0000 F30.0
G1 X0.6667 Y0.9200 F30.0
G1 X7.3600 Y0.9400 F30.0
G1 X7.3867 Y1.0000 F30.0
G1 X7.3867 Y7.0000 F30.0
G1 X7.3333 Y7.0800 F30.0
G0 Z0.5000


; Total paths: 1
G0 Z0.5
G0 X0 Y0
; Spindle already off
M2
