; Generated by Line to G-Code Converter
; File: test_pencil_sketch.png
; Tool diameter: 0.25 inch
; Cut depth: 0.25 inch
; Feed rate: 30.0 inch/min

G20
G90
G17
G0 Z0.5
; Spindle control disabled
G4 P2

; Path 1/200
G0 X5.0933 Y0.9800
G1 Z-0.2500 F10.0
G1 X5.1067 Y1.0000 F30.0
G1 X5.1067 Y0.9600 F30.0
G0 Z0.5000

; Path 2/200
G0 X3.2400 Y0.9800
G1 Z-0.2500 F10.0
G1 X3.2533 Y1.0000 F30.0
G1 X3.2533 Y0.9600 F30.0
G0 Z0.5000

; Path 3/200
G0 X1.6133 Y0.9800
G1 Z-0.2500 F10.0
G1 X1.6267 Y1.0000 F30.0
G1 X1.6267 Y0.9600 F30.0
G0 Z0.5000

; Path 4/200
G0 X1.0000 Y0.9800
G1 Z-0.2500 F10.0
G1 X1.0133 Y1.0000 F30.0
G1 X1.0133 Y0.9600 F30.0
G0 Z0.5000

; Path 5/200
G0 X6.6800 Y1.0000
G1 Z-0.2500 F10.0
G1 X6.7067 Y1.0000 F30.0
G1 X6.6933 Y0.9600 F30.0
G1 X6.6800 Y0.9800 F30.0
G0 Z0.5000

; Path 6/200
G0 X5.9733 Y1.0000
G1 Z-0.2500 F10.0
G1 X5.9467 Y0.9600 F30.0
G1 X5.9733 Y0.9200 F30.0
G1 X6.0000 Y0.9600 F30.0
G0 Z0.5000

; Path 7/200
G0 X4.6267 Y1.0000
G1 Z-0.2500 F10.0
G1 X4.6400 Y1.0200 F30.0
G1 X4.6400 Y0.9800 F30.0
G0 Z0.5000

; Path 8/200
G0 X7.0800 Y1.0200
G1 Z-0.2500 F10.0
G1 X7.0533 Y0.9800 F30.0
G1 X7.0800 Y0.9400 F30.0
G1 X7.1067 Y0.9800 F30.0
G0 Z0.5000

; Path 9/200
G0 X6.9733 Y1.0200
G1 Z-0.2500 F10.0
G1 X6.9867 Y1.0400 F30.0
G1 X6.9867 Y1.0000 F30.0
G0 Z0.5000

; Path 10/200
G0 X3.4400 Y1.0200
G1 Z-0.2500 F10.0
G1 X3.4533 Y1.0400 F30.0
G1 X3.4533 Y1.0000 F30.0
G0 Z0.5000

; Path 11/200
G0 X2.2667 Y1.0200
G1 Z-0.2500 F10.0
G1 X2.1867 Y0.9600 F30.0
G1 X2.2133 Y0.9200 F30.0
G1 X2.2933 Y0.9800 F30.0
G0 Z0.5000

; Path 12/200
G0 X1.0133 Y1.0200
G1 Z-0.2500 F10.0
G1 X1.0267 Y1.0400 F30.0
G1 X1.0267 Y1.0000 F30.0
G0 Z0.5000

; Path 13/200
G0 X2.7600 Y1.0400
G1 Z-0.2500 F10.0
G1 X2.7333 Y1.0000 F30.0
G1 X2.7600 Y0.9200 F30.0
G1 X2.7867 Y0.9000 F30.0
G1 X2.8267 Y0.9600 F30.0
G1 X2.7733 Y1.0200 F30.0
G0 Z0.5000

; Path 14/200
G0 X5.4933 Y1.0600
G1 Z-0.2500 F10.0
G1 X5.4533 Y1.0000 F30.0
G1 X5.4933 Y0.9400 F30.0
G1 X5.5600 Y1.0200 F30.0
G1 X5.5733 Y0.9200 F30.0
G1 X5.6133 Y0.8800 F30.0
G1 X5.7067 Y1.0000 F30.0
G1 X5.6800 Y1.0400 F30.0
G1 X5.6533 Y1.0000 F30.0
G1 X5.6133 Y1.0400 F30.0
G1 X5.5733 Y1.0000 F30.0
G1 X5.5333 Y1.0600 F30.0
G1 X5.5067 Y1.0400 F30.0
G0 Z0.5000

; Path 15/200
G0 X3.6800 Y1.0600
G1 Z-0.2500 F10.0
G1 X3.6400 Y1.0000 F30.0
G1 X3.5867 Y1.0000 F30.0
G1 X3.5867 Y0.9200 F30.0
G1 X3.6400 Y0.9200 F30.0
G1 X3.6533 Y1.0200 F30.0
G1 X3.7067 Y0.9800 F30.0
G1 X3.7333 Y1.0200 F30.0
G1 X3.7067 Y1.0600 F30.0
G1 X3.6933 Y1.0400 F30.0
G0 Z0.5000

; Path 16/200
G0 X2.6533 Y1.0600
G1 Z-0.2500 F10.0
G1 X2.6000 Y0.9800 F30.0
G1 X2.6267 Y0.9400 F30.0
G1 X2.6800 Y0.9600 F30.0
G1 X2.6933 Y1.0000 F30.0
G1 X2.6667 Y1.0400 F30.0
G0 Z0.5000

; Path 17/200
G0 X7.1600 Y1.0800
G1 Z-0.2500 F10.0
G1 X7.1333 Y1.0400 F30.0
G1 X7.1600 Y1.0000 F30.0
G1 X7.1600 Y0.9200 F30.0
G1 X7.1867 Y0.9000 F30.0
G1 X7.2267 Y0.9600 F30.0
G1 X7.1867 Y1.0400 F30.0
G0 Z0.5000

; Path 18/200
G0 X7.0133 Y1.0800
G1 Z-0.2500 F10.0
G1 X6.9333 Y1.0000 F30.0
G1 X6.9600 Y0.9600 F30.0
G1 X7.0400 Y1.0400 F30.0
G0 Z0.5000

; Path 19/200
G0 X6.1067 Y1.0800
G1 Z-0.2500 F10.0
G1 X6.0667 Y1.0400 F30.0
G1 X6.0400 Y0.9600 F30.0
G1 X6.0800 Y0.9000 F30.0
G1 X6.1467 Y0.9600 F30.0
G1 X6.1600 Y1.0000 F30.0
G1 X6.1200 Y1.0600 F30.0
G0 Z0.5000

; Path 20/200
G0 X5.8933 Y1.0800
G1 Z-0.2500 F10.0
G1 X5.8667 Y1.0400 F30.0
G1 X5.9067 Y0.9600 F30.0
G1 X5.9333 Y1.0000 F30.0
G1 X5.9200 Y1.0400 F30.0
G0 Z0.5000

; Path 21/200
G0 X5.7467 Y1.0800
G1 Z-0.2500 F10.0
G1 X5.7200 Y1.0400 F30.0
G1 X5.7467 Y1.0000 F30.0
G1 X5.7467 Y0.9200 F30.0
G1 X5.7733 Y0.9000 F30.0
G1 X5.8133 Y0.9600 F30.0
G1 X5.7733 Y1.0400 F30.0
G0 Z0.5000

; Path 22/200
G0 X5.3600 Y1.0800
G1 Z-0.2500 F10.0
G1 X5.3333 Y1.0200 F30.0
G1 X5.3733 Y0.9600 F30.0
G1 X5.4133 Y1.0200 F30.0
G1 X5.3733 Y1.0800 F30.0
G0 Z0.5000

; Path 23/200
G0 X5.1600 Y1.0800
G1 Z-0.2500 F10.0
G1 X5.0933 Y0.9800 F30.0
G1 X5.0800 Y1.0000 F30.0
G1 X5.0400 Y0.9600 F30.0
G1 X5.0133 Y1.0000 F30.0
G1 X4.9867 Y0.9600 F30.0
G1 X5.0133 Y0.9200 F30.0
G1 X5.0400 Y0.9600 F30.0
G1 X5.0800 Y0.9200 F30.0
G1 X5.1067 Y0.9600 F30.0
G1 X5.1600 Y0.9200 F30.0
G1 X5.2000 Y0.9600 F30.0
G1 X5.2400 Y0.9200 F30.0
G1 X5.2667 Y0.9600 F30.0
G1 X5.1733 Y1.0600 F30.0
G0 Z0.5000

; Path 24/200
G0 X4.8533 Y1.0800
G1 Z-0.2500 F10.0
G1 X4.8267 Y1.0400 F30.0
G1 X4.9067 Y0.9600 F30.0
G1 X4.9467 Y1.0200 F30.0
G1 X4.9333 Y1.0600 F30.0
G1 X4.8667 Y1.0600 F30.0
G0 Z0.5000

; Path 25/200
G0 X4.7467 Y1.0800
G1 Z-0.2500 F10.0
G1 X4.7067 Y1.0200 F30.0
G1 X4.6400 Y1.0200 F30.0
G1 X4.6133 Y1.0600 F30.0
G1 X4.5867 Y1.0200 F30.0
G1 X4.6800 Y0.9200 F30.0
G1 X4.7067 Y0.9400 F30.0
G1 X4.7200 Y1.0400 F30.0
G1 X4.7733 Y0.9800 F30.0
G1 X4.8000 Y1.0200 F30.0
G1 X4.7600 Y1.0600 F30.0
G0 Z0.5000

; Path 26/200
G0 X2.5467 Y1.0800
G1 Z-0.2500 F10.0
G1 X2.4667 Y1.0200 F30.0
G1 X2.4267 Y1.0600 F30.0
G1 X2.3867 Y1.0200 F30.0
G1 X2.3600 Y1.0400 F30.0
G1 X2.3333 Y1.0000 F30.0
G1 X2.4267 Y0.9000 F30.0
G1 X2.5067 Y1.0000 F30.0
G1 X2.5467 Y0.9600 F30.0
G1 X2.5867 Y1.0200 F30.0
G1 X2.5600 Y1.0600 F30.0
G0 Z0.5000

; Path 27/200
G0 X6.6400 Y1.1000
G1 Z-0.2500 F10.0
G1 X6.6000 Y1.0600 F30.0
G1 X6.5867 Y0.9600 F30.0
G1 X6.6133 Y0.9200 F30.0
G1 X6.6800 Y0.9800 F30.0
G1 X6.7067 Y0.9200 F30.0
G1 X6.7600 Y0.9200 F30.0
G1 X6.7600 Y1.0000 F30.0
G1 X6.7067 Y1.0000 F30.0
G1 X6.6533 Y1.0800 F30.0
G0 Z0.5000

; Path 28/200
G0 X6.3600 Y1.1000
G1 Z-0.2500 F10.0
G1 X6.3200 Y1.0600 F30.0
G1 X6.2667 Y1.0600 F30.0
G1 X6.2400 Y1.0000 F30.0
G1 X6.2000 Y1.0000 F30.0
G1 X6.2000 Y0.9200 F30.0
G1 X6.2267 Y0.9000 F30.0
G1 X6.2800 Y0.9800 F30.0
G1 X6.2933 Y0.9600 F30.0
G1 X6.3333 Y1.0000 F30.0
G1 X6.4000 Y0.9000 F30.0
G1 X6.4533 Y0.9800 F30.0
G1 X6.4800 Y0.9600 F30.0
G1 X6.5067 Y1.0000 F30.0
G1 X6.5333 Y0.9600 F30.0
G1 X6.5600 Y1.0000 F30.0
G1 X6.5333 Y1.0400 F30.0
G1 X6.5067 Y1.0000 F30.0
G1 X6.4800 Y1.0400 F30.0
G1 X6.4533 Y1.0000 F30.0
G1 X6.3733 Y1.0800 F30.0
G0 Z0.5000

; Path 29/200
G0 X3.8133 Y1.1000
G1 Z-0.2500 F10.0
G1 X3.7600 Y1.0200 F30.0
G1 X3.7867 Y0.9600 F30.0
G1 X3.8400 Y0.9200 F30.0
G1 X3.8800 Y0.9800 F30.0
G1 X3.9333 Y0.9200 F30.0
G1 X3.9867 Y1.0000 F30.0
G1 X4.0267 Y0.9400 F30.0
G1 X4.1067 Y0.9400 F30.0
G1 X4.1600 Y1.0000 F30.0
G1 X4.1733 Y0.9600 F30.0
G1 X4.2267 Y0.9600 F30.0
G1 X4.2667 Y0.9200 F30.0
G1 X4.3200 Y1.0000 F30.0
G1 X4.4000 Y0.9000 F30.0
G1 X4.4667 Y0.9800 F30.0
G1 X4.5200 Y0.9200 F30.0
G1 X4.5467 Y0.9400 F30.0
G1 X4.5467 Y1.0200 F30.0
G1 X4.4933 Y1.0200 F30.0
G1 X4.4533 Y1.0800 F30.0
G1 X4.3867 Y1.0000 F30.0
G1 X4.3467 Y1.0400 F30.0
G1 X4.3067 Y0.9800 F30.0
G1 X4.2667 Y1.0400 F30.0
G1 X4.2400 Y1.0200 F30.0
G1 X4.2000 Y1.0600 F30.0
G1 X4.1467 Y1.0000 F30.0
G1 X4.1333 Y1.0400 F30.0
G1 X4.0667 Y1.0600 F30.0
G1 X4.0000 Y0.9800 F30.0
G1 X3.9333 Y1.0800 F30.0
G1 X3.8800 Y1.0000 F30.0
G1 X3.8267 Y1.0800 F30.0
G0 Z0.5000

; Path 30/200
G0 X3.0000 Y1.1000
G1 Z-0.2500 F10.0
G1 X2.9333 Y1.0000 F30.0
G1 X2.9067 Y1.0600 F30.0
G1 X2.8533 Y1.0600 F30.0
G1 X2.8533 Y0.9800 F30.0
G1 X2.9200 Y0.9000 F30.0
G1 X2.9600 Y0.9600 F30.0
G1 X3.0000 Y0.9400 F30.0
G1 X3.0400 Y0.9800 F30.0
G1 X3.0667 Y0.9400 F30.0
G1 X3.0933 Y0.9800 F30.0
G1 X3.0133 Y1.0800 F30.0
G0 Z0.5000

; Path 31/200
G0 X2.0800 Y1.1000
G1 Z-0.2500 F10.0
G1 X2.0533 Y1.0800 F30.0
G1 X2.0400 Y1.0000 F30.0
G1 X1.9867 Y1.0000 F30.0
G1 X1.9867 Y0.9200 F30.0
G1 X2.0400 Y0.9200 F30.0
G1 X2.0533 Y1.0000 F30.0
G1 X2.1067 Y0.9200 F30.0
G1 X2.1333 Y0.9600 F30.0
G1 X2.0933 Y1.0800 F30.0
G0 Z0.5000

; Path 32/200
G0 X1.3733 Y1.1000
G1 Z-0.2500 F10.0
G1 X1.3333 Y1.0600 F30.0
G1 X1.3333 Y0.9800 F30.0
G1 X1.4000 Y0.9800 F30.0
G1 X1.4533 Y0.9000 F30.0
G1 X1.5067 Y0.9800 F30.0
G1 X1.5733 Y0.8800 F30.0
G1 X1.6267 Y0.9600 F30.0
G1 X1.6800 Y0.9200 F30.0
G1 X1.7333 Y0.9800 F30.0
G1 X1.7600 Y0.9600 F30.0
G1 X1.8000 Y1.0000 F30.0
G1 X1.8267 Y0.9600 F30.0
G1 X1.8533 Y1.0000 F30.0
G1 X1.9200 Y0.9200 F30.0
G1 X1.9467 Y0.9600 F30.0
G1 X1.8933 Y1.0200 F30.0
G1 X1.8667 Y0.9800 F30.0
G1 X1.8267 Y1.0400 F30.0
G1 X1.8000 Y1.0200 F30.0
G1 X1.7600 Y1.0800 F30.0
G1 X1.7200 Y1.0400 F30.0
G1 X1.6800 Y1.0800 F30.0
G1 X1.6267 Y1.0000 F30.0
G1 X1.5733 Y1.0400 F30.0
G1 X1.5467 Y1.0200 F30.0
G1 X1.5200 Y1.0600 F30.0
G1 X1.4933 Y1.0200 F30.0
G1 X1.4533 Y1.0600 F30.0
G1 X1.4133 Y1.0400 F30.0
G1 X1.3867 Y1.0800 F30.0
G0 Z0.5000

; Path 33/200
G0 X0.6667 Y1.1000
G1 Z-0.2500 F10.0
G1 X0.6800 Y1.1200 F30.0
G1 X0.6800 Y1.0800 F30.0
G0 Z0.5000

; Path 34/200
G0 X6.8267 Y1.1200
G1 Z-0.2500 F10.0
G1 X6.7867 Y1.0800 F30.0
G1 X6.7867 Y1.0000 F30.0
G1 X6.8533 Y0.9400 F30.0
G1 X6.8933 Y1.0000 F30.0
G1 X6.8400 Y1.1000 F30.0
G0 Z0.5000

; Path 35/200
G0 X3.4000 Y1.1200
G1 Z-0.2500 F10.0
G1 X3.3200 Y0.9800 F30.0
G1 X3.2800 Y1.0400 F30.0
G1 X3.2267 Y1.0000 F30.0
G1 X3.1600 Y1.0800 F30.0
G1 X3.1200 Y1.0200 F30.0
G1 X3.1333 Y0.9800 F30.0
G1 X3.2133 Y0.9000 F30.0
G1 X3.3067 Y1.0000 F30.0
G1 X3.3600 Y0.9200 F30.0
G1 X3.4400 Y1.0000 F30.0
G1 X3.4800 Y0.9600 F30.0
G1 X3.5333 Y1.0400 F30.0
G1 X3.5067 Y1.0800 F30.0
G1 X3.4667 Y1.0200 F30.0
G1 X3.4133 Y1.1000 F30.0
G0 Z0.5000

; Path 36/200
G0 X0.6400 Y1.2800
G1 Z-0.2500 F10.0
G1 X0.6000 Y1.2200 F30.0
G1 X0.6400 Y1.1600 F30.0
G1 X0.6400 Y1.0200 F30.0
G1 X0.6933 Y0.9400 F30.0
G1 X0.7067 Y0.9600 F30.0
G1 X0.7467 Y0.9200 F30.0
G1 X0.8133 Y1.0000 F30.0
G1 X0.8533 Y0.9400 F30.0
G1 X0.8933 Y1.0000 F30.0
G1 X0.9333 Y0.9400 F30.0
G1 X1.0000 Y0.9800 F30.0
G1 X1.0667 Y0.8800 F30.0
G1 X1.1067 Y0.9200 F30.0
G1 X1.1333 Y1.0000 F30.0
G1 X1.1867 Y0.9400 F30.0
G1 X1.2267 Y1.0000 F30.0
G1 X1.2533 Y0.9800 F30.0
G1 X1.2800 Y1.0200 F30.0
G1 X1.2533 Y1.0600 F30.0
G1 X1.2267 Y1.0200 F30.0
G1 X1.1867 Y1.0600 F30.0
G1 X1.1467 Y1.0000 F30.0
G1 X1.1067 Y1.0400 F30.0
G1 X1.0400 Y1.0200 F30.0
G1 X0.9733 Y1.1200 F30.0
G1 X0.8800 Y0.9800 F30.0
G1 X0.8533 Y1.0200 F30.0
G1 X0.8267 Y0.9800 F30.0
G1 X0.7867 Y1.0400 F30.0
G1 X0.7600 Y1.0200 F30.0
G1 X0.6533 Y1.1600 F30.0
G1 X0.6800 Y1.2200 F30.0
G1 X0.6533 Y1.2600 F30.0
G0 Z0.5000

; Path 37/200
G0 X0.6933 Y1.4000
G1 Z-0.2500 F10.0
G1 X0.6533 Y1.3400 F30.0
G1 X0.6667 Y1.3000 F30.0
G1 X0.7200 Y1.3000 F30.0
G1 X0.7333 Y1.3400 F30.0
G1 X0.7067 Y1.3800 F30.0
G0 Z0.5000

; Path 38/200
G0 X0.6400 Y1.7000
G1 Z-0.2500 F10.0
G1 X0.6000 Y1.6200 F30.0
G1 X0.6267 Y1.5600 F30.0
G1 X0.6000 Y1.5000 F30.0
G1 X0.6400 Y1.4000 F30.0
G1 X0.6800 Y1.5000 F30.0
G1 X0.6667 Y1.5400 F30.0
G1 X0.7067 Y1.6200 F30.0
G1 X0.6533 Y1.7000 F30.0
G0 Z0.5000

; Path 39/200
G0 X7.3333 Y1.7200
G1 Z-0.2500 F10.0
G1 X7.3067 Y1.7000 F30.0
G1 X7.3067 Y1.6200 F30.0
G1 X7.2667 Y1.5200 F30.0
G1 X7.3600 Y1.3600 F30.0
G1 X7.2667 Y1.2400 F30.0
G1 X7.3067 Y1.0800 F30.0
G1 X7.2667 Y1.0200 F30.0
G1 X7.2933 Y0.9800 F30.0
G1 X7.3200 Y1.0200 F30.0
G1 X7.2933 Y1.0600 F30.0
G1 X7.3600 Y1.0800 F30.0
G1 X7.3867 Y1.1400 F30.0
G1 X7.3600 Y1.2200 F30.0
G1 X7.4000 Y1.3000 F30.0
G1 X7.3467 Y1.3800 F30.0
G1 X7.3867 Y1.4400 F30.0
G1 X7.3333 Y1.6000 F30.0
G1 X7.3733 Y1.6600 F30.0
G1 X7.3467 Y1.7000 F30.0
G0 Z0.5000

; Path 40/200
G0 X7.3200 Y2.2200
G1 Z-0.2500 F10.0
G1 X7.2800 Y2.1600 F30.0
G1 X7.3200 Y2.1000 F30.0
G1 X7.2933 Y2.0400 F30.0
G1 X7.3600 Y1.9400 F30.0
G1 X7.3067 Y1.8800 F30.0
G1 X7.3067 Y1.8000 F30.0
G1 X7.3600 Y1.8000 F30.0
G1 X7.3600 Y1.8600 F30.0
G1 X7.3867 Y1.9000 F30.0
G1 X7.3467 Y1.9600 F30.0
G1 X7.4000 Y2.0400 F30.0
G1 X7.3333 Y2.2000 F30.0
G0 Z0.5000

; Path 41/200
G0 X4.0133 Y2.4000
G1 Z-0.2500 F10.0
G1 X4.0267 Y2.4200 F30.0
G1 X4.0267 Y2.3800 F30.0
G0 Z0.5000

; Path 42/200
G0 X2.5200 Y2.4000
G1 Z-0.2500 F10.0
G1 X2.5067 Y2.3800 F30.0
G1 X2.5333 Y2.3800 F30.0
G0 Z0.5000

; Path 43/200
G0 X6.5333 Y2.4200
G1 Z-0.2500 F10.0
G1 X6.5067 Y2.3800 F30.0
G1 X6.5333 Y2.3400 F30.0
G1 X6.5600 Y2.3800 F30.0
G0 Z0.5000

; Path 44/200
G0 X3.7200 Y2.4600
G1 Z-0.2500 F10.0
G1 X3.6933 Y2.4200 F30.0
G1 X3.7200 Y2.3800 F30.0
G1 X3.7467 Y2.4200 F30.0
G0 Z0.5000

; Path 45/200
G0 X2.4000 Y2.4600
G1 Z-0.2500 F10.0
G1 X2.3733 Y2.4200 F30.0
G1 X2.4000 Y2.3800 F30.0
G1 X2.4267 Y2.4200 F30.0
G0 Z0.5000

; Path 46/200
G0 X6.3200 Y2.4800
G1 Z-0.2500 F10.0
G1 X6.3067 Y2.4600 F30.0
G1 X6.3333 Y2.4600 F30.0
G0 Z0.5000

; Path 47/200
G0 X2.2933 Y2.4800
G1 Z-0.2500 F10.0
G1 X2.2533 Y2.4200 F30.0
G1 X2.2667 Y2.3800 F30.0
G1 X2.3200 Y2.3800 F30.0
G1 X2.3333 Y2.4200 F30.0
G1 X2.3067 Y2.4600 F30.0
G0 Z0.5000

; Path 48/200
G0 X6.4400 Y2.5000
G1 Z-0.2500 F10.0
G1 X6.4000 Y2.4400 F30.0
G1 X6.4133 Y2.4000 F30.0
G1 X6.4667 Y2.4000 F30.0
G1 X6.4800 Y2.4400 F30.0
G1 X6.4533 Y2.4800 F30.0
G0 Z0.5000

; Path 49/200
G0 X4.2000 Y2.5000
G1 Z-0.2500 F10.0
G1 X4.1733 Y2.4600 F30.0
G1 X4.2533 Y2.3800 F30.0
G1 X4.2933 Y2.4400 F30.0
G1 X4.2800 Y2.4800 F30.0
G1 X4.2133 Y2.4800 F30.0
G0 Z0.5000

; Path 50/200
G0 X3.8267 Y2.5000
G1 Z-0.2500 F10.0
G1 X3.7867 Y2.4400 F30.0
G1 X3.8267 Y2.3800 F30.0
G1 X3.8667 Y2.4400 F30.0
G1 X3.8933 Y2.3800 F30.0
G1 X3.9467 Y2.3800 F30.0
G1 X3.9867 Y2.3200 F30.0
G1 X4.0800 Y2.4200 F30.0
G1 X4.0533 Y2.4600 F30.0
G1 X4.0267 Y2.4200 F30.0
G1 X3.9600 Y2.4200 F30.0
G1 X3.9200 Y2.4800 F30.0
G1 X3.8800 Y2.4200 F30.0
G1 X3.8400 Y2.4800 F30.0
G0 Z0.5000

; Path 51/200
G0 X2.1867 Y2.5000
G1 Z-0.2500 F10.0
G1 X2.1733 Y2.4800 F30.0
G1 X2.2000 Y2.4800 F30.0
G0 Z0.5000

; Path 52/200
G0 X2.5867 Y2.5400
G1 Z-0.2500 F10.0
G1 X2.5467 Y2.4800 F30.0
G1 X2.5600 Y2.4400 F30.0
G1 X2.6133 Y2.4400 F30.0
G1 X2.6267 Y2.4800 F30.0
G1 X2.6000 Y2.5200 F30.0
G0 Z0.5000

; Path 53/200
G0 X2.0533 Y2.5400
G1 Z-0.2500 F10.0
G1 X2.0133 Y2.4800 F30.0
G1 X1.9867 Y2.4800 F30.0
G1 X2.0133 Y2.4800 F30.0
G1 X2.0533 Y2.4200 F30.0
G1 X2.0933 Y2.4800 F30.0
G1 X2.0667 Y2.5200 F30.0
G0 Z0.5000

; Path 54/200
G0 X7.3200 Y2.5600
G1 Z-0.2500 F10.0
G1 X7.3333 Y2.5800 F30.0
G1 X7.3333 Y2.5400 F30.0
G0 Z0.5000

; Path 55/200
G0 X6.2667 Y2.5600
G1 Z-0.2500 F10.0
G1 X6.2400 Y2.5200 F30.0
G1 X6.2667 Y2.4800 F30.0
G1 X6.2933 Y2.5200 F30.0
G0 Z0.5000

; Path 56/200
G0 X2.7467 Y2.5600
G1 Z-0.2500 F10.0
G1 X2.7200 Y2.5200 F30.0
G1 X2.8000 Y2.4400 F30.0
G1 X2.8400 Y2.5000 F30.0
G1 X2.8267 Y2.5400 F30.0
G1 X2.7600 Y2.5400 F30.0
G0 Z0.5000

; Path 57/200
G0 X6.1467 Y2.5800
G1 Z-0.2500 F10.0
G1 X6.1200 Y2.5400 F30.0
G1 X6.1467 Y2.5000 F30.0
G1 X6.1733 Y2.5400 F30.0
G0 Z0.5000

; Path 58/200
G0 X6.0267 Y2.5800
G1 Z-0.2500 F10.0
G1 X6.0133 Y2.5600 F30.0
G1 X6.0400 Y2.5600 F30.0
G0 Z0.5000

; Path 59/200
G0 X4.4133 Y2.5800
G1 Z-0.2500 F10.0
G1 X4.3600 Y2.5000 F30.0
G1 X4.3600 Y2.4200 F30.0
G1 X4.4133 Y2.4200 F30.0
G1 X4.4133 Y2.5000 F30.0
G1 X4.4400 Y2.5400 F30.0
G0 Z0.5000

; Path 60/200
G0 X3.5733 Y2.5800
G1 Z-0.2500 F10.0
G1 X3.5467 Y2.5400 F30.0
G1 X3.6000 Y2.5000 F30.0
G1 X3.6267 Y2.5400 F30.0
G1 X3.6000 Y2.5800 F30.0
G1 X3.5867 Y2.5600 F30.0
G0 Z0.5000

; Path 61/200
G0 X1.8667 Y2.5800
G1 Z-0.2500 F10.0
G1 X1.8400 Y2.5400 F30.0
G1 X1.8667 Y2.5000 F30.0
G1 X1.8933 Y2.5400 F30.0
G0 Z0.5000

; Path 62/200
G0 X2.9467 Y2.6000
G1 Z-0.2500 F10.0
G1 X2.9200 Y2.5600 F30.0
G1 X2.9467 Y2.5200 F30.0
G1 X2.9733 Y2.5600 F30.0
G0 Z0.5000

; Path 63/200
G0 X0.6533 Y2.6600
G1 Z-0.2500 F10.0
G1 X0.6667 Y2.6800 F30.0
G1 X0.6667 Y2.6400 F30.0
G0 Z0.5000

; Path 64/200
G0 X1.7067 Y2.6800
G1 Z-0.2500 F10.0
G1 X1.7200 Y2.7000 F30.0
G1 X1.7200 Y2.6600 F30.0
G0 Z0.5000

; Path 65/200
G0 X3.4933 Y2.7000
G1 Z-0.2500 F10.0
G1 X3.4667 Y2.6600 F30.0
G1 X3.4933 Y2.6200 F30.0
G1 X3.5200 Y2.6600 F30.0
G0 Z0.5000

; Path 66/200
G0 X5.9333 Y2.7200
G1 Z-0.2500 F10.0
G1 X5.9067 Y2.6800 F30.0
G1 X5.9333 Y2.6400 F30.0
G1 X5.9600 Y2.6800 F30.0
G0 Z0.5000

; Path 67/200
G0 X0.6933 Y2.7200
G1 Z-0.2500 F10.0
G1 X0.6000 Y2.5800 F30.0
G1 X0.6533 Y2.5000 F30.0
G1 X0.6000 Y2.4200 F30.0
G1 X0.6533 Y2.3400 F30.0
G1 X0.6533 Y2.3000 F30.0
G1 X0.6133 Y2.2400 F30.0
G1 X0.6533 Y2.1800 F30.0
G1 X0.6133 Y2.1000 F30.0
G1 X0.6400 Y2.0400 F30.0
G1 X0.6400 Y1.8000 F30.0
G1 X0.6933 Y1.8000 F30.0
G1 X0.7333 Y1.9200 F30.0
G1 X0.7333 Y2.0000 F30.0
G1 X0.6533 Y2.1600 F30.0
G1 X0.7200 Y2.3200 F30.0
G1 X0.6800 Y2.3800 F30.0
G1 X0.7200 Y2.4600 F30.0
G1 X0.6800 Y2.5200 F30.0
G1 X0.7067 Y2.5800 F30.0
G1 X0.6933 Y2.6400 F30.0
G1 X0.7200 Y2.6800 F30.0
G0 Z0.5000

; Path 68/200
G0 X3.0133 Y2.7600
G1 Z-0.2500 F10.0
G1 X2.9733 Y2.7000 F30.0
G1 X2.9867 Y2.6600 F30.0
G1 X3.0400 Y2.6600 F30.0
G1 X3.0533 Y2.7000 F30.0
G1 X3.0267 Y2.7400 F30.0
G0 Z0.5000

; Path 69/200
G0 X1.6800 Y2.7600
G1 Z-0.2500 F10.0
G1 X1.6400 Y2.7000 F30.0
G1 X1.6533 Y2.6600 F30.0
G1 X1.6933 Y2.6600 F30.0
G1 X1.7333 Y2.6000 F30.0
G1 X1.7600 Y2.6400 F30.0
G1 X1.6933 Y2.7400 F30.0
G0 Z0.5000

; Path 70/200
G0 X7.3333 Y2.8000
G1 Z-0.2500 F10.0
G1 X7.2933 Y2.7200 F30.0
G1 X7.3467 Y2.6400 F30.0
G1 X7.2800 Y2.5000 F30.0
G1 X7.3200 Y2.4400 F30.0
G1 X7.2667 Y2.3400 F30.0
G1 X7.2800 Y2.3000 F30.0
G1 X7.3467 Y2.3000 F30.0
G1 X7.4000 Y2.3800 F30.0
G1 X7.3467 Y2.4600 F30.0
G1 X7.3467 Y2.5600 F30.0
G1 X7.3733 Y2.6000 F30.0
G1 X7.3333 Y2.6600 F30.0
G1 X7.3733 Y2.7200 F30.0
G1 X7.3600 Y2.7600 F30.0
G0 Z0.5000

; Path 71/200
G0 X5.8133 Y2.8000
G1 Z-0.2500 F10.0
G1 X5.7867 Y2.7600 F30.0
G1 X5.8133 Y2.7200 F30.0
G1 X5.8400 Y2.7600 F30.0
G0 Z0.5000

; Path 72/200
G0 X3.1200 Y2.8000
G1 Z-0.2500 F10.0
G1 X3.0800 Y2.7400 F30.0
G1 X3.0933 Y2.7000 F30.0
G1 X3.1467 Y2.7000 F30.0
G1 X3.1600 Y2.7400 F30.0
G1 X3.1333 Y2.7800 F30.0
G0 Z0.5000

; Path 73/200
G0 X4.6800 Y2.8200
G1 Z-0.2500 F10.0
G1 X4.6533 Y2.8000 F30.0
G1 X4.6400 Y2.7000 F30.0
G1 X4.6133 Y2.7200 F30.0
G1 X4.5333 Y2.6600 F30.0
G1 X4.5600 Y2.6200 F30.0
G1 X4.6400 Y2.6200 F30.0
G1 X4.6400 Y2.7000 F30.0
G1 X4.6800 Y2.7000 F30.0
G1 X4.7200 Y2.7600 F30.0
G1 X4.6933 Y2.8000 F30.0
G0 Z0.5000

; Path 74/200
G0 X5.6933 Y2.8800
G1 Z-0.2500 F10.0
G1 X5.6533 Y2.8200 F30.0
G1 X5.6667 Y2.7800 F30.0
G1 X5.7200 Y2.7800 F30.0
G1 X5.7333 Y2.8200 F30.0
G1 X5.7067 Y2.8600 F30.0
G0 Z0.5000

; Path 75/200
G0 X3.2667 Y2.8800
G1 Z-0.2500 F10.0
G1 X3.2400 Y2.8400 F30.0
G1 X3.2933 Y2.8000 F30.0
G1 X3.2933 Y2.7200 F30.0
G1 X3.3733 Y2.6800 F30.0
G1 X3.4133 Y2.7400 F30.0
G1 X3.3733 Y2.8000 F30.0
G1 X3.2933 Y2.8000 F30.0
G1 X3.2933 Y2.8400 F30.0
G0 Z0.5000

; Path 76/200
G0 X1.5333 Y2.9000
G1 Z-0.2500 F10.0
G1 X1.5067 Y2.8600 F30.0
G1 X1.5333 Y2.8200 F30.0
G1 X1.5600 Y2.8600 F30.0
G0 Z0.5000

; Path 77/200
G0 X5.6000 Y2.9400
G1 Z-0.2500 F10.0
G1 X5.5867 Y2.9200 F30.0
G1 X5.6133 Y2.9200 F30.0
G0 Z0.5000

; Path 78/200
G0 X1.4533 Y2.9800
G1 Z-0.2500 F10.0
G1 X1.4267 Y2.9400 F30.0
G1 X1.4533 Y2.9000 F30.0
G1 X1.4800 Y2.9400 F30.0
G0 Z0.5000

; Path 79/200
G0 X5.5067 Y3.0000
G1 Z-0.2500 F10.0
G1 X5.4933 Y2.9800 F30.0
G1 X5.5200 Y2.9800 F30.0
G0 Z0.5000

; Path 80/200
G0 X4.8000 Y3.0200
G1 Z-0.2500 F10.0
G1 X4.8267 Y3.0400 F30.0
G1 X4.8400 Y3.0200 F30.0
G1 X4.8133 Y3.0000 F30.0
G0 Z0.5000

; Path 81/200
G0 X3.4533 Y3.0200
G1 Z-0.2500 F10.0
G1 X3.4400 Y3.0000 F30.0
G1 X3.4667 Y3.0000 F30.0
G0 Z0.5000

; Path 82/200
G0 X3.3467 Y3.0200
G1 Z-0.2500 F10.0
G1 X3.3200 Y2.9800 F30.0
G1 X3.3467 Y2.9400 F30.0
G1 X3.3733 Y2.9800 F30.0
G0 Z0.5000

; Path 83/200
G0 X3.1467 Y3.0200
G1 Z-0.2500 F10.0
G1 X3.1200 Y2.9800 F30.0
G1 X3.1467 Y2.9400 F30.0
G1 X3.1733 Y2.9800 F30.0
G0 Z0.5000

; Path 84/200
G0 X1.3067 Y3.0200
G1 Z-0.2500 F10.0
G1 X1.2933 Y3.0000 F30.0
G1 X1.3200 Y3.0000 F30.0
G0 Z0.5000

; Path 85/200
G0 X5.3733 Y3.1200
G1 Z-0.2500 F10.0
G1 X5.3467 Y3.0800 F30.0
G1 X5.3733 Y3.0400 F30.0
G1 X5.4000 Y3.0800 F30.0
G0 Z0.5000

; Path 86/200
G0 X3.6000 Y3.1200
G1 Z-0.2500 F10.0
G1 X3.5733 Y3.0800 F30.0
G1 X3.6000 Y3.0400 F30.0
G1 X3.6267 Y3.0800 F30.0
G0 Z0.5000

; Path 87/200
G0 X0.6933 Y3.1200
G1 Z-0.2500 F10.0
G1 X0.6533 Y3.0600 F30.0
G1 X0.6667 Y2.9800 F30.0
G1 X0.6400 Y2.9400 F30.0
G1 X0.6667 Y2.9000 F30.0
G1 X0.6267 Y2.8400 F30.0
G1 X0.6533 Y2.8000 F30.0
G1 X0.6800 Y2.8400 F30.0
G1 X0.6533 Y2.8800 F30.0
G1 X0.7333 Y3.0000 F30.0
G1 X0.7333 Y3.0600 F30.0
G1 X0.7067 Y3.1000 F30.0
G0 Z0.5000

; Path 88/200
G0 X4.8400 Y3.1400
G1 Z-0.2500 F10.0
G1 X4.8133 Y3.1200 F30.0
G1 X4.8133 Y3.0400 F30.0
G1 X4.7733 Y3.0000 F30.0
G1 X4.7733 Y2.9400 F30.0
G1 X4.7067 Y2.9200 F30.0
G1 X4.7067 Y2.8400 F30.0
G1 X4.7333 Y2.8200 F30.0
G1 X4.7600 Y2.8400 F30.0
G1 X4.7733 Y2.9200 F30.0
G1 X4.8267 Y2.9200 F30.0
G1 X4.8267 Y3.0000 F30.0
G1 X4.8800 Y3.0800 F30.0
G1 X4.8533 Y3.1200 F30.0
G0 Z0.5000

; Path 89/200
G0 X3.1467 Y3.1800
G1 Z-0.2500 F10.0
G1 X3.1067 Y3.1200 F30.0
G1 X3.1200 Y3.0800 F30.0
G1 X3.1733 Y3.0800 F30.0
G1 X3.1867 Y3.1200 F30.0
G1 X3.1600 Y3.1600 F30.0
G0 Z0.5000

; Path 90/200
G0 X5.2800 Y3.2000
G1 Z-0.2500 F10.0
G1 X5.2667 Y3.1800 F30.0
G1 X5.2933 Y3.1800 F30.0
G0 Z0.5000

; Path 91/200
G0 X7.3200 Y3.2200
G1 Z-0.2500 F10.0
G1 X7.2933 Y3.1800 F30.0
G1 X7.2933 Y3.1000 F30.0
G1 X7.3600 Y3.0000 F30.0
G1 X7.2933 Y2.9800 F30.0
G1 X7.2667 Y2.9200 F30.0
G1 X7.3200 Y2.8400 F30.0
G1 X7.3600 Y2.8800 F30.0
G1 X7.3867 Y2.9600 F30.0
G1 X7.3467 Y3.0200 F30.0
G1 X7.4000 Y3.1000 F30.0
G1 X7.3600 Y3.1600 F30.0
G0 Z0.5000

; Path 92/200
G0 X4.9200 Y3.2200
G1 Z-0.2500 F10.0
G1 X4.8933 Y3.1800 F30.0
G1 X4.9200 Y3.1400 F30.0
G1 X4.9467 Y3.1800 F30.0
G0 Z0.5000

; Path 93/200
G0 X3.0667 Y3.2200
G1 Z-0.2500 F10.0
G1 X3.0400 Y3.1800 F30.0
G1 X3.0667 Y3.1400 F30.0
G1 X3.0933 Y3.1800 F30.0
G0 Z0.5000

; Path 94/200
G0 X3.6933 Y3.2600
G1 Z-0.2500 F10.0
G1 X3.6800 Y3.2400 F30.0
G1 X3.7067 Y3.2400 F30.0
G0 Z0.5000

; Path 95/200
G0 X3.7600 Y3.3000
G1 Z-0.2500 F10.0
G1 X3.7467 Y3.2800 F30.0
G1 X3.7733 Y3.2800 F30.0
G0 Z0.5000

; Path 96/200
G0 X0.6667 Y3.3200
G1 Z-0.2500 F10.0
G1 X0.6267 Y3.2600 F30.0
G1 X0.6400 Y3.2200 F30.0
G1 X0.6933 Y3.2200 F30.0
G1 X0.7067 Y3.2600 F30.0
G1 X0.6800 Y3.3000 F30.0
G0 Z0.5000

; Path 97/200
G0 X5.1733 Y3.3600
G1 Z-0.2500 F10.0
G1 X5.1467 Y3.3200 F30.0
G1 X5.1733 Y3.2800 F30.0
G1 X5.2000 Y3.3200 F30.0
G0 Z0.5000

; Path 98/200
G0 X3.0533 Y3.4000
G1 Z-0.2500 F10.0
G1 X3.0133 Y3.3400 F30.0
G1 X3.0267 Y3.3000 F30.0
G1 X3.0800 Y3.3000 F30.0
G1 X3.0933 Y3.3400 F30.0
G1 X3.0667 Y3.3800 F30.0
G0 Z0.5000

; Path 99/200
G0 X0.6933 Y3.4200
G1 Z-0.2500 F10.0
G1 X0.6667 Y3.3800 F30.0
G1 X0.6933 Y3.3400 F30.0
G1 X0.7200 Y3.3800 F30.0
G0 Z0.5000

; Path 100/200
G0 X5.0133 Y3.4400
G1 Z-0.2500 F10.0
G1 X5.0267 Y3.4600 F30.0
G1 X5.0267 Y3.4200 F30.0
G0 Z0.5000

; Path 101/200
G0 X3.8800 Y3.4400
G1 Z-0.2500 F10.0
G1 X3.8667 Y3.4200 F30.0
G1 X3.8933 Y3.4200 F30.0
G0 Z0.5000

; Path 102/200
G0 X3.9733 Y3.4800
G1 Z-0.2500 F10.0
G1 X3.9600 Y3.4600 F30.0
G1 X3.9867 Y3.4600 F30.0
G0 Z0.5000

; Path 103/200
G0 X4.9867 Y3.5200
G1 Z-0.2500 F10.0
G1 X4.9200 Y3.4600 F30.0
G1 X4.9867 Y3.4000 F30.0
G1 X4.9467 Y3.3600 F30.0
G1 X4.9467 Y3.2800 F30.0
G1 X5.0000 Y3.2800 F30.0
G1 X5.0133 Y3.3200 F30.0
G1 X4.9733 Y3.3800 F30.0
G1 X5.0000 Y3.4200 F30.0
G1 X5.0400 Y3.3600 F30.0
G1 X5.0667 Y3.4000 F30.0
G1 X5.0000 Y3.5000 F30.0
G0 Z0.5000

; Path 104/200
G0 X4.1867 Y3.5400
G1 Z-0.2500 F10.0
G1 X4.1600 Y3.5000 F30.0
G1 X4.1867 Y3.4600 F30.0
G1 X4.2133 Y3.5000 F30.0
G0 Z0.5000

; Path 105/200
G0 X4.0800 Y3.5400
G1 Z-0.2500 F10.0
G1 X4.0533 Y3.5000 F30.0
G1 X4.0800 Y3.4600 F30.0
G1 X4.1067 Y3.5000 F30.0
G0 Z0.5000

; Path 106/200
G0 X4.8533 Y3.5600
G1 Z-0.2500 F10.0
G1 X4.8133 Y3.5000 F30.0
G1 X4.8267 Y3.4600 F30.0
G1 X4.8800 Y3.4600 F30.0
G1 X4.8933 Y3.5000 F30.0
G1 X4.8667 Y3.5400 F30.0
G0 Z0.5000

; Path 107/200
G0 X4.4267 Y3.5600
G1 Z-0.2500 F10.0
G1 X4.4133 Y3.5400 F30.0
G1 X4.4400 Y3.5400 F30.0
G0 Z0.5000

; Path 108/200
G0 X4.3467 Y3.6000
G1 Z-0.2500 F10.0
G1 X4.3200 Y3.5600 F30.0
G1 X4.3467 Y3.5200 F30.0
G1 X4.3733 Y3.5600 F30.0
G0 Z0.5000

; Path 109/200
G0 X2.9333 Y3.6000
G1 Z-0.2500 F10.0
G1 X2.9067 Y3.5600 F30.0
G1 X2.9333 Y3.5200 F30.0
G1 X2.9333 Y3.4600 F30.0
G1 X2.9867 Y3.4600 F30.0
G1 X3.0000 Y3.5000 F30.0
G1 X2.9733 Y3.5400 F30.0
G0 Z0.5000

; Path 110/200
G0 X4.7200 Y3.6200
G1 Z-0.2500 F10.0
G1 X4.6933 Y3.5800 F30.0
G1 X4.7200 Y3.5400 F30.0
G1 X4.7467 Y3.5800 F30.0
G0 Z0.5000

; Path 111/200
G0 X4.5467 Y3.6200
G1 Z-0.2500 F10.0
G1 X4.5067 Y3.5600 F30.0
G1 X4.5200 Y3.5200 F30.0
G1 X4.5733 Y3.5200 F30.0
G1 X4.5867 Y3.5600 F30.0
G1 X4.5600 Y3.6000 F30.0
G0 Z0.5000

; Path 112/200
G0 X5.0533 Y3.6400
G1 Z-0.2500 F10.0
G1 X5.0267 Y3.6000 F30.0
G1 X5.0533 Y3.5600 F30.0
G1 X5.0800 Y3.6000 F30.0
G0 Z0.5000

; Path 113/200
G0 X4.6267 Y3.6600
G1 Z-0.2500 F10.0
G1 X4.6000 Y3.6200 F30.0
G1 X4.6267 Y3.5800 F30.0
G1 X4.6533 Y3.6200 F30.0
G0 Z0.5000

; Path 114/200
G0 X2.9200 Y3.7800
G1 Z-0.2500 F10.0
G1 X2.8800 Y3.7200 F30.0
G1 X2.8933 Y3.6800 F30.0
G1 X2.9467 Y3.6800 F30.0
G1 X2.9600 Y3.7200 F30.0
G1 X2.9333 Y3.7600 F30.0
G0 Z0.5000

; Path 115/200
G0 X7.3600 Y3.8000
G1 Z-0.2500 F10.0
G1 X7.3067 Y3.7200 F30.0
G1 X7.3333 Y3.6600 F30.0
G1 X7.3067 Y3.5400 F30.0
G1 X7.3333 Y3.4800 F30.0
G1 X7.3067 Y3.4400 F30.0
G1 X7.3200 Y3.4000 F30.0
G1 X7.2800 Y3.3400 F30.0
G1 X7.3200 Y3.2800 F30.0
G1 X7.3600 Y3.3400 F30.0
G1 X7.3333 Y3.4000 F30.0
G1 X7.3600 Y3.4400 F30.0
G1 X7.3467 Y3.4800 F30.0
G1 X7.3867 Y3.5400 F30.0
G1 X7.3600 Y3.6400 F30.0
G1 X7.4133 Y3.7200 F30.0
G1 X7.3733 Y3.7800 F30.0
G0 Z0.5000

; Path 116/200
G0 X5.0533 Y3.8200
G1 Z-0.2500 F10.0
G1 X5.0267 Y3.7800 F30.0
G1 X5.0533 Y3.7400 F30.0
G1 X5.0800 Y3.7800 F30.0
G0 Z0.5000

; Path 117/200
G0 X7.3067 Y3.8800
G1 Z-0.2500 F10.0
G1 X7.3200 Y3.9000 F30.0
G1 X7.3200 Y3.8600 F30.0
G0 Z0.5000

; Path 118/200
G0 X2.9200 Y3.9000
G1 Z-0.2500 F10.0
G1 X2.9067 Y3.8800 F30.0
G1 X2.9333 Y3.8800 F30.0
G0 Z0.5000

; Path 119/200
G0 X0.6400 Y3.9200
G1 Z-0.2500 F10.0
G1 X0.6000 Y3.8600 F30.0
G1 X0.6133 Y3.7200 F30.0
G1 X0.6800 Y3.7000 F30.0
G1 X0.6000 Y3.6000 F30.0
G1 X0.6267 Y3.4800 F30.0
G1 X0.6800 Y3.4800 F30.0
G1 X0.6933 Y3.5200 F30.0
G1 X0.6667 Y3.5800 F30.0
G1 X0.7067 Y3.6600 F30.0
G1 X0.6667 Y3.7200 F30.0
G1 X0.6800 Y3.8600 F30.0
G1 X0.6533 Y3.9000 F30.0
G0 Z0.5000

; Path 120/200
G0 X2.9600 Y4.0000
G1 Z-0.2500 F10.0
G1 X2.9333 Y3.9600 F30.0
G1 X2.9600 Y3.9200 F30.0
G1 X2.9867 Y3.9600 F30.0
G0 Z0.5000

; Path 121/200
G0 X7.3333 Y4.1000
G1 Z-0.2500 F10.0
G1 X7.3067 Y4.0600 F30.0
G1 X7.3333 Y4.0200 F30.0
G1 X7.3333 Y3.9200 F30.0
G1 X7.2800 Y3.8400 F30.0
G1 X7.3067 Y3.8000 F30.0
G1 X7.3467 Y3.8600 F30.0
G1 X7.3867 Y3.8600 F30.0
G1 X7.4000 Y3.9000 F30.0
G1 X7.3600 Y3.9600 F30.0
G1 X7.3600 Y4.0600 F30.0
G0 Z0.5000

; Path 122/200
G0 X5.0533 Y4.1400
G1 Z-0.2500 F10.0
G1 X5.0533 Y4.1000 F30.0
G1 X5.0000 Y4.0200 F30.0
G1 X5.0400 Y3.9600 F30.0
G1 X5.0133 Y3.9200 F30.0
G1 X5.0400 Y3.8800 F30.0
G1 X5.0667 Y3.9200 F30.0
G1 X5.0400 Y3.9600 F30.0
G1 X5.0800 Y4.0200 F30.0
G1 X5.0400 Y4.0800 F30.0
G1 X5.0667 Y4.1200 F30.0
G0 Z0.5000

; Path 123/200
G0 X2.9600 Y4.3200
G1 Z-0.2500 F10.0
G1 X2.9333 Y4.2800 F30.0
G1 X2.9600 Y4.2400 F30.0
G1 X2.9200 Y4.1800 F30.0
G1 X2.9467 Y4.1400 F30.0
G1 X2.9733 Y4.1800 F30.0
G1 X2.9467 Y4.2200 F30.0
G1 X2.9867 Y4.2800 F30.0
G0 Z0.5000

; Path 124/200
G0 X5.0667 Y4.3400
G1 Z-0.2500 F10.0
G1 X5.0267 Y4.2800 F30.0
G1 X5.0400 Y4.2400 F30.0
G1 X5.0933 Y4.2400 F30.0
G1 X5.1067 Y4.2800 F30.0
G1 X5.0800 Y4.3200 F30.0
G0 Z0.5000

; Path 125/200
G0 X7.3467 Y4.4200
G1 Z-0.2500 F10.0
G1 X7.3067 Y4.3600 F30.0
G1 X7.3200 Y4.3000 F30.0
G1 X7.2800 Y4.2400 F30.0
G1 X7.2933 Y4.2000 F30.0
G1 X7.3467 Y4.2000 F30.0
G1 X7.3467 Y4.3000 F30.0
G1 X7.3867 Y4.3600 F30.0
G1 X7.3600 Y4.4000 F30.0
G0 Z0.5000

; Path 126/200
G0 X2.9867 Y4.4600
G1 Z-0.2500 F10.0
G1 X2.9467 Y4.4000 F30.0
G1 X2.9600 Y4.3600 F30.0
G1 X3.0133 Y4.3600 F30.0
G1 X3.0267 Y4.4000 F30.0
G1 X3.0000 Y4.4400 F30.0
G0 Z0.5000

; Path 127/200
G0 X5.0133 Y4.5000
G1 Z-0.2500 F10.0
G1 X4.9867 Y4.4600 F30.0
G1 X5.0133 Y4.4200 F30.0
G1 X5.0400 Y4.4600 F30.0
G0 Z0.5000

; Path 128/200
G0 X0.6533 Y4.5400
G1 Z-0.2500 F10.0
G1 X0.6000 Y4.4600 F30.0
G1 X0.6533 Y4.3000 F30.0
G1 X0.6533 Y4.2600 F30.0
G1 X0.6133 Y4.2000 F30.0
G1 X0.6667 Y4.1200 F30.0
G1 X0.6400 Y4.0800 F30.0
G1 X0.6667 Y4.0400 F30.0
G1 X0.6533 Y4.0200 F30.0
G1 X0.6800 Y3.9800 F30.0
G1 X0.7067 Y4.0200 F30.0
G1 X0.6533 Y4.1400 F30.0
G1 X0.6933 Y4.2000 F30.0
G1 X0.6800 Y4.3000 F30.0
G1 X0.7200 Y4.3800 F30.0
G1 X0.6933 Y4.5000 F30.0
G1 X0.6667 Y4.5200 F30.0
G0 Z0.5000

; Path 129/200
G0 X5.0133 Y4.6000
G1 Z-0.2500 F10.0
G1 X5.0000 Y4.5800 F30.0
G1 X5.0267 Y4.5800 F30.0
G0 Z0.5000

; Path 130/200
G0 X0.6667 Y4.6600
G1 Z-0.2500 F10.0
G1 X0.6800 Y4.6800 F30.0
G1 X0.6800 Y4.6400 F30.0
G0 Z0.5000

; Path 131/200
G0 X7.3600 Y4.7000
G1 Z-0.2500 F10.0
G1 X7.2800 Y4.5800 F30.0
G1 X7.2800 Y4.5000 F30.0
G1 X7.3200 Y4.4600 F30.0
G1 X7.3733 Y4.5400 F30.0
G1 X7.3467 Y4.6000 F30.0
G1 X7.3867 Y4.6600 F30.0
G0 Z0.5000

; Path 132/200
G0 X4.9733 Y4.7000
G1 Z-0.2500 F10.0
G1 X4.9467 Y4.6600 F30.0
G1 X4.9733 Y4.6200 F30.0
G1 X5.0000 Y4.6600 F30.0
G0 Z0.5000

; Path 133/200
G0 X3.0000 Y4.7200
G1 Z-0.2500 F10.0
G1 X2.9733 Y4.6800 F30.0
G1 X3.0133 Y4.6200 F30.0
G1 X2.9867 Y4.5800 F30.0
G1 X3.0133 Y4.5400 F30.0
G1 X3.0400 Y4.5800 F30.0
G1 X3.0000 Y4.6400 F30.0
G1 X3.0267 Y4.6800 F30.0
G0 Z0.5000

; Path 134/200
G0 X3.0800 Y4.8600
G1 Z-0.2500 F10.0
G1 X3.0400 Y4.8000 F30.0
G1 X3.0533 Y4.7600 F30.0
G1 X3.1067 Y4.7600 F30.0
G1 X3.1200 Y4.8000 F30.0
G1 X3.0933 Y4.8400 F30.0
G0 Z0.5000

; Path 135/200
G0 X4.9333 Y4.8800
G1 Z-0.2500 F10.0
G1 X4.8933 Y4.8200 F30.0
G1 X4.9067 Y4.7800 F30.0
G1 X4.9600 Y4.7800 F30.0
G1 X4.9733 Y4.8200 F30.0
G1 X4.9467 Y4.8600 F30.0
G0 Z0.5000

; Path 136/200
G0 X7.3600 Y4.9200
G1 Z-0.2500 F10.0
G1 X7.3067 Y4.8600 F30.0
G1 X7.3067 Y4.7800 F30.0
G1 X7.3467 Y4.7400 F30.0
G1 X7.3867 Y4.7800 F30.0
G1 X7.4000 Y4.8600 F30.0
G1 X7.3733 Y4.9000 F30.0
G0 Z0.5000

; Path 137/200
G0 X4.8933 Y4.9400
G1 Z-0.2500 F10.0
G1 X4.8800 Y4.9200 F30.0
G1 X4.9067 Y4.9200 F30.0
G0 Z0.5000

; Path 138/200
G0 X4.7867 Y5.0800
G1 Z-0.2500 F10.0
G1 X4.7733 Y5.0600 F30.0
G1 X4.8000 Y5.0600 F30.0
G0 Z0.5000

; Path 139/200
G0 X3.2267 Y5.1600
G1 Z-0.2500 F10.0
G1 X3.1600 Y5.1000 F30.0
G1 X3.1467 Y5.0000 F30.0
G1 X3.1067 Y5.0000 F30.0
G1 X3.1067 Y4.9200 F30.0
G1 X3.1600 Y4.9200 F30.0
G1 X3.1600 Y5.0000 F30.0
G1 X3.2133 Y5.0200 F30.0
G1 X3.2533 Y5.1200 F30.0
G0 Z0.5000

; Path 140/200
G0 X7.3600 Y5.2400
G1 Z-0.2500 F10.0
G1 X7.3200 Y5.1800 F30.0
G1 X7.3200 Y5.1000 F30.0
G1 X7.2667 Y5.0400 F30.0
G1 X7.2667 Y4.9600 F30.0
G1 X7.3067 Y4.9200 F30.0
G1 X7.3467 Y4.9600 F30.0
G1 X7.3467 Y5.0600 F30.0
G1 X7.3733 Y5.0800 F30.0
G1 X7.4000 Y5.1800 F30.0
G1 X7.3733 Y5.2200 F30.0
G0 Z0.5000

; Path 141/200
G0 X4.6667 Y5.2600
G1 Z-0.2500 F10.0
G1 X4.6267 Y5.2000 F30.0
G1 X4.6400 Y5.1600 F30.0
G1 X4.6933 Y5.1600 F30.0
G1 X4.7200 Y5.0800 F30.0
G1 X4.7467 Y5.1200 F30.0
G1 X4.6933 Y5.1600 F30.0
G1 X4.7067 Y5.2000 F30.0
G1 X4.6800 Y5.2400 F30.0
G0 Z0.5000

; Path 142/200
G0 X3.2933 Y5.3200
G1 Z-0.2500 F10.0
G1 X3.2533 Y5.2600 F30.0
G1 X3.2667 Y5.2200 F30.0
G1 X3.3200 Y5.2200 F30.0
G1 X3.3333 Y5.2600 F30.0
G1 X3.3067 Y5.3000 F30.0
G0 Z0.5000

; Path 143/200
G0 X4.5200 Y5.3600
G1 Z-0.2500 F10.0
G1 X4.5333 Y5.3800 F30.0
G1 X4.5333 Y5.3400 F30.0
G0 Z0.5000

; Path 144/200
G0 X0.6533 Y5.4000
G1 Z-0.2500 F10.0
G1 X0.6267 Y5.3600 F30.0
G1 X0.6533 Y5.3200 F30.0
G1 X0.6133 Y5.2600 F30.0
G1 X0.6533 Y5.2000 F30.0
G1 X0.6267 Y5.1600 F30.0
G1 X0.6800 Y5.0800 F30.0
G1 X0.6400 Y5.0200 F30.0
G1 X0.6667 Y4.9600 F30.0
G1 X0.6400 Y4.9000 F30.0
G1 X0.6667 Y4.8400 F30.0
G1 X0.6267 Y4.7600 F30.0
G1 X0.6533 Y4.7000 F30.0
G1 X0.6267 Y4.6400 F30.0
G1 X0.6533 Y4.6000 F30.0
G1 X0.7467 Y4.7400 F30.0
G1 X0.7067 Y4.8200 F30.0
G1 X0.7467 Y4.9000 F30.0
G1 X0.7067 Y4.9800 F30.0
G1 X0.7200 Y5.0200 F30.0
G1 X0.6933 Y5.0800 F30.0
G1 X0.7200 Y5.1200 F30.0
G1 X0.6533 Y5.2000 F30.0
G1 X0.6933 Y5.2600 F30.0
G1 X0.6533 Y5.3200 F30.0
G1 X0.6800 Y5.3600 F30.0
G0 Z0.5000

; Path 145/200
G0 X3.3733 Y5.4200
G1 Z-0.2500 F10.0
G1 X3.3333 Y5.3600 F30.0
G1 X3.3467 Y5.3200 F30.0
G1 X3.4533 Y5.3200 F30.0
G1 X3.4533 Y5.4000 F30.0
G1 X3.3867 Y5.4000 F30.0
G0 Z0.5000

; Path 146/200
G0 X4.5200 Y5.4400
G1 Z-0.2500 F10.0
G1 X4.4933 Y5.4000 F30.0
G1 X4.5733 Y5.2800 F30.0
G1 X4.6133 Y5.3400 F30.0
G1 X4.6000 Y5.3800 F30.0
G1 X4.5600 Y5.3800 F30.0
G0 Z0.5000

; Path 147/200
G0 X7.3067 Y5.5200
G1 Z-0.2500 F10.0
G1 X7.3200 Y5.5400 F30.0
G1 X7.3200 Y5.5000 F30.0
G0 Z0.5000

; Path 148/200
G0 X3.5600 Y5.5200
G1 Z-0.2500 F10.0
G1 X3.5200 Y5.4600 F30.0
G1 X3.5333 Y5.4200 F30.0
G1 X3.5867 Y5.4200 F30.0
G1 X3.6000 Y5.4600 F30.0
G1 X3.5733 Y5.5000 F30.0
G0 Z0.5000

; Path 149/200
G0 X7.3200 Y5.5400
G1 Z-0.2500 F10.0
G1 X7.3333 Y5.5600 F30.0
G1 X7.3333 Y5.5200 F30.0
G0 Z0.5000

; Path 150/200
G0 X0.6400 Y5.5400
G1 Z-0.2500 F10.0
G1 X0.6133 Y5.5000 F30.0
G1 X0.6400 Y5.4600 F30.0
G1 X0.6667 Y5.5000 F30.0
G0 Z0.5000

; Path 151/200
G0 X4.4533 Y5.5600
G1 Z-0.2500 F10.0
G1 X4.4133 Y5.5000 F30.0
G1 X4.3733 Y5.5000 F30.0
G1 X4.4133 Y5.5000 F30.0
G1 X4.4533 Y5.4400 F30.0
G1 X4.4933 Y5.5000 F30.0
G1 X4.4667 Y5.5400 F30.0
G0 Z0.5000

; Path 152/200
G0 X3.6400 Y5.5600
G1 Z-0.2500 F10.0
G1 X3.6267 Y5.5400 F30.0
G1 X3.6533 Y5.5400 F30.0
G0 Z0.5000

; Path 153/200
G0 X7.3067 Y5.6000
G1 Z-0.2500 F10.0
G1 X7.2800 Y5.5600 F30.0
G1 X7.3200 Y5.5000 F30.0
G1 X7.2933 Y5.4400 F30.0
G1 X7.3200 Y5.3800 F30.0
G1 X7.3200 Y5.3000 F30.0
G1 X7.3467 Y5.2800 F30.0
G1 X7.3867 Y5.3400 F30.0
G1 X7.3600 Y5.4000 F30.0
G1 X7.3733 Y5.5000 F30.0
G0 Z0.5000

; Path 154/200
G0 X4.1733 Y5.6000
G1 Z-0.2500 F10.0
G1 X4.1333 Y5.5400 F30.0
G1 X4.1467 Y5.5000 F30.0
G1 X4.2000 Y5.5000 F30.0
G1 X4.2133 Y5.5400 F30.0
G1 X4.1867 Y5.5800 F30.0
G0 Z0.5000

; Path 155/200
G0 X3.8400 Y5.6200
G1 Z-0.2500 F10.0
G1 X3.8000 Y5.5600 F30.0
G1 X3.8400 Y5.5000 F30.0
G1 X3.8800 Y5.5600 F30.0
G1 X3.9067 Y5.5600 F30.0
G1 X3.8533 Y5.6000 F30.0
G0 Z0.5000

; Path 156/200
G0 X4.2533 Y5.6400
G1 Z-0.2500 F10.0
G1 X4.2267 Y5.6000 F30.0
G1 X4.2533 Y5.5600 F30.0
G1 X4.2800 Y5.6000 F30.0
G0 Z0.5000

; Path 157/200
G0 X3.7067 Y5.6400
G1 Z-0.2500 F10.0
G1 X3.6667 Y5.5800 F30.0
G1 X3.6800 Y5.5400 F30.0
G1 X3.7333 Y5.5400 F30.0
G1 X3.7467 Y5.5800 F30.0
G1 X3.7200 Y5.6200 F30.0
G0 Z0.5000

; Path 158/200
G0 X4.0667 Y5.6600
G1 Z-0.2500 F10.0
G1 X4.0000 Y5.6000 F30.0
G1 X4.0267 Y5.5600 F30.0
G1 X4.0933 Y5.6200 F30.0
G0 Z0.5000

; Path 159/200
G0 X0.6533 Y5.7000
G1 Z-0.2500 F10.0
G1 X0.6267 Y5.6400 F30.0
G1 X0.6667 Y5.5800 F30.0
G1 X0.7067 Y5.6400 F30.0
G1 X0.6667 Y5.7000 F30.0
G0 Z0.5000

; Path 160/200
G0 X0.6400 Y5.8400
G1 Z-0.2500 F10.0
G1 X0.6133 Y5.8000 F30.0
G1 X0.6400 Y5.7600 F30.0
G1 X0.6667 Y5.8000 F30.0
G0 Z0.5000

; Path 161/200
G0 X7.3067 Y5.9400
G1 Z-0.2500 F10.0
G1 X7.2800 Y5.9000 F30.0
G1 X7.3067 Y5.8600 F30.0
G1 X7.2667 Y5.8000 F30.0
G1 X7.3467 Y5.6800 F30.0
G1 X7.3733 Y5.7000 F30.0
G1 X7.3733 Y5.7800 F30.0
G1 X7.3067 Y5.8600 F30.0
G1 X7.3333 Y5.9000 F30.0
G0 Z0.5000

; Path 162/200
G0 X7.3333 Y6.0600
G1 Z-0.2500 F10.0
G1 X7.3467 Y6.0800 F30.0
G1 X7.3467 Y6.0400 F30.0
G0 Z0.5000

; Path 163/200
G0 X0.6800 Y6.1000
G1 Z-0.2500 F10.0
G1 X0.6400 Y6.0000 F30.0
G1 X0.6533 Y5.8800 F30.0
G1 X0.6800 Y5.8600 F30.0
G1 X0.7200 Y5.9200 F30.0
G1 X0.7067 Y6.0600 F30.0
G0 Z0.5000

; Path 164/200
G0 X7.3600 Y6.2400
G1 Z-0.2500 F10.0
G1 X7.2933 Y6.1200 F30.0
G1 X7.3333 Y6.0600 F30.0
G1 X7.3333 Y5.9600 F30.0
G1 X7.3600 Y5.9400 F30.0
G1 X7.4000 Y6.0000 F30.0
G1 X7.3600 Y6.0600 F30.0
G1 X7.4000 Y6.1800 F30.0
G1 X7.3733 Y6.2200 F30.0
G0 Z0.5000

; Path 165/200
G0 X7.3333 Y6.3400
G1 Z-0.2500 F10.0
G1 X7.3067 Y6.3000 F30.0
G1 X7.3333 Y6.2600 F30.0
G1 X7.3600 Y6.3000 F30.0
G0 Z0.5000

; Path 166/200
G0 X0.6533 Y6.3400
G1 Z-0.2500 F10.0
G1 X0.6000 Y6.2600 F30.0
G1 X0.6267 Y6.1600 F30.0
G1 X0.6533 Y6.1400 F30.0
G1 X0.6933 Y6.2000 F30.0
G1 X0.7067 Y6.2600 F30.0
G1 X0.6667 Y6.3200 F30.0
G0 Z0.5000

; Path 167/200
G0 X0.6533 Y6.6000
G1 Z-0.2500 F10.0
G1 X0.6267 Y6.5600 F30.0
G1 X0.6800 Y6.4800 F30.0
G1 X0.6400 Y6.4200 F30.0
G1 X0.6533 Y6.3800 F30.0
G1 X0.7067 Y6.3800 F30.0
G1 X0.7200 Y6.4200 F30.0
G1 X0.6933 Y6.4800 F30.0
G1 X0.7333 Y6.5400 F30.0
G1 X0.6933 Y6.6000 F30.0
G1 X0.6667 Y6.5800 F30.0
G0 Z0.5000

; Path 168/200
G0 X7.3467 Y6.7400
G1 Z-0.2500 F10.0
G1 X7.2933 Y6.6600 F30.0
G1 X7.3333 Y6.5800 F30.0
G1 X7.3333 Y6.5000 F30.0
G1 X7.3600 Y6.4800 F30.0
G1 X7.3333 Y6.4200 F30.0
G1 X7.3600 Y6.3800 F30.0
G1 X7.3867 Y6.4200 F30.0
G1 X7.3600 Y6.4800 F30.0
G1 X7.4000 Y6.5400 F30.0
G1 X7.3733 Y6.6000 F30.0
G1 X7.4000 Y6.6600 F30.0
G1 X7.3600 Y6.7200 F30.0
G0 Z0.5000

; Path 169/200
G0 X3.9600 Y6.9800
G1 Z-0.2500 F10.0
G1 X3.9733 Y7.0000 F30.0
G1 X3.9733 Y6.9600 F30.0
G0 Z0.5000

; Path 170/200
G0 X2.8267 Y6.9800
G1 Z-0.2500 F10.0
G1 X2.8400 Y7.0000 F30.0
G1 X2.8400 Y6.9600 F30.0
G0 Z0.5000

; Path 171/200
G0 X1.8667 Y6.9800
G1 Z-0.2500 F10.0
G1 X1.8800 Y7.0000 F30.0
G1 X1.8800 Y6.9600 F30.0
G0 Z0.5000

; Path 172/200
G0 X1.2533 Y6.9800
G1 Z-0.2500 F10.0
G1 X1.2667 Y7.0000 F30.0
G1 X1.2667 Y6.9600 F30.0
G0 Z0.5000

; Path 173/200
G0 X2.2267 Y7.0000
G1 Z-0.2500 F10.0
G1 X2.2000 Y6.9600 F30.0
G1 X2.2267 Y6.9200 F30.0
G1 X2.2533 Y6.9600 F30.0
G0 Z0.5000

; Path 174/200
G0 X7.1200 Y7.0200
G1 Z-0.2500 F10.0
G1 X7.0933 Y6.9800 F30.0
G1 X7.1200 Y6.9400 F30.0
G1 X7.1467 Y6.9800 F30.0
G0 Z0.5000

; Path 175/200
G0 X4.9600 Y7.0200
G1 Z-0.2500 F10.0
G1 X4.9733 Y7.0400 F30.0
G1 X4.9733 Y7.0000 F30.0
G0 Z0.5000

; Path 176/200
G0 X2.7733 Y7.0200
G1 Z-0.2500 F10.0
G1 X2.8000 Y7.0200 F30.0
G1 X2.7867 Y6.9800 F30.0
G1 X2.7733 Y7.0000 F30.0
G0 Z0.5000

; Path 177/200
G0 X0.6533 Y7.0200
G1 Z-0.2500 F10.0
G1 X0.6667 Y7.0400 F30.0
G1 X0.6667 Y7.0000 F30.0
G0 Z0.5000

; Path 178/200
G0 X3.1867 Y7.0400
G1 Z-0.2500 F10.0
G1 X3.1200 Y6.9800 F30.0
G1 X3.1467 Y6.9400 F30.0
G1 X3.2133 Y7.0000 F30.0
G0 Z0.5000

; Path 179/200
G0 X1.0533 Y7.0400
G1 Z-0.2500 F10.0
G1 X1.0267 Y7.0000 F30.0
G1 X0.9867 Y7.0000 F30.0
G1 X0.9867 Y6.9200 F30.0
G1 X1.0400 Y6.9200 F30.0
G1 X1.0800 Y7.0000 F30.0
G0 Z0.5000

; Path 180/200
G0 X6.7467 Y7.0600
G1 Z-0.2500 F10.0
G1 X6.7200 Y7.0200 F30.0
G1 X6.7467 Y6.9800 F30.0
G1 X6.7733 Y7.0200 F30.0
G0 Z0.5000

; Path 181/200
G0 X6.6267 Y7.0800
G1 Z-0.2500 F10.0
G1 X6.6000 Y7.0400 F30.0
G1 X6.6267 Y6.9600 F30.0
G1 X6.6533 Y6.9400 F30.0
G1 X6.6933 Y7.0000 F30.0
G1 X6.6400 Y7.0600 F30.0
G0 Z0.5000

; Path 182/200
G0 X6.2133 Y7.0800
G1 Z-0.2500 F10.0
G1 X6.1600 Y7.0000 F30.0
G1 X6.2533 Y6.8800 F30.0
G1 X6.2933 Y6.9200 F30.0
G1 X6.3467 Y6.8800 F30.0
G1 X6.4133 Y6.9800 F30.0
G1 X6.4533 Y6.9800 F30.0
G1 X6.4667 Y6.9400 F30.0
G1 X6.5333 Y6.9000 F30.0
G1 X6.5733 Y6.9400 F30.0
G1 X6.5733 Y7.0200 F30.0
G1 X6.5333 Y7.0600 F30.0
G1 X6.4667 Y7.0200 F30.0
G1 X6.4267 Y7.0800 F30.0
G1 X6.3867 Y7.0200 F30.0
G1 X6.3467 Y7.0400 F30.0
G1 X6.2933 Y7.0000 F30.0
G1 X6.2267 Y7.0600 F30.0
G0 Z0.5000

; Path 183/200
G0 X4.5733 Y7.0800
G1 Z-0.2500 F10.0
G1 X4.5200 Y7.0000 F30.0
G1 X4.4667 Y7.0400 F30.0
G1 X4.4533 Y7.0200 F30.0
G1 X4.4267 Y7.0600 F30.0
G1 X4.4000 Y7.0200 F30.0
G1 X4.5067 Y6.9000 F30.0
G1 X4.5600 Y6.9800 F30.0
G1 X4.6000 Y6.9800 F30.0
G1 X4.6133 Y7.0200 F30.0
G1 X4.5867 Y7.0600 F30.0
G0 Z0.5000

; Path 184/200
G0 X3.0267 Y7.0800
G1 Z-0.2500 F10.0
G1 X2.9867 Y7.0400 F30.0
G1 X2.9867 Y6.9600 F30.0
G1 X3.0533 Y6.9000 F30.0
G1 X3.0933 Y6.9600 F30.0
G1 X3.0400 Y7.0600 F30.0
G0 Z0.5000

; Path 185/200
G0 X2.5733 Y7.0800
G1 Z-0.2500 F10.0
G1 X2.5467 Y7.0400 F30.0
G1 X2.5733 Y7.0000 F30.0
G1 X2.6000 Y7.0400 F30.0
G0 Z0.5000

; Path 186/200
G0 X1.4133 Y7.0800
G1 Z-0.2500 F10.0
G1 X1.3733 Y7.0400 F30.0
G1 X1.3733 Y6.9600 F30.0
G1 X1.4133 Y6.9200 F30.0
G1 X1.4667 Y6.9800 F30.0
G1 X1.4267 Y7.0600 F30.0
G0 Z0.5000

; Path 187/200
G0 X7.2000 Y7.1000
G1 Z-0.2500 F10.0
G1 X7.1600 Y7.0400 F30.0
G1 X7.2000 Y6.9800 F30.0
G1 X7.2400 Y7.0200 F30.0
G1 X7.3067 Y6.9200 F30.0
G1 X7.2800 Y6.8200 F30.0
G1 X7.3200 Y6.7600 F30.0
G1 X7.3600 Y6.8200 F30.0
G1 X7.3600 Y7.0000 F30.0
G1 X7.2933 Y7.1000 F30.0
G1 X7.2400 Y7.0400 F30.0
G1 X7.2133 Y7.0800 F30.0
G0 Z0.5000

; Path 188/200
G0 X6.9467 Y7.1000
G1 Z-0.2500 F10.0
G1 X6.8933 Y7.0200 F30.0
G1 X6.8533 Y7.0200 F30.0
G1 X6.8267 Y6.9600 F30.0
G1 X6.8000 Y7.0000 F30.0
G1 X6.7733 Y6.9600 F30.0
G1 X6.8000 Y6.9200 F30.0
G1 X6.8400 Y6.9800 F30.0
G1 X6.8800 Y6.9200 F30.0
G1 X6.9867 Y7.0400 F30.0
G1 X7.0400 Y6.9200 F30.0
G1 X7.0667 Y6.9600 F30.0
G1 X7.0533 Y7.0800 F30.0
G1 X7.0267 Y7.1000 F30.0
G1 X6.9867 Y7.0400 F30.0
G1 X6.9600 Y7.0800 F30.0
G0 Z0.5000

; Path 189/200
G0 X5.7600 Y7.1000
G1 Z-0.2500 F10.0
G1 X5.7200 Y7.0400 F30.0
G1 X5.7600 Y6.9800 F30.0
G1 X5.8000 Y7.0200 F30.0
G1 X5.8267 Y6.9800 F30.0
G1 X5.9067 Y7.0000 F30.0
G1 X6.0267 Y6.9000 F30.0
G1 X6.0800 Y6.9600 F30.0
G1 X6.1067 Y6.9200 F30.0
G1 X6.1333 Y6.9600 F30.0
G1 X6.1067 Y7.0000 F30.0
G1 X6.0800 Y6.9800 F30.0
G1 X6.0533 Y7.0600 F30.0
G1 X6.0133 Y7.0400 F30.0
G1 X5.9600 Y7.1000 F30.0
G1 X5.9200 Y7.0600 F30.0
G1 X5.8800 Y7.1000 F30.0
G1 X5.8400 Y7.0400 F30.0
G1 X5.8000 Y7.0400 F30.0
G1 X5.7733 Y7.0800 F30.0
G0 Z0.5000

; Path 190/200
G0 X5.5600 Y7.1000
G1 Z-0.2500 F10.0
G1 X5.5067 Y7.0200 F30.0
G1 X5.4800 Y7.0600 F30.0
G1 X5.4533 Y7.0200 F30.0
G1 X5.4800 Y6.9800 F30.0
G1 X5.5067 Y7.0200 F30.0
G1 X5.5600 Y6.9400 F30.0
G1 X5.6133 Y7.0200 F30.0
G1 X5.6667 Y6.9200 F30.0
G1 X5.7067 Y6.9800 F30.0
G1 X5.6933 Y7.0200 F30.0
G1 X5.6267 Y7.0800 F30.0
G1 X5.5733 Y7.0800 F30.0
G0 Z0.5000

; Path 191/200
G0 X4.3200 Y7.1000
G1 Z-0.2500 F10.0
G1 X4.2667 Y7.0200 F30.0
G1 X4.2400 Y7.0400 F30.0
G1 X4.2000 Y6.9800 F30.0
G1 X4.1733 Y7.0200 F30.0
G1 X4.1467 Y6.9800 F30.0
G1 X4.0933 Y7.0400 F30.0
G1 X4.0533 Y7.0000 F30.0
G1 X3.9733 Y7.0000 F30.0
G1 X3.9333 Y7.0600 F30.0
G1 X3.8533 Y6.9800 F30.0
G1 X3.8800 Y6.9400 F30.0
G1 X3.9733 Y6.9600 F30.0
G1 X4.0133 Y6.9000 F30.0
G1 X4.0533 Y6.9200 F30.0
G1 X4.0933 Y6.8800 F30.0
G1 X4.1467 Y6.9600 F30.0
G1 X4.1733 Y6.9400 F30.0
G1 X4.2000 Y6.9800 F30.0
G1 X4.2400 Y6.9200 F30.0
G1 X4.2800 Y6.9800 F30.0
G1 X4.3200 Y6.9400 F30.0
G1 X4.3733 Y7.0200 F30.0
G1 X4.3333 Y7.0800 F30.0
G0 Z0.5000

; Path 192/200
G0 X2.8267 Y7.1000
G1 Z-0.2500 F10.0
G1 X2.7733 Y7.0200 F30.0
G1 X2.6533 Y7.0200 F30.0
G1 X2.6533 Y6.9400 F30.0
G1 X2.7467 Y6.9200 F30.0
G1 X2.8133 Y7.0000 F30.0
G1 X2.9067 Y6.9000 F30.0
G1 X2.9467 Y6.9600 F30.0
G1 X2.9333 Y7.0000 F30.0
G1 X2.8667 Y7.0000 F30.0
G1 X2.8400 Y7.0800 F30.0
G0 Z0.5000

; Path 193/200
G0 X2.2933 Y7.1000
G1 Z-0.2500 F10.0
G1 X2.2533 Y7.0400 F30.0
G1 X2.2667 Y7.0000 F30.0
G1 X2.3467 Y7.0000 F30.0
G1 X2.4000 Y6.9200 F30.0
G1 X2.4400 Y6.9600 F30.0
G1 X2.4800 Y6.9600 F30.0
G1 X2.5067 Y6.9200 F30.0
G1 X2.5333 Y6.9600 F30.0
G1 X2.4933 Y7.0600 F30.0
G1 X2.4533 Y7.1000 F30.0
G1 X2.4133 Y7.0600 F30.0
G1 X2.3600 Y7.1000 F30.0
G1 X2.3067 Y7.0800 F30.0
G0 Z0.5000

; Path 194/200
G0 X1.8267 Y7.1000
G1 Z-0.2500 F10.0
G1 X1.7733 Y7.0200 F30.0
G1 X1.7200 Y7.0200 F30.0
G1 X1.7067 Y6.9800 F30.0
G1 X1.7467 Y6.9200 F30.0
G1 X1.7867 Y6.9800 F30.0
G1 X1.8400 Y6.9000 F30.0
G1 X1.8800 Y6.9600 F30.0
G1 X1.9200 Y6.9400 F30.0
G1 X1.9733 Y7.0000 F30.0
G1 X2.0400 Y6.9000 F30.0
G1 X2.0800 Y6.9400 F30.0
G1 X2.1467 Y6.9400 F30.0
G1 X2.1467 Y7.0200 F30.0
G1 X2.0800 Y7.0200 F30.0
G1 X2.0400 Y7.0600 F30.0
G1 X2.0267 Y7.0400 F30.0
G1 X1.9867 Y7.1000 F30.0
G1 X1.9467 Y7.0400 F30.0
G1 X1.9200 Y7.0600 F30.0
G1 X1.8800 Y7.0200 F30.0
G1 X1.8400 Y7.0800 F30.0
G0 Z0.5000

; Path 195/200
G0 X1.6400 Y7.1000
G1 Z-0.2500 F10.0
G1 X1.5733 Y7.0400 F30.0
G1 X1.5200 Y7.0400 F30.0
G1 X1.5200 Y6.9600 F30.0
G1 X1.5467 Y6.9400 F30.0
G1 X1.5867 Y7.0000 F30.0
G1 X1.6400 Y6.9400 F30.0
G1 X1.6933 Y7.0200 F30.0
G1 X1.6533 Y7.0800 F30.0
G0 Z0.5000

; Path 196/200
G0 X0.7333 Y7.1000
G1 Z-0.2500 F10.0
G1 X0.6267 Y7.0000 F30.0
G1 X0.6133 Y6.9600 F30.0
G1 X0.6533 Y6.9000 F30.0
G1 X0.6533 Y6.8600 F30.0
G1 X0.6000 Y6.8000 F30.0
G1 X0.6000 Y6.7200 F30.0
G1 X0.6400 Y6.6800 F30.0
G1 X0.6933 Y6.7200 F30.0
G1 X0.6800 Y6.7800 F30.0
G1 X0.7467 Y6.8800 F30.0
G1 X0.6800 Y6.9800 F30.0
G1 X0.6933 Y7.0000 F30.0
G1 X0.7467 Y7.0000 F30.0
G1 X0.8133 Y6.9000 F30.0
G1 X0.8667 Y6.9000 F30.0
G1 X0.9467 Y7.0200 F30.0
G1 X0.9067 Y7.0800 F30.0
G1 X0.8533 Y7.0400 F30.0
G1 X0.7733 Y7.0400 F30.0
G1 X0.7467 Y7.0800 F30.0
G0 Z0.5000

; Path 197/200
G0 X5.2667 Y7.1200
G1 Z-0.2500 F10.0
G1 X5.2133 Y7.0400 F30.0
G1 X5.1733 Y7.1000 F30.0
G1 X5.1467 Y7.0800 F30.0
G1 X5.1200 Y7.0000 F30.0
G1 X5.0667 Y7.1000 F30.0
G1 X5.0267 Y7.0400 F30.0
G1 X5.0400 Y7.0000 F30.0
G1 X5.0933 Y7.0000 F30.0
G1 X5.1067 Y6.9200 F30.0
G1 X5.1333 Y6.9000 F30.0
G1 X5.2133 Y7.0400 F30.0
G1 X5.2667 Y6.9600 F30.0
G1 X5.3200 Y7.0200 F30.0
G1 X5.3733 Y6.9600 F30.0
G1 X5.4133 Y7.0200 F30.0
G1 X5.3733 Y7.0800 F30.0
G1 X5.3200 Y7.0400 F30.0
G1 X5.2800 Y7.1000 F30.0
G0 Z0.5000

; Path 198/200
G0 X4.9200 Y7.1200
G1 Z-0.2500 F10.0
G1 X4.8400 Y7.0000 F30.0
G1 X4.7867 Y7.0800 F30.0
G1 X4.7067 Y7.0200 F30.0
G1 X4.6933 Y6.9800 F30.0
G1 X4.6533 Y7.0200 F30.0
G1 X4.6267 Y6.9800 F30.0
G1 X4.6533 Y6.9400 F30.0
G1 X4.6933 Y6.9800 F30.0
G1 X4.7333 Y6.9200 F30.0
G1 X4.7867 Y6.9200 F30.0
G1 X4.8400 Y6.9800 F30.0
G1 X4.8800 Y6.9200 F30.0
G1 X4.9333 Y6.9800 F30.0
G1 X4.9867 Y6.9000 F30.0
G1 X5.0267 Y6.9600 F30.0
G1 X4.9333 Y7.1000 F30.0
G0 Z0.5000

; Path 199/200
G0 X3.7733 Y7.1200
G1 Z-0.2500 F10.0
G1 X3.7200 Y7.0400 F30.0
G1 X3.6800 Y7.1000 F30.0
G1 X3.5733 Y6.9800 F30.0
G1 X3.4933 Y7.1000 F30.0
G1 X3.4133 Y7.0000 F30.0
G1 X3.3600 Y7.0600 F30.0
G1 X3.3333 Y7.0400 F30.0
G1 X3.2933 Y7.0800 F30.0
G1 X3.2533 Y7.0200 F30.0
G1 X3.2667 Y6.9800 F30.0
G1 X3.3067 Y6.9800 F30.0
G1 X3.3600 Y6.9000 F30.0
G1 X3.4533 Y6.9800 F30.0
G1 X3.5333 Y6.9200 F30.0
G1 X3.5733 Y6.9800 F30.0
G1 X3.6133 Y6.9200 F30.0
G1 X3.6667 Y7.0000 F30.0
G1 X3.6933 Y7.0000 F30.0
G1 X3.7467 Y6.9200 F30.0
G1 X3.8267 Y7.0400 F30.0
G1 X3.7867 Y7.1000 F30.0
G0 Z0.5000

; Path 200/200
G0 X1.2267 Y7.1200
G1 Z-0.2500 F10.0
G1 X1.1733 Y7.0600 F30.0
G1 X1.1200 Y7.0600 F30.0
G1 X1.1200 Y6.9800 F30.0
G1 X1.2533 Y6.9800 F30.0
G1 X1.2933 Y6.9200 F30.0
G1 X1.3467 Y7.0400 F30.0
G1 X1.3067 Y7.1000 F30.0
G1 X1.2400 Y7.1000 F30.0
G0 Z0.5000


; Total paths: 200
G0 Z0.5
G0 X0 Y0
; Spindle already off
M2
