; Generated by Line to G-Code Converter
; File: test_clean_lines.png
; Tool diameter: 0.25 inch
; Cut depth: 0.25 inch
; Feed rate: 30.0 inch/min

G20
G90
G17
G0 Z0.5
; Spindle control disabled
G4 P2

; Path 1/4
G0 X3.9867 Y5.5800
G1 Z-0.2500 F10.0
G1 X4.1600 Y5.5800 F30.0
G1 X4.4000 Y5.4800 F30.0
G1 X4.5600 Y5.3600 F30.0
G1 X4.7200 Y5.1800 F30.0
G1 X4.8533 Y4.9600 F30.0
G1 X4.9867 Y4.6000 F30.0
G1 X5.0400 Y4.3400 F30.0
G1 X5.0667 Y4.0000 F30.0
G1 X5.0533 Y3.7600 F30.0
G1 X4.9867 Y3.4000 F30.0
G1 X4.9067 Y3.1600 F30.0
G1 X4.7867 Y2.9200 F30.0
G1 X4.6400 Y2.7200 F30.0
G1 X4.4000 Y2.5200 F30.0
G1 X4.2267 Y2.4400 F30.0
G1 X4.0000 Y2.4000 F30.0
G1 X3.8400 Y2.4200 F30.0
G1 X3.6000 Y2.5200 F30.0
G1 X3.4400 Y2.6400 F30.0
G1 X3.2800 Y2.8200 F30.0
G1 X3.1467 Y3.0400 F30.0
G1 X3.0133 Y3.4000 F30.0
G1 X2.9600 Y3.6600 F30.0
G1 X2.9333 Y4.0000 F30.0
G1 X2.9467 Y4.2400 F30.0
G1 X3.0133 Y4.6000 F30.0
G1 X3.0933 Y4.8400 F30.0
G1 X3.2133 Y5.0800 F30.0
G1 X3.4400 Y5.3600 F30.0
G1 X3.6000 Y5.4800 F30.0
G1 X3.8400 Y5.5800 F30.0
G0 Z0.5000

; Path 2/4
G0 X4.0000 Y5.6000
G1 Z-0.2500 F10.0
G1 X3.7200 Y5.5400 F30.0
G1 X3.6000 Y5.4800 F30.0
G1 X3.3600 Y5.2800 F30.0
G1 X3.1467 Y4.9600 F30.0
G1 X3.0133 Y4.6000 F30.0
G1 X2.9467 Y4.2400 F30.0
G1 X2.9467 Y3.7600 F30.0
G1 X3.0133 Y3.4000 F30.0
G1 X3.0933 Y3.1600 F30.0
G1 X3.2133 Y2.9200 F30.0
G1 X3.3600 Y2.7200 F30.0
G1 X3.6000 Y2.5200 F30.0
G1 X3.8400 Y2.4200 F30.0
G1 X4.1600 Y2.4200 F30.0
G1 X4.4000 Y2.5200 F30.0
G1 X4.6400 Y2.7200 F30.0
G1 X4.8533 Y3.0400 F30.0
G1 X4.9867 Y3.4000 F30.0
G1 X5.0533 Y3.7600 F30.0
G1 X5.0533 Y4.2400 F30.0
G1 X4.9867 Y4.6000 F30.0
G1 X4.8533 Y4.9600 F30.0
G1 X4.6400 Y5.2800 F30.0
G1 X4.4000 Y5.4800 F30.0
G1 X4.1600 Y5.5800 F30.0
G1 X4.0133 Y5.5800 F30.0
G0 Z0.5000

; Path 3/4
G0 X0.6667 Y6.9800
G1 Z-0.2500 F10.0
G1 X7.3333 Y6.9800 F30.0
G1 X7.3200 Y1.0000 F30.0
G1 X0.6667 Y1.0200 F30.0
G0 Z0.5000

; Path 4/4
G0 X0.6667 Y7.0000
G1 Z-0.2500 F10.0
G1 X0.6667 Y1.0000 F30.0
G1 X7.3333 Y1.0000 F30.0
G1 X7.3333 Y7.0000 F30.0
G0 Z0.5000


; Total paths: 4
G0 Z0.5
G0 X0 Y0
; Spindle already off
M2
